luts/lume_20260420_183657.cube
TITLE "Lume Grade"
LUT_3D_SIZE 5
0.0217903 0.0596524 0.0519506
0.2899630 0.0458167 0.0381148
0.7098058 0.0241558 0.0164540
1.0000000 0.0037640 0.0000000
1.0000000 0.0000000 0.0000000
0.0000000 0.2631444 0.0117261
0.2497385 0.2493086 0.0000000
0.6695814 0.2276478 0.0000000
1.0000000 0.2072560 0.0000000
1.0000000 0.2011848 0.0000000
0.0000000 0.6219220 0.0000000
0.1788186 0.6080862 0.0000000
0.5986614 0.5864254 0.0000000
0.9939069 0.5660336 0.0000000
1.0000000 0.5599624 0.0000000
0.0000000 0.9700353 0.0000000
0.1100067 0.9561996 0.0000000
0.5298495 0.9345387 0.0000000
0.9250950 0.9141469 0.0000000
1.0000000 0.9080757 0.0000000
0.0000000 1.0000000 0.0000000
0.0877759 1.0000000 0.0000000
0.5076188 1.0000000 0.0000000
0.9028642 1.0000000 0.0000000
1.0000000 1.0000000 0.0000000
0.0184565 0.0563186 0.2487086
0.2866292 0.0424828 0.2348728
0.7064720 0.0208220 0.2132120
1.0000000 0.0004302 0.1928202
1.0000000 0.0000000 0.1867490
0.0000000 0.2598106 0.2084842
0.2464047 0.2459748 0.1946484
0.6662475 0.2243140 0.1729876
1.0000000 0.2039222 0.1525958
1.0000000 0.1978510 0.1465246
0.0000000 0.6185881 0.1375643
0.1754848 0.6047524 0.1237285
0.5953276 0.5830916 0.1020676
0.9905730 0.5626997 0.0816758
1.0000000 0.5566286 0.0756046
0.0000000 0.9667015 0.0687523
0.1066729 0.9528657 0.0549166
0.5265157 0.9312049 0.0332557
0.9217612 0.9108131 0.0128639
1.0000000 0.9047419 0.0067927
0.0000000 1.0000000 0.0465215
0.0844421 1.0000000 0.0326858
0.5042849 1.0000000 0.0110250
0.8995304 1.0000000 0.0000000
1.0000000 1.0000000 0.0000000
0.0115640 0.0494261 0.6554918
0.2797367 0.0355903 0.6416560
0.6995795 0.0139295 0.6199952
1.0000000 0.0000000 0.5996034
1.0000000 0.0000000 0.5935322
0.0000000 0.2529181 0.6152674
0.2395122 0.2390823 0.6014316
0.6593550 0.2174215 0.5797707
1.0000000 0.1970297 0.5593790
1.0000000 0.1909585 0.5533078
0.0000000 0.6116957 0.5443475
0.1685923 0.5978599 0.5305117
0.5884351 0.5761991 0.5088508
0.9836806 0.5558073 0.4884591
1.0000000 0.5497361 0.4823879
0.0000000 0.9598091 0.4755356
0.0997804 0.9459733 0.4616998
0.5196232 0.9243124 0.4400389
0.9148687 0.9039206 0.4196472
1.0000000 0.8978494 0.4135760
0.0000000 1.0000000 0.4533048
0.0775496 1.0000000 0.4394690
0.4973924 1.0000000 0.4178082
0.8926379 1.0000000 0.3974164
1.0000000 1.0000000 0.3913452
0.0044402 0.0423023 1.0000000
0.2726129 0.0284665 1.0000000
0.6924556 0.0068057 1.0000000
1.0000000 0.0000000 1.0000000
1.0000000 0.0000000 1.0000000
0.0000000 0.2457943 1.0000000
0.2323884 0.2319585 1.0000000
0.6522312 0.2102977 1.0000000
1.0000000 0.1899059 0.9798158
1.0000000 0.1838347 0.9737446
0.0000000 0.6045719 0.9647843
0.1614685 0.5907361 0.9509485
0.5813113 0.5690752 0.9292877
0.9765568 0.5486835 0.9088959
1.0000000 0.5426123 0.9028247
0.0000000 0.9526852 0.8959724
0.0926566 0.9388494 0.8821366
0.5124994 0.9171886 0.8604758
0.9077449 0.8967968 0.8400840
1.0000000 0.8907256 0.8340128
0.0000000 1.0000000 0.8737416
0.0704258 1.0000000 0.8599058
0.4902686 1.0000000 0.8382450
0.8855141 1.0000000 0.8178532
1.0000000 1.0000000 0.8117820
0.0012510 0.0391132 1.0000000
0.2694237 0.0252774 1.0000000
0.6892666 0.0036165 1.0000000
1.0000000 0.0000000 1.0000000
1.0000000 0.0000000 1.0000000
0.0000000 0.2426051 1.0000000
0.2291993 0.2287694 1.0000000
0.6490421 0.2071085 1.0000000
1.0000000 0.1867167 1.0000000
1.0000000 0.1806456 1.0000000
0.0000000 0.6013827 1.0000000
0.1582794 0.5875470 1.0000000
0.5781222 0.5658861 1.0000000
0.9733676 0.5454943 1.0000000
1.0000000 0.5394232 1.0000000
0.0000000 0.9494961 1.0000000
0.0894675 0.9356603 1.0000000
0.5093102 0.9139994 1.0000000
0.9045557 0.8936077 1.0000000
1.0000000 0.8875365 1.0000000
0.0000000 1.0000000 1.0000000
0.0672367 1.0000000 1.0000000
0.4870795 1.0000000 1.0000000
0.8823250 1.0000000 1.0000000
1.0000000 1.0000000 1.0000000
