luts/lume_20260420_183641.cube
TITLE "Lume Grade"
LUT_3D_SIZE 33
0.0000000 0.0101247 0.0307421
0.0000000 0.0101247 0.0307421
0.0032785 0.0099920 0.0306094
0.0460571 0.0087719 0.0293893
0.0879101 0.0075782 0.0281956
0.1293586 0.0063960 0.0270134
0.1705412 0.0052214 0.0258388
0.2115255 0.0040525 0.0246699
0.2523517 0.0028881 0.0235055
0.2930462 0.0017274 0.0223448
0.3336283 0.0005700 0.0211874
0.3741120 0.0000000 0.0200327
0.4145083 0.0000000 0.0188805
0.4548263 0.0000000 0.0177306
0.4950731 0.0000000 0.0165827
0.5352545 0.0000000 0.0154367
0.5753759 0.0000000 0.0142924
0.6154414 0.0000000 0.0131497
0.6554550 0.0000000 0.0120084
0.6954198 0.0000000 0.0108686
0.7353388 0.0000000 0.0097300
0.7752146 0.0000000 0.0085927
0.8150495 0.0000000 0.0074566
0.8548454 0.0000000 0.0063215
0.8946044 0.0000000 0.0051876
0.9343283 0.0000000 0.0040546
0.9740183 0.0000000 0.0029226
1.0000000 0.0000000 0.0017915
1.0000000 0.0000000 0.0006613
1.0000000 0.0000000 0.0000000
1.0000000 0.0000000 0.0000000
1.0000000 0.0000000 0.0000000
1.0000000 0.0000000 0.0000000
0.0000000 0.0101247 0.0307421
0.0000000 0.0101247 0.0307421
0.0032785 0.0099920 0.0306094
0.0460571 0.0087719 0.0293893
0.0879101 0.0075782 0.0281956
0.1293586 0.0063960 0.0270134
0.1705412 0.0052214 0.0258388
0.2115255 0.0040525 0.0246699
0.2523517 0.0028881 0.0235055
0.2930462 0.0017274 0.0223448
0.3336283 0.0005700 0.0211874
0.3741120 0.0000000 0.0200327
0.4145083 0.0000000 0.0188805
0.4548263 0.0000000 0.0177306
0.4950731 0.0000000 0.0165827
0.5352545 0.0000000 0.0154367
0.5753759 0.0000000 0.0142924
0.6154414 0.0000000 0.0131497
0.6554550 0.0000000 0.0120084
0.6954198 0.0000000 0.0108686
0.7353388 0.0000000 0.0097300
0.7752146 0.0000000 0.0085927
0.8150495 0.0000000 0.0074566
0.8548454 0.0000000 0.0063215
0.8946044 0.0000000 0.0051876
0.9343283 0.0000000 0.0040546
0.9740183 0.0000000 0.0029226
1.0000000 0.0000000 0.0017915
1.0000000 0.0000000 0.0006613
1.0000000 0.0000000 0.0000000
1.0000000 0.0000000 0.0000000
1.0000000 0.0000000 0.0000000
1.0000000 0.0000000 0.0000000
0.0000000 0.0300667 0.0286903
0.0000000 0.0300667 0.0286903
0.0012268 0.0299340 0.0285576
0.0440054 0.0287139 0.0273375
0.0858584 0.0275202 0.0261438
0.1273068 0.0263380 0.0249617
0.1684895 0.0251634 0.0237871
0.2094738 0.0239945 0.0226182
0.2503000 0.0228301 0.0214537
0.2909945 0.0216694 0.0202931
0.3315766 0.0205120 0.0191356
0.3720602 0.0193573 0.0179810
0.4124566 0.0182052 0.0168288
0.4527746 0.0170553 0.0156789
0.4930213 0.0159074 0.0145310
0.5332028 0.0147613 0.0133850
0.5733242 0.0136170 0.0122407
0.6133897 0.0124743 0.0110979
0.6534033 0.0113331 0.0099567
0.6933681 0.0101932 0.0088169
0.7332871 0.0090547 0.0076783
0.7731629 0.0079173 0.0065410
0.8129977 0.0067812 0.0054048
0.8527937 0.0056462 0.0042698
0.8925527 0.0045122 0.0031358
0.9322765 0.0033792 0.0020029
0.9719665 0.0022472 0.0008708
1.0000000 0.0011161 0.0000000
1.0000000 0.0000000 0.0000000
1.0000000 0.0000000 0.0000000
1.0000000 0.0000000 0.0000000
1.0000000 0.0000000 0.0000000
1.0000000 0.0000000 0.0000000
0.0000000 0.0666271 0.0249288
0.0000000 0.0666271 0.0249288
0.0000000 0.0664944 0.0247961
0.0402438 0.0652743 0.0235760
0.0820969 0.0640806 0.0223823
0.1235453 0.0628984 0.0212002
0.1647280 0.0617238 0.0200256
0.2057123 0.0605549 0.0188567
0.2465385 0.0593905 0.0176922
0.2872330 0.0582298 0.0165316
0.3278151 0.0570724 0.0153741
0.3682987 0.0559177 0.0142195
0.4086951 0.0547656 0.0130673
0.4490131 0.0536156 0.0119174
0.4892598 0.0524677 0.0107695
0.5294414 0.0513217 0.0096235
0.5695627 0.0501774 0.0084791
0.6096282 0.0490347 0.0073364
0.6496418 0.0478934 0.0061952
0.6896066 0.0467536 0.0050553
0.7295256 0.0456150 0.0039168
0.7694014 0.0444777 0.0027795
0.8092362 0.0433416 0.0016433
0.8490322 0.0422065 0.0005083
0.8887912 0.0410726 0.0000000
0.9285150 0.0399396 0.0000000
0.9682050 0.0388076 0.0000000
1.0000000 0.0376765 0.0000000
1.0000000 0.0365463 0.0000000
1.0000000 0.0354169 0.0000000
1.0000000 0.0347371 0.0000000
1.0000000 0.0347371 0.0000000
1.0000000 0.0347371 0.0000000
0.0000000 0.1031874 0.0211673
0.0000000 0.1031874 0.0211673
0.0000000 0.1030547 0.0210346
0.0364823 0.1018346 0.0198145
0.0783354 0.1006409 0.0186208
0.1197838 0.0994588 0.0174387
0.1609665 0.0982842 0.0162641
0.2019508 0.0971153 0.0150952
0.2427769 0.0959508 0.0139307
0.2834715 0.0947902 0.0127701
0.3240536 0.0936327 0.0116126
0.3645372 0.0924781 0.0104580
0.4049336 0.0913259 0.0093058
0.4452516 0.0901760 0.0081559
0.4854983 0.0890281 0.0070080
0.5256798 0.0878821 0.0058620
0.5658011 0.0867378 0.0047176
0.6058667 0.0855950 0.0035749
0.6458803 0.0844538 0.0024337
0.6858451 0.0833139 0.0012938
0.7257641 0.0821754 0.0001553
0.7656398 0.0810381 0.0000000
0.8054747 0.0799019 0.0000000
0.8452707 0.0787669 0.0000000
0.8850297 0.0776329 0.0000000
0.9247535 0.0765000 0.0000000
0.9644436 0.0753679 0.0000000
1.0000000 0.0742369 0.0000000
1.0000000 0.0731066 0.0000000
1.0000000 0.0719773 0.0000000
1.0000000 0.0712975 0.0000000
1.0000000 0.0712975 0.0000000
1.0000000 0.0712975 0.0000000
0.0000000 0.1397478 0.0174058
0.0000000 0.1397478 0.0174058
0.0000000 0.1396151 0.0172731
0.0327208 0.1383950 0.0160530
0.0745739 0.1372013 0.0148593
0.1160223 0.1360191 0.0136772
0.1572050 0.1348446 0.0125026
0.1981893 0.1336756 0.0113336
0.2390154 0.1325112 0.0101692
0.2797100 0.1313505 0.0090086
0.3202921 0.1301931 0.0078511
0.3607757 0.1290385 0.0066965
0.4011721 0.1278863 0.0055443
0.4414901 0.1267364 0.0043944
0.4817368 0.1255885 0.0032465
0.5219184 0.1244425 0.0021005
0.5620397 0.1232981 0.0009561
0.6021052 0.1221554 0.0000000
0.6421188 0.1210142 0.0000000
0.6820835 0.1198743 0.0000000
0.7220026 0.1187358 0.0000000
0.7618784 0.1175985 0.0000000
0.8017132 0.1164623 0.0000000
0.8415092 0.1153273 0.0000000
0.8812681 0.1141933 0.0000000
0.9209920 0.1130603 0.0000000
0.9606820 0.1119283 0.0000000
1.0000000 0.1107972 0.0000000
1.0000000 0.1096670 0.0000000
1.0000000 0.1085377 0.0000000
1.0000000 0.1078579 0.0000000
1.0000000 0.1078579 0.0000000
1.0000000 0.1078579 0.0000000
0.0000000 0.1763082 0.0136443
0.0000000 0.1763082 0.0136443
0.0000000 0.1761755 0.0135116
0.0289593 0.1749554 0.0122915
0.0708124 0.1737617 0.0110978
0.1122608 0.1725795 0.0099156
0.1534435 0.1714050 0.0087411
0.1944278 0.1702360 0.0075721
0.2352539 0.1690716 0.0064077
0.2759485 0.1679109 0.0052471
0.3165306 0.1667535 0.0040896
0.3570142 0.1655988 0.0029350
0.3974106 0.1644467 0.0017828
0.4377286 0.1632968 0.0006329
0.4779753 0.1621489 0.0000000
0.5181568 0.1610028 0.0000000
0.5582782 0.1598585 0.0000000
0.5983437 0.1587158 0.0000000
0.6383573 0.1575746 0.0000000
0.6783221 0.1564347 0.0000000
0.7182411 0.1552962 0.0000000
0.7581168 0.1541589 0.0000000
0.7979517 0.1530227 0.0000000
0.8377477 0.1518877 0.0000000
0.8775067 0.1507537 0.0000000
0.9172305 0.1496207 0.0000000
0.9569206 0.1484887 0.0000000
0.9965782 0.1473576 0.0000000
1.0000000 0.1462274 0.0000000
1.0000000 0.1450980 0.0000000
1.0000000 0.1444182 0.0000000
1.0000000 0.1444182 0.0000000
1.0000000 0.1444182 0.0000000
0.0000000 0.2128685 0.0098828
0.0000000 0.2128685 0.0098828
0.0000000 0.2127359 0.0097501
0.0251978 0.2115158 0.0085300
0.0670509 0.2103221 0.0073363
0.1084993 0.2091399 0.0061541
0.1496820 0.2079653 0.0049796
0.1906663 0.2067964 0.0038106
0.2314924 0.2056320 0.0026462
0.2721870 0.2044713 0.0014856
0.3127691 0.2033138 0.0003281
0.3532527 0.2021592 0.0000000
0.3936491 0.2010070 0.0000000
0.4339671 0.1998571 0.0000000
0.4742138 0.1987092 0.0000000
0.5143954 0.1975632 0.0000000
0.5545167 0.1964189 0.0000000
0.5945822 0.1952761 0.0000000
0.6345958 0.1941349 0.0000000
0.6745605 0.1929951 0.0000000
0.7144796 0.1918565 0.0000000
0.7543553 0.1907192 0.0000000
0.7941902 0.1895831 0.0000000
0.8339862 0.1884480 0.0000000
0.8737452 0.1873140 0.0000000
0.9134690 0.1861811 0.0000000
0.9531590 0.1850491 0.0000000
0.9928168 0.1839180 0.0000000
1.0000000 0.1827877 0.0000000
1.0000000 0.1816584 0.0000000
1.0000000 0.1809786 0.0000000
1.0000000 0.1809786 0.0000000
1.0000000 0.1809786 0.0000000
0.0000000 0.2494289 0.0061213
0.0000000 0.2494289 0.0061213
0.0000000 0.2492962 0.0059886
0.0214363 0.2480761 0.0047685
0.0632894 0.2468824 0.0035748
0.1047378 0.2457003 0.0023926
0.1459205 0.2445257 0.0012181
0.1869048 0.2433568 0.0000491
0.2277309 0.2421923 0.0000000
0.2684255 0.2410317 0.0000000
0.3090076 0.2398742 0.0000000
0.3494912 0.2387196 0.0000000
0.3898876 0.2375674 0.0000000
0.4302055 0.2364175 0.0000000
0.4704523 0.2352696 0.0000000
0.5106338 0.2341236 0.0000000
0.5507551 0.2329793 0.0000000
0.5908207 0.2318365 0.0000000
0.6308342 0.2306953 0.0000000
0.6707990 0.2295555 0.0000000
0.7107180 0.2284169 0.0000000
0.7505938 0.2272796 0.0000000
0.7904287 0.2261434 0.0000000
0.8302247 0.2250084 0.0000000
0.8699837 0.2238744 0.0000000
0.9097075 0.2227415 0.0000000
0.9493975 0.2216094 0.0000000
0.9890553 0.2204784 0.0000000
1.0000000 0.2193481 0.0000000
1.0000000 0.2182188 0.0000000
1.0000000 0.2175390 0.0000000
1.0000000 0.2175390 0.0000000
1.0000000 0.2175390 0.0000000
0.0000000 0.2859893 0.0023598
0.0000000 0.2859893 0.0023598
0.0000000 0.2858565 0.0022271
0.0176748 0.2846365 0.0010070
0.0595279 0.2834427 0.0000000
0.1009763 0.2822606 0.0000000
0.1421590 0.2810860 0.0000000
0.1831433 0.2799171 0.0000000
0.2239694 0.2787527 0.0000000
0.2646640 0.2775920 0.0000000
0.3052461 0.2764345 0.0000000
0.3457297 0.2752799 0.0000000
0.3861261 0.2741277 0.0000000
0.4264441 0.2729778 0.0000000
0.4666908 0.2718299 0.0000000
0.5068723 0.2706839 0.0000000
0.5469937 0.2695396 0.0000000
0.5870591 0.2683969 0.0000000
0.6270728 0.2672556 0.0000000
0.6670375 0.2661158 0.0000000
0.7069566 0.2649772 0.0000000
0.7468324 0.2638399 0.0000000
0.7866672 0.2627038 0.0000000
0.8264632 0.2615687 0.0000000
0.8662221 0.2604347 0.0000000
0.9059460 0.2593018 0.0000000
0.9456360 0.2581698 0.0000000
0.9852939 0.2570387 0.0000000
1.0000000 0.2559085 0.0000000
1.0000000 0.2547791 0.0000000
1.0000000 0.2540993 0.0000000
1.0000000 0.2540993 0.0000000
1.0000000 0.2540993 0.0000000
0.0000000 0.3225496 0.0000000
0.0000000 0.3225496 0.0000000
0.0000000 0.3224170 0.0000000
0.0139133 0.3211969 0.0000000
0.0557664 0.3200032 0.0000000
0.0972148 0.3188210 0.0000000
0.1383975 0.3176464 0.0000000
0.1793818 0.3164775 0.0000000
0.2202079 0.3153130 0.0000000
0.2609025 0.3141524 0.0000000
0.3014846 0.3129949 0.0000000
0.3419682 0.3118403 0.0000000
0.3823646 0.3106881 0.0000000
0.4226825 0.3095382 0.0000000
0.4629293 0.3083903 0.0000000
0.5031108 0.3072443 0.0000000
0.5432321 0.3061000 0.0000000
0.5832977 0.3049572 0.0000000
0.6233113 0.3038160 0.0000000
0.6632761 0.3026761 0.0000000
0.7031951 0.3015376 0.0000000
0.7430708 0.3004003 0.0000000
0.7829057 0.2992642 0.0000000
0.8227017 0.2981291 0.0000000
0.8624607 0.2969951 0.0000000
0.9021845 0.2958622 0.0000000
0.9418745 0.2947302 0.0000000
0.9815323 0.2935991 0.0000000
1.0000000 0.2924688 0.0000000
1.0000000 0.2913395 0.0000000
1.0000000 0.2906597 0.0000000
1.0000000 0.2906597 0.0000000
1.0000000 0.2906597 0.0000000
0.0000000 0.3591100 0.0000000
0.0000000 0.3591100 0.0000000
0.0000000 0.3589773 0.0000000
0.0101518 0.3577572 0.0000000
0.0520049 0.3565635 0.0000000
0.0934533 0.3553814 0.0000000
0.1346360 0.3542068 0.0000000
0.1756202 0.3530379 0.0000000
0.2164464 0.3518735 0.0000000
0.2571410 0.3507128 0.0000000
0.2977231 0.3495553 0.0000000
0.3382067 0.3484007 0.0000000
0.3786031 0.3472485 0.0000000
0.4189210 0.3460986 0.0000000
0.4591678 0.3449507 0.0000000
0.4993493 0.3438047 0.0000000
0.5394707 0.3426604 0.0000000
0.5795361 0.3415176 0.0000000
0.6195498 0.3403764 0.0000000
0.6595145 0.3392366 0.0000000
0.6994336 0.3380980 0.0000000
0.7393093 0.3369607 0.0000000
0.7791442 0.3358245 0.0000000
0.8189402 0.3346895 0.0000000
0.8586992 0.3335555 0.0000000
0.8984230 0.3324226 0.0000000
0.9381130 0.3312905 0.0000000
0.9777708 0.3301595 0.0000000
1.0000000 0.3290293 0.0000000
1.0000000 0.3278999 0.0000000
1.0000000 0.3272201 0.0000000
1.0000000 0.3272201 0.0000000
1.0000000 0.3272201 0.0000000
0.0000000 0.3956704 0.0000000
0.0000000 0.3956704 0.0000000
0.0000000 0.3955377 0.0000000
0.0063903 0.3943176 0.0000000
0.0482434 0.3931239 0.0000000
0.0896918 0.3919417 0.0000000
0.1308745 0.3907672 0.0000000
0.1718587 0.3895982 0.0000000
0.2126849 0.3884338 0.0000000
0.2533795 0.3872731 0.0000000
0.2939616 0.3861157 0.0000000
0.3344452 0.3849610 0.0000000
0.3748416 0.3838089 0.0000000
0.4151595 0.3826590 0.0000000
0.4554063 0.3815111 0.0000000
0.4955878 0.3803650 0.0000000
0.5357091 0.3792207 0.0000000
0.5757747 0.3780780 0.0000000
0.6157882 0.3769368 0.0000000
0.6557530 0.3757969 0.0000000
0.6956720 0.3746584 0.0000000
0.7355478 0.3735211 0.0000000
0.7753826 0.3723849 0.0000000
0.8151786 0.3712499 0.0000000
0.8549377 0.3701159 0.0000000
0.8946615 0.3689829 0.0000000
0.9343515 0.3678509 0.0000000
0.9740093 0.3667198 0.0000000
1.0000000 0.3655896 0.0000000
1.0000000 0.3644602 0.0000000
1.0000000 0.3637804 0.0000000
1.0000000 0.3637804 0.0000000
1.0000000 0.3637804 0.0000000
0.0000000 0.4322308 0.0000000
0.0000000 0.4322308 0.0000000
0.0000000 0.4320981 0.0000000
0.0026288 0.4308780 0.0000000
0.0444819 0.4296843 0.0000000
0.0859303 0.4285021 0.0000000
0.1271130 0.4273275 0.0000000
0.1680972 0.4261586 0.0000000
0.2089234 0.4249942 0.0000000
0.2496180 0.4238335 0.0000000
0.2902001 0.4226761 0.0000000
0.3306837 0.4215214 0.0000000
0.3710801 0.4203692 0.0000000
0.4113980 0.4192193 0.0000000
0.4516448 0.4180714 0.0000000
0.4918263 0.4169254 0.0000000
0.5319476 0.4157811 0.0000000
0.5720131 0.4146384 0.0000000
0.6120268 0.4134971 0.0000000
0.6519915 0.4123573 0.0000000
0.6919106 0.4112187 0.0000000
0.7317863 0.4100814 0.0000000
0.7716212 0.4089453 0.0000000
0.8114172 0.4078102 0.0000000
0.8511761 0.4066763 0.0000000
0.8909000 0.4055433 0.0000000
0.9305900 0.4044113 0.0000000
0.9702477 0.4032802 0.0000000
1.0000000 0.4021500 0.0000000
1.0000000 0.4010206 0.0000000
1.0000000 0.4003408 0.0000000
1.0000000 0.4003408 0.0000000
1.0000000 0.4003408 0.0000000
0.0000000 0.4687911 0.0000000
0.0000000 0.4687911 0.0000000
0.0000000 0.4686584 0.0000000
0.0000000 0.4674383 0.0000000
0.0407203 0.4662446 0.0000000
0.0821688 0.4650625 0.0000000
0.1233514 0.4638879 0.0000000
0.1643357 0.4627190 0.0000000
0.2051619 0.4615546 0.0000000
0.2458565 0.4603939 0.0000000
0.2864385 0.4592364 0.0000000
0.3269222 0.4580818 0.0000000
0.3673186 0.4569296 0.0000000
0.4076365 0.4557797 0.0000000
0.4478832 0.4546318 0.0000000
0.4880648 0.4534858 0.0000000
0.5281861 0.4523415 0.0000000
0.5682516 0.4511988 0.0000000
0.6082652 0.4500575 0.0000000
0.6482300 0.4489177 0.0000000
0.6881490 0.4477791 0.0000000
0.7280248 0.4466418 0.0000000
0.7678597 0.4455056 0.0000000
0.8076557 0.4443706 0.0000000
0.8474146 0.4432366 0.0000000
0.8871385 0.4421037 0.0000000
0.9268285 0.4409717 0.0000000
0.9664863 0.4398406 0.0000000
1.0000000 0.4387104 0.0000000
1.0000000 0.4375810 0.0000000
1.0000000 0.4369012 0.0000000
1.0000000 0.4369012 0.0000000
1.0000000 0.4369012 0.0000000
0.0000000 0.5053515 0.0000000
0.0000000 0.5053515 0.0000000
0.0000000 0.5052188 0.0000000
0.0000000 0.5039987 0.0000000
0.0369588 0.5028050 0.0000000
0.0784073 0.5016228 0.0000000
0.1195900 0.5004482 0.0000000
0.1605742 0.4992793 0.0000000
0.2014004 0.4981149 0.0000000
0.2420950 0.4969542 0.0000000
0.2826771 0.4957968 0.0000000
0.3231607 0.4946421 0.0000000
0.3635571 0.4934900 0.0000000
0.4038750 0.4923400 0.0000000
0.4441217 0.4911922 0.0000000
0.4843033 0.4900461 0.0000000
0.5244246 0.4889018 0.0000000
0.5644901 0.4877591 0.0000000
0.6045038 0.4866178 0.0000000
0.6444685 0.4854780 0.0000000
0.6843876 0.4843394 0.0000000
0.7242633 0.4832021 0.0000000
0.7640982 0.4820660 0.0000000
0.8038942 0.4809310 0.0000000
0.8436531 0.4797970 0.0000000
0.8833770 0.4786640 0.0000000
0.9230670 0.4775320 0.0000000
0.9627248 0.4764009 0.0000000
1.0000000 0.4752707 0.0000000
1.0000000 0.4741413 0.0000000
1.0000000 0.4734615 0.0000000
1.0000000 0.4734615 0.0000000
1.0000000 0.4734615 0.0000000
0.0000000 0.5419118 0.0000000
0.0000000 0.5419118 0.0000000
0.0000000 0.5417792 0.0000000
0.0000000 0.5405591 0.0000000
0.0331973 0.5393654 0.0000000
0.0746458 0.5381832 0.0000000
0.1158284 0.5370086 0.0000000
0.1568127 0.5358397 0.0000000
0.1976389 0.5346753 0.0000000
0.2383335 0.5335146 0.0000000
0.2789155 0.5323572 0.0000000
0.3193992 0.5312025 0.0000000
0.3597956 0.5300503 0.0000000
0.4001135 0.5289004 0.0000000
0.4403602 0.5277525 0.0000000
0.4805418 0.5266065 0.0000000
0.5206631 0.5254622 0.0000000
0.5607287 0.5243195 0.0000000
0.6007422 0.5231782 0.0000000
0.6407070 0.5220384 0.0000000
0.6806260 0.5208998 0.0000000
0.7205018 0.5197625 0.0000000
0.7603366 0.5186264 0.0000000
0.8001326 0.5174913 0.0000000
0.8398917 0.5163574 0.0000000
0.8796154 0.5152244 0.0000000
0.9193055 0.5140924 0.0000000
0.9589633 0.5129613 0.0000000
0.9985901 0.5118311 0.0000000
1.0000000 0.5107017 0.0000000
1.0000000 0.5100219 0.0000000
1.0000000 0.5100219 0.0000000
1.0000000 0.5100219 0.0000000
0.0000000 0.5784723 0.0000000
0.0000000 0.5784723 0.0000000
0.0000000 0.5783396 0.0000000
0.0000000 0.5771195 0.0000000
0.0294358 0.5759257 0.0000000
0.0708843 0.5747436 0.0000000
0.1120669 0.5735690 0.0000000
0.1530512 0.5724001 0.0000000
0.1938774 0.5712357 0.0000000
0.2345720 0.5700750 0.0000000
0.2751540 0.5689175 0.0000000
0.3156376 0.5677629 0.0000000
0.3560340 0.5666107 0.0000000
0.3963520 0.5654608 0.0000000
0.4365987 0.5643129 0.0000000
0.4767803 0.5631669 0.0000000
0.5169016 0.5620226 0.0000000
0.5569671 0.5608798 0.0000000
0.5969807 0.5597386 0.0000000
0.6369455 0.5585988 0.0000000
0.6768645 0.5574602 0.0000000
0.7167403 0.5563229 0.0000000
0.7565752 0.5551867 0.0000000
0.7963712 0.5540517 0.0000000
0.8361301 0.5529177 0.0000000
0.8758540 0.5517848 0.0000000
0.9155440 0.5506527 0.0000000
0.9552017 0.5495217 0.0000000
0.9948286 0.5483915 0.0000000
1.0000000 0.5472621 0.0000000
1.0000000 0.5465823 0.0000000
1.0000000 0.5465823 0.0000000
1.0000000 0.5465823 0.0000000
0.0000000 0.6150327 0.0000000
0.0000000 0.6150327 0.0000000
0.0000000 0.6149000 0.0000000
0.0000000 0.6136799 0.0000000
0.0256743 0.6124861 0.0000000
0.0671228 0.6113040 0.0000000
0.1083054 0.6101294 0.0000000
0.1492897 0.6089605 0.0000000
0.1901159 0.6077961 0.0000000
0.2308104 0.6066354 0.0000000
0.2713925 0.6054779 0.0000000
0.3118761 0.6043233 0.0000000
0.3522725 0.6031711 0.0000000
0.3925905 0.6020212 0.0000000
0.4328372 0.6008734 0.0000000
0.4730188 0.5997273 0.0000000
0.5131401 0.5985830 0.0000000
0.5532056 0.5974402 0.0000000
0.5932192 0.5962991 0.0000000
0.6331840 0.5951592 0.0000000
0.6731030 0.5940206 0.0000000
0.7129788 0.5928833 0.0000000
0.7528136 0.5917472 0.0000000
0.7926096 0.5906121 0.0000000
0.8323686 0.5894781 0.0000000
0.8720925 0.5883452 0.0000000
0.9117825 0.5872132 0.0000000
0.9514402 0.5860821 0.0000000
0.9910671 0.5849519 0.0000000
1.0000000 0.5838225 0.0000000
1.0000000 0.5831427 0.0000000
1.0000000 0.5831427 0.0000000
1.0000000 0.5831427 0.0000000
0.0000000 0.6515930 0.0000000
0.0000000 0.6515930 0.0000000
0.0000000 0.6514603 0.0000000
0.0000000 0.6502402 0.0000000
0.0219128 0.6490464 0.0000000
0.0633613 0.6478643 0.0000000
0.1045440 0.6466897 0.0000000
0.1455282 0.6455208 0.0000000
0.1863544 0.6443564 0.0000000
0.2270490 0.6431957 0.0000000
0.2676310 0.6420382 0.0000000
0.3081146 0.6408836 0.0000000
0.3485110 0.6397314 0.0000000
0.3888290 0.6385815 0.0000000
0.4290757 0.6374336 0.0000000
0.4692573 0.6362876 0.0000000
0.5093786 0.6351433 0.0000000
0.5494441 0.6340005 0.0000000
0.5894577 0.6328593 0.0000000
0.6294225 0.6317195 0.0000000
0.6693415 0.6305809 0.0000000
0.7092173 0.6294436 0.0000000
0.7490522 0.6283075 0.0000000
0.7888482 0.6271724 0.0000000
0.8286071 0.6260384 0.0000000
0.8683310 0.6249055 0.0000000
0.9080210 0.6237735 0.0000000
0.9476787 0.6226424 0.0000000
0.9873055 0.6215122 0.0000000
1.0000000 0.6203828 0.0000000
1.0000000 0.6197030 0.0000000
1.0000000 0.6197030 0.0000000
1.0000000 0.6197030 0.0000000
0.0000000 0.6881533 0.0000000
0.0000000 0.6881533 0.0000000
0.0000000 0.6880206 0.0000000
0.0000000 0.6868005 0.0000000
0.0181513 0.6856068 0.0000000
0.0595998 0.6844246 0.0000000
0.1007824 0.6832501 0.0000000
0.1417667 0.6820812 0.0000000
0.1825929 0.6809167 0.0000000
0.2232875 0.6797560 0.0000000
0.2638695 0.6785986 0.0000000
0.3043531 0.6774440 0.0000000
0.3447495 0.6762918 0.0000000
0.3850675 0.6751419 0.0000000
0.4253142 0.6739940 0.0000000
0.4654958 0.6728480 0.0000000
0.5056171 0.6717036 0.0000000
0.5456826 0.6705609 0.0000000
0.5856962 0.6694196 0.0000000
0.6256610 0.6682798 0.0000000
0.6655800 0.6671413 0.0000000
0.7054558 0.6660040 0.0000000
0.7452906 0.6648678 0.0000000
0.7850866 0.6637328 0.0000000
0.8248456 0.6625988 0.0000000
0.8645694 0.6614658 0.0000000
0.9042595 0.6603338 0.0000000
0.9439173 0.6592028 0.0000000
0.9835441 0.6580725 0.0000000
1.0000000 0.6569431 0.0000000
1.0000000 0.6562634 0.0000000
1.0000000 0.6562634 0.0000000
1.0000000 0.6562634 0.0000000
0.0000000 0.7247137 0.0000000
0.0000000 0.7247137 0.0000000
0.0000000 0.7245811 0.0000000
0.0000000 0.7233610 0.0000000
0.0143898 0.7221673 0.0000000
0.0558383 0.7209851 0.0000000
0.0970209 0.7198105 0.0000000
0.1380052 0.7186416 0.0000000
0.1788313 0.7174771 0.0000000
0.2195259 0.7163165 0.0000000
0.2601080 0.7151591 0.0000000
0.3005916 0.7140044 0.0000000
0.3409880 0.7128522 0.0000000
0.3813060 0.7117023 0.0000000
0.4215527 0.7105544 0.0000000
0.4617343 0.7094084 0.0000000
0.5018556 0.7082641 0.0000000
0.5419211 0.7071214 0.0000000
0.5819347 0.7059801 0.0000000
0.6218995 0.7048402 0.0000000
0.6618185 0.7037017 0.0000000
0.7016943 0.7025644 0.0000000
0.7415291 0.7014282 0.0000000
0.7813251 0.7002932 0.0000000
0.8210841 0.6991593 0.0000000
0.8608080 0.6980262 0.0000000
0.9004980 0.6968942 0.0000000
0.9401557 0.6957632 0.0000000
0.9797825 0.6946329 0.0000000
1.0000000 0.6935036 0.0000000
1.0000000 0.6928238 0.0000000
1.0000000 0.6928238 0.0000000
1.0000000 0.6928238 0.0000000
0.0000000 0.7612741 0.0000000
0.0000000 0.7612741 0.0000000
0.0000000 0.7611414 0.0000000
0.0000000 0.7599213 0.0000000
0.0106283 0.7587276 0.0000000
0.0520768 0.7575455 0.0000000
0.0932594 0.7563708 0.0000000
0.1342437 0.7552019 0.0000000
0.1750698 0.7540375 0.0000000
0.2157644 0.7528769 0.0000000
0.2563465 0.7517194 0.0000000
0.2968301 0.7505648 0.0000000
0.3372265 0.7494126 0.0000000
0.3775445 0.7482626 0.0000000
0.4177912 0.7471148 0.0000000
0.4579728 0.7459688 0.0000000
0.4980941 0.7448244 0.0000000
0.5381596 0.7436817 0.0000000
0.5781732 0.7425405 0.0000000
0.6181380 0.7414006 0.0000000
0.6580570 0.7402621 0.0000000
0.6979328 0.7391248 0.0000000
0.7377676 0.7379886 0.0000000
0.7775636 0.7368536 0.0000000
0.8173226 0.7357196 0.0000000
0.8570464 0.7345866 0.0000000
0.8967365 0.7334546 0.0000000
0.9363942 0.7323235 0.0000000
0.9760211 0.7311933 0.0000000
1.0000000 0.7300640 0.0000000
1.0000000 0.7293841 0.0000000
1.0000000 0.7293841 0.0000000
1.0000000 0.7293841 0.0000000
0.0000000 0.7978345 0.0000000
0.0000000 0.7978345 0.0000000
0.0000000 0.7977018 0.0000000
0.0000000 0.7964817 0.0000000
0.0068668 0.7952880 0.0000000
0.0483153 0.7941058 0.0000000
0.0894979 0.7929312 0.0000000
0.1304822 0.7917623 0.0000000
0.1713083 0.7905979 0.0000000
0.2120029 0.7894372 0.0000000
0.2525850 0.7882798 0.0000000
0.2930686 0.7871251 0.0000000
0.3334650 0.7859730 0.0000000
0.3737830 0.7848230 0.0000000
0.4140297 0.7836751 0.0000000
0.4542112 0.7825291 0.0000000
0.4943326 0.7813848 0.0000000
0.5343981 0.7802421 0.0000000
0.5744117 0.7791008 0.0000000
0.6143765 0.7779610 0.0000000
0.6542955 0.7768224 0.0000000
0.6941712 0.7756851 0.0000000
0.7340061 0.7745490 0.0000000
0.7738021 0.7734140 0.0000000
0.8135611 0.7722800 0.0000000
0.8532850 0.7711470 0.0000000
0.8929750 0.7700150 0.0000000
0.9326327 0.7688839 0.0000000
0.9722595 0.7677537 0.0000000
1.0000000 0.7666243 0.0000000
1.0000000 0.7659445 0.0000000
1.0000000 0.7659445 0.0000000
1.0000000 0.7659445 0.0000000
0.0000000 0.8343948 0.0000000
0.0000000 0.8343948 0.0000000
0.0000000 0.8342621 0.0000000
0.0000000 0.8330420 0.0000000
0.0031053 0.8318483 0.0000000
0.0445538 0.8306662 0.0000000
