luts/lume_20260420_183641.cube
TITLE "Lume Grade"
LUT_3D_SIZE 5
0.0000000 0.0101247 0.0307421
0.2523517 0.0028881 0.0235055
0.5753759 0.0000000 0.0142924
0.8946044 0.0000000 0.0051876
1.0000000 0.0000000 0.0000000
0.0000000 0.2494289 0.0061213
0.2277309 0.2421923 0.0000000
0.5507551 0.2329793 0.0000000
0.8699837 0.2238744 0.0000000
1.0000000 0.2175390 0.0000000
0.0000000 0.5419118 0.0000000
0.1976389 0.5346753 0.0000000
0.5206631 0.5254622 0.0000000
0.8398917 0.5163574 0.0000000
1.0000000 0.5100219 0.0000000
0.0000000 0.8343948 0.0000000
0.1675468 0.8271582 0.0000000
0.4905711 0.8179451 0.0000000
0.8097996 0.8088403 0.0000000
1.0000000 0.8025049 0.0000000
0.0000000 1.0000000 0.0000000
0.1461444 1.0000000 0.0000000
0.4691687 1.0000000 0.0000000
0.7883973 1.0000000 0.0000000
1.0000000 1.0000000 0.0000000
0.0000000 0.0079016 0.2645845
0.2501285 0.0006650 0.2573479
0.5731528 0.0000000 0.2481348
0.8923813 0.0000000 0.2390300
1.0000000 0.0000000 0.2326946
0.0000000 0.2472058 0.2399637
0.2255078 0.2399692 0.2327272
0.5485320 0.2307561 0.2235141
0.8677605 0.2216513 0.2144092
1.0000000 0.2153159 0.2080738
0.0000000 0.5396888 0.2098717
0.1954158 0.5324522 0.2026351
0.5184400 0.5232391 0.1934220
0.8376685 0.5141342 0.1843172
1.0000000 0.5077988 0.1779818
0.0000000 0.8321717 0.1797797
0.1653237 0.8249351 0.1725431
0.4883480 0.8157220 0.1633300
0.8075765 0.8066172 0.1542252
1.0000000 0.8002818 0.1478897
0.0000000 1.0000000 0.1583773
0.1439214 1.0000000 0.1511407
0.4669456 1.0000000 0.1419276
0.7861741 1.0000000 0.1328229
1.0000000 1.0000000 0.1264873
0.0000000 0.0050736 0.5620503
0.2473006 0.0000000 0.5548136
0.5703248 0.0000000 0.5456006
0.8895534 0.0000000 0.5364957
1.0000000 0.0000000 0.5301603
0.0000000 0.2443778 0.5374295
0.2226798 0.2371412 0.5301929
0.5457041 0.2279282 0.5209798
0.8649325 0.2188233 0.5118750
1.0000000 0.2124879 0.5055395
0.0000000 0.5368608 0.5073375
0.1925878 0.5296242 0.5001009
0.5156120 0.5204111 0.4908878
0.8348405 0.5113063 0.4817830
1.0000000 0.5049708 0.4754475
0.0000000 0.8293437 0.4772455
0.1624957 0.8221071 0.4700089
0.4855200 0.8128940 0.4607958
0.8047485 0.8037893 0.4516909
1.0000000 0.7974538 0.4453555
0.0000000 1.0000000 0.4558431
0.1410934 1.0000000 0.4486065
0.4641176 1.0000000 0.4393934
0.7833462 1.0000000 0.4302886
1.0000000 1.0000000 0.4239531
0.0000000 0.0022138 0.8628578
0.2444408 0.0000000 0.8556212
0.5674651 0.0000000 0.8464081
0.8866936 0.0000000 0.8373033
1.0000000 0.0000000 0.8309678
0.0000000 0.2415181 0.8382370
0.2198201 0.2342815 0.8310004
0.5428443 0.2250684 0.8217873
0.8620728 0.2159636 0.8126825
1.0000000 0.2096281 0.8063470
0.0000000 0.5340010 0.8081449
0.1897280 0.5267645 0.8009083
0.5127523 0.5175514 0.7916952
0.8319808 0.5084465 0.7825904
1.0000000 0.5021111 0.7762550
0.0000000 0.8264840 0.7780529
0.1596360 0.8192474 0.7708163
0.4826602 0.8100343 0.7616032
0.8018888 0.8009295 0.7524984
1.0000000 0.7945940 0.7461630
0.0000000 1.0000000 0.7566506
0.1382336 1.0000000 0.7494140
0.4612579 1.0000000 0.7402009
0.7804864 1.0000000 0.7310960
1.0000000 1.0000000 0.7247606
0.0000000 0.0000000 1.0000000
0.2420451 0.0000000 1.0000000
0.5650693 0.0000000 1.0000000
0.8842978 0.0000000 1.0000000
1.0000000 0.0000000 1.0000000
0.0000000 0.2391224 1.0000000
0.2174244 0.2318858 1.0000000
0.5404486 0.2226727 1.0000000
0.8596771 0.2135679 1.0000000
1.0000000 0.2072324 1.0000000
0.0000000 0.5316053 1.0000000
0.1873323 0.5243687 1.0000000
0.5103565 0.5151556 1.0000000
0.8295851 0.5060508 1.0000000
1.0000000 0.4997154 1.0000000
0.0000000 0.8240883 1.0000000
0.1572403 0.8168517 1.0000000
0.4802645 0.8076386 1.0000000
0.7994931 0.7985338 1.0000000
1.0000000 0.7921983 0.9981587
0.0000000 1.0000000 1.0000000
0.1358379 1.0000000 1.0000000
0.4588622 1.0000000 0.9921966
0.7780907 1.0000000 0.9830918
1.0000000 1.0000000 0.9767563
