luts/lume_20260420_183657.cube
TITLE "Lume Grade"
LUT_3D_SIZE 33
0.0217903 0.0596524 0.0519506
0.0217903 0.0596524 0.0519506
0.0217903 0.0596524 0.0519506
0.0217903 0.0596524 0.0519506
0.0567885 0.0578468 0.0501449
0.1184532 0.0546653 0.0469635
0.1772479 0.0516319 0.0439301
0.2342529 0.0486909 0.0409890
0.2899630 0.0458167 0.0381148
0.3446624 0.0429946 0.0352927
0.3985353 0.0402151 0.0325132
0.4517107 0.0374717 0.0297698
0.5042837 0.0347593 0.0270574
0.5563272 0.0320742 0.0243723
0.6078989 0.0294135 0.0217116
0.6590455 0.0267747 0.0190728
0.7098058 0.0241558 0.0164540
0.7602119 0.0215552 0.0138534
0.8102915 0.0189715 0.0112696
0.8600683 0.0164033 0.0087015
0.9095629 0.0138498 0.0061479
0.9587933 0.0113099 0.0036080
1.0000000 0.0087827 0.0010809
1.0000000 0.0062677 0.0000000
1.0000000 0.0037640 0.0000000
1.0000000 0.0012712 0.0000000
1.0000000 0.0000000 0.0000000
1.0000000 0.0000000 0.0000000
1.0000000 0.0000000 0.0000000
1.0000000 0.0000000 0.0000000
1.0000000 0.0000000 0.0000000
1.0000000 0.0000000 0.0000000
1.0000000 0.0000000 0.0000000
0.0217903 0.0596524 0.0519506
0.0217903 0.0596524 0.0519506
0.0217903 0.0596524 0.0519506
0.0217903 0.0596524 0.0519506
0.0567885 0.0578468 0.0501449
0.1184532 0.0546653 0.0469635
0.1772479 0.0516319 0.0439301
0.2342529 0.0486909 0.0409890
0.2899630 0.0458167 0.0381148
0.3446624 0.0429946 0.0352927
0.3985353 0.0402151 0.0325132
0.4517107 0.0374717 0.0297698
0.5042837 0.0347593 0.0270574
0.5563272 0.0320742 0.0243723
0.6078989 0.0294135 0.0217116
0.6590455 0.0267747 0.0190728
0.7098058 0.0241558 0.0164540
0.7602119 0.0215552 0.0138534
0.8102915 0.0189715 0.0112696
0.8600683 0.0164033 0.0087015
0.9095629 0.0138498 0.0061479
0.9587933 0.0113099 0.0036080
1.0000000 0.0087827 0.0010809
1.0000000 0.0062677 0.0000000
1.0000000 0.0037640 0.0000000
1.0000000 0.0012712 0.0000000
1.0000000 0.0000000 0.0000000
1.0000000 0.0000000 0.0000000
1.0000000 0.0000000 0.0000000
1.0000000 0.0000000 0.0000000
1.0000000 0.0000000 0.0000000
1.0000000 0.0000000 0.0000000
1.0000000 0.0000000 0.0000000
0.0217903 0.0596524 0.0519506
0.0217903 0.0596524 0.0519506
0.0217903 0.0596524 0.0519506
0.0217903 0.0596524 0.0519506
0.0567885 0.0578468 0.0501449
0.1184532 0.0546653 0.0469635
0.1772479 0.0516319 0.0439301
0.2342529 0.0486909 0.0409890
0.2899630 0.0458167 0.0381148
0.3446624 0.0429946 0.0352927
0.3985353 0.0402151 0.0325132
0.4517107 0.0374717 0.0297698
0.5042837 0.0347593 0.0270574
0.5563272 0.0320742 0.0243723
0.6078989 0.0294135 0.0217116
0.6590455 0.0267747 0.0190728
0.7098058 0.0241558 0.0164540
0.7602119 0.0215552 0.0138534
0.8102915 0.0189715 0.0112696
0.8600683 0.0164033 0.0087015
0.9095629 0.0138498 0.0061479
0.9587933 0.0113099 0.0036080
1.0000000 0.0087827 0.0010809
1.0000000 0.0062677 0.0000000
1.0000000 0.0037640 0.0000000
1.0000000 0.0012712 0.0000000
1.0000000 0.0000000 0.0000000
1.0000000 0.0000000 0.0000000
1.0000000 0.0000000 0.0000000
1.0000000 0.0000000 0.0000000
1.0000000 0.0000000 0.0000000
1.0000000 0.0000000 0.0000000
1.0000000 0.0000000 0.0000000
0.0217903 0.0596524 0.0519506
0.0217903 0.0596524 0.0519506
0.0217903 0.0596524 0.0519506
0.0217903 0.0596524 0.0519506
0.0567885 0.0578468 0.0501449
0.1184532 0.0546653 0.0469635
0.1772479 0.0516319 0.0439301
0.2342529 0.0486909 0.0409890
0.2899630 0.0458167 0.0381148
0.3446624 0.0429946 0.0352927
0.3985353 0.0402151 0.0325132
0.4517107 0.0374717 0.0297698
0.5042837 0.0347593 0.0270574
0.5563272 0.0320742 0.0243723
0.6078989 0.0294135 0.0217116
0.6590455 0.0267747 0.0190728
0.7098058 0.0241558 0.0164540
0.7602119 0.0215552 0.0138534
0.8102915 0.0189715 0.0112696
0.8600683 0.0164033 0.0087015
0.9095629 0.0138498 0.0061479
0.9587933 0.0113099 0.0036080
1.0000000 0.0087827 0.0010809
1.0000000 0.0062677 0.0000000
1.0000000 0.0037640 0.0000000
1.0000000 0.0012712 0.0000000
1.0000000 0.0000000 0.0000000
1.0000000 0.0000000 0.0000000
1.0000000 0.0000000 0.0000000
1.0000000 0.0000000 0.0000000
1.0000000 0.0000000 0.0000000
1.0000000 0.0000000 0.0000000
1.0000000 0.0000000 0.0000000
0.0188023 0.0747687 0.0489625
0.0188023 0.0747687 0.0489625
0.0188023 0.0747687 0.0489625
0.0188023 0.0747687 0.0489625
0.0538005 0.0729631 0.0471569
0.1154651 0.0697816 0.0439754
0.1742598 0.0667483 0.0409420
0.2312649 0.0638072 0.0380010
0.2869749 0.0609330 0.0351267
0.3416744 0.0581109 0.0323047
0.3955473 0.0553314 0.0295252
0.4487227 0.0525880 0.0267817
0.5012957 0.0498756 0.0240693
0.5533391 0.0471905 0.0213843
0.6049108 0.0445298 0.0187235
0.6560574 0.0418910 0.0160848
0.7068177 0.0392721 0.0134659
0.7572238 0.0366715 0.0108653
0.8073034 0.0340878 0.0082816
0.8570802 0.0315197 0.0057134
0.9065748 0.0289661 0.0031599
0.9558052 0.0264262 0.0006199
1.0000000 0.0238990 0.0000000
1.0000000 0.0213840 0.0000000
1.0000000 0.0188803 0.0000000
1.0000000 0.0163875 0.0000000
1.0000000 0.0139049 0.0000000
1.0000000 0.0128091 0.0000000
1.0000000 0.0128091 0.0000000
1.0000000 0.0128091 0.0000000
1.0000000 0.0128091 0.0000000
1.0000000 0.0128091 0.0000000
1.0000000 0.0128091 0.0000000
0.0092669 0.1230071 0.0394272
0.0092669 0.1230071 0.0394272
0.0092669 0.1230071 0.0394272
0.0092669 0.1230071 0.0394272
0.0442651 0.1212015 0.0376215
0.1059298 0.1180200 0.0344401
0.1647245 0.1149867 0.0314067
0.2217295 0.1120456 0.0284656
0.2774396 0.1091714 0.0255914
0.3321390 0.1063493 0.0227693
0.3860120 0.1035698 0.0199899
0.4391873 0.1008264 0.0172464
0.4917603 0.0981140 0.0145340
0.5438038 0.0954289 0.0118489
0.5953755 0.0927682 0.0091882
0.6465221 0.0901294 0.0065494
0.6972824 0.0875105 0.0039306
0.7476885 0.0849099 0.0013300
0.7977681 0.0823262 0.0000000
0.8475449 0.0797581 0.0000000
0.8970395 0.0772045 0.0000000
0.9462699 0.0746646 0.0000000
0.9952524 0.0721374 0.0000000
1.0000000 0.0696224 0.0000000
1.0000000 0.0671187 0.0000000
1.0000000 0.0646259 0.0000000
1.0000000 0.0621433 0.0000000
1.0000000 0.0610476 0.0000000
1.0000000 0.0610476 0.0000000
1.0000000 0.0610476 0.0000000
1.0000000 0.0610476 0.0000000
1.0000000 0.0610476 0.0000000
1.0000000 0.0610476 0.0000000
0.0000000 0.1703146 0.0300759
0.0000000 0.1703146 0.0300759
0.0000000 0.1703146 0.0300759
0.0000000 0.1703146 0.0300759
0.0349138 0.1685090 0.0282702
0.0965785 0.1653275 0.0250888
0.1553732 0.1622941 0.0220554
0.2123782 0.1593531 0.0191143
0.2680883 0.1564789 0.0162401
0.3227877 0.1536568 0.0134180
0.3766606 0.1508773 0.0106385
0.4298360 0.1481338 0.0078951
0.4824090 0.1454214 0.0051827
0.5344524 0.1427364 0.0024976
0.5860242 0.1400757 0.0000000
0.6371707 0.1374369 0.0000000
0.6879311 0.1348180 0.0000000
0.7383372 0.1322174 0.0000000
0.7884169 0.1296337 0.0000000
0.8381936 0.1270656 0.0000000
0.8876882 0.1245120 0.0000000
0.9369186 0.1219721 0.0000000
0.9859010 0.1194449 0.0000000
1.0000000 0.1169299 0.0000000
1.0000000 0.1144262 0.0000000
1.0000000 0.1119334 0.0000000
1.0000000 0.1094508 0.0000000
1.0000000 0.1083550 0.0000000
1.0000000 0.1083550 0.0000000
1.0000000 0.1083550 0.0000000
1.0000000 0.1083550 0.0000000
1.0000000 0.1083550 0.0000000
1.0000000 0.1083550 0.0000000
0.0000000 0.2169764 0.0208522
0.0000000 0.2169764 0.0208522
0.0000000 0.2169764 0.0208522
0.0000000 0.2169764 0.0208522
0.0256901 0.2151708 0.0190465
0.0873548 0.2119893 0.0158651
0.1461495 0.2089559 0.0128317
0.2031546 0.2060149 0.0098906
0.2588646 0.2031406 0.0070164
0.3135640 0.2003185 0.0041943
0.3674370 0.1975391 0.0014149
0.4206123 0.1947956 0.0000000
0.4731853 0.1920832 0.0000000
0.5252288 0.1893982 0.0000000
0.5768005 0.1867374 0.0000000
0.6279471 0.1840987 0.0000000
0.6787074 0.1814798 0.0000000
0.7291135 0.1788792 0.0000000
0.7791932 0.1762955 0.0000000
0.8289699 0.1737273 0.0000000
0.8784645 0.1711738 0.0000000
0.9276949 0.1686338 0.0000000
0.9766773 0.1661067 0.0000000
1.0000000 0.1635916 0.0000000
1.0000000 0.1610880 0.0000000
1.0000000 0.1585952 0.0000000
1.0000000 0.1561126 0.0000000
1.0000000 0.1550168 0.0000000
1.0000000 0.1550168 0.0000000
1.0000000 0.1550168 0.0000000
1.0000000 0.1550168 0.0000000
1.0000000 0.1550168 0.0000000
1.0000000 0.1550168 0.0000000
0.0000000 0.2631444 0.0117261
0.0000000 0.2631444 0.0117261
0.0000000 0.2631444 0.0117261
0.0000000 0.2631444 0.0117261
0.0165641 0.2613387 0.0099204
0.0782287 0.2581573 0.0067390
0.1370234 0.2551239 0.0037056
0.1940285 0.2521829 0.0007646
0.2497385 0.2493086 0.0000000
0.3044379 0.2464865 0.0000000
0.3583109 0.2437071 0.0000000
0.4114863 0.2409636 0.0000000
0.4640592 0.2382512 0.0000000
0.5161027 0.2355662 0.0000000
0.5676744 0.2329054 0.0000000
0.6188210 0.2302667 0.0000000
0.6695814 0.2276478 0.0000000
0.7199874 0.2250472 0.0000000
0.7700671 0.2224635 0.0000000
0.8198439 0.2198953 0.0000000
0.8693384 0.2173418 0.0000000
0.9185688 0.2148018 0.0000000
0.9675512 0.2122747 0.0000000
1.0000000 0.2097596 0.0000000
1.0000000 0.2072560 0.0000000
1.0000000 0.2047632 0.0000000
1.0000000 0.2022806 0.0000000
1.0000000 0.2011848 0.0000000
1.0000000 0.2011848 0.0000000
1.0000000 0.2011848 0.0000000
1.0000000 0.2011848 0.0000000
1.0000000 0.2011848 0.0000000
1.0000000 0.2011848 0.0000000
0.0000000 0.3089132 0.0026789
0.0000000 0.3089132 0.0026789
0.0000000 0.3089132 0.0026789
0.0000000 0.3089132 0.0026789
0.0075169 0.3071075 0.0008733
0.0691816 0.3039261 0.0000000
0.1279763 0.3008927 0.0000000
0.1849813 0.2979516 0.0000000
0.2406914 0.2950774 0.0000000
0.2953908 0.2922553 0.0000000
0.3492637 0.2894759 0.0000000
0.4024391 0.2867324 0.0000000
0.4550121 0.2840200 0.0000000
0.5070556 0.2813349 0.0000000
0.5586272 0.2786742 0.0000000
0.6097739 0.2760354 0.0000000
0.6605342 0.2734165 0.0000000
0.7109402 0.2708160 0.0000000
0.7610199 0.2682322 0.0000000
0.8107967 0.2656641 0.0000000
0.8602912 0.2631105 0.0000000
0.9095217 0.2605706 0.0000000
0.9585041 0.2580435 0.0000000
1.0000000 0.2555284 0.0000000
1.0000000 0.2530248 0.0000000
1.0000000 0.2505319 0.0000000
1.0000000 0.2480494 0.0000000
1.0000000 0.2469536 0.0000000
1.0000000 0.2469536 0.0000000
1.0000000 0.2469536 0.0000000
1.0000000 0.2469536 0.0000000
1.0000000 0.2469536 0.0000000
1.0000000 0.2469536 0.0000000
0.0000000 0.3543473 0.0000000
0.0000000 0.3543473 0.0000000
0.0000000 0.3543473 0.0000000
0.0000000 0.3543473 0.0000000
0.0000000 0.3525416 0.0000000
0.0602006 0.3493602 0.0000000
0.1189953 0.3463268 0.0000000
0.1760003 0.3433858 0.0000000
0.2317104 0.3405115 0.0000000
0.2864098 0.3376894 0.0000000
0.3402827 0.3349100 0.0000000
0.3934581 0.3321665 0.0000000
0.4460311 0.3294541 0.0000000
0.4980746 0.3267691 0.0000000
0.5496463 0.3241083 0.0000000
0.6007929 0.3214695 0.0000000
0.6515532 0.3188507 0.0000000
0.7019593 0.3162501 0.0000000
0.7520389 0.3136663 0.0000000
0.8018157 0.3110982 0.0000000
0.8513103 0.3085447 0.0000000
0.9005407 0.3060047 0.0000000
0.9495231 0.3034776 0.0000000
0.9982714 0.3009625 0.0000000
1.0000000 0.2984589 0.0000000
1.0000000 0.2959660 0.0000000
1.0000000 0.2934835 0.0000000
1.0000000 0.2923877 0.0000000
1.0000000 0.2923877 0.0000000
1.0000000 0.2923877 0.0000000
1.0000000 0.2923877 0.0000000
1.0000000 0.2923877 0.0000000
1.0000000 0.2923877 0.0000000
0.0000000 0.3994935 0.0000000
0.0000000 0.3994935 0.0000000
0.0000000 0.3994935 0.0000000
0.0000000 0.3994935 0.0000000
0.0000000 0.3976878 0.0000000
0.0512765 0.3945063 0.0000000
0.1100712 0.3914730 0.0000000
0.1670762 0.3885319 0.0000000
0.2227863 0.3856577 0.0000000
0.2774857 0.3828356 0.0000000
0.3313586 0.3800561 0.0000000
0.3845340 0.3773127 0.0000000
0.4371070 0.3746003 0.0000000
0.4891505 0.3719152 0.0000000
0.5407222 0.3692545 0.0000000
0.5918688 0.3666157 0.0000000
0.6426291 0.3639968 0.0000000
0.6930351 0.3613963 0.0000000
0.7431148 0.3588125 0.0000000
0.7928916 0.3562444 0.0000000
0.8423862 0.3536908 0.0000000
0.8916166 0.3511509 0.0000000
0.9405990 0.3486238 0.0000000
0.9893473 0.3461087 0.0000000
1.0000000 0.3436050 0.0000000
1.0000000 0.3411122 0.0000000
1.0000000 0.3386297 0.0000000
1.0000000 0.3375339 0.0000000
1.0000000 0.3375339 0.0000000
1.0000000 0.3375339 0.0000000
1.0000000 0.3375339 0.0000000
1.0000000 0.3375339 0.0000000
1.0000000 0.3375339 0.0000000
0.0000000 0.4443873 0.0000000
0.0000000 0.4443873 0.0000000
0.0000000 0.4443873 0.0000000
0.0000000 0.4443873 0.0000000
0.0000000 0.4425816 0.0000000
0.0424023 0.4394002 0.0000000
0.1011970 0.4363668 0.0000000
0.1582020 0.4334257 0.0000000
0.2139121 0.4305515 0.0000000
0.2686115 0.4277294 0.0000000
0.3224844 0.4249500 0.0000000
0.3756598 0.4222065 0.0000000
0.4282328 0.4194941 0.0000000
0.4802763 0.4168091 0.0000000
0.5318480 0.4141483 0.0000000
0.5829946 0.4115095 0.0000000
0.6337549 0.4088907 0.0000000
0.6841609 0.4062901 0.0000000
0.7342406 0.4037063 0.0000000
0.7840174 0.4011382 0.0000000
0.8335119 0.3985847 0.0000000
0.8827424 0.3960447 0.0000000
0.9317248 0.3935176 0.0000000
0.9804731 0.3910025 0.0000000
1.0000000 0.3884989 0.0000000
1.0000000 0.3860060 0.0000000
1.0000000 0.3835235 0.0000000
1.0000000 0.3824277 0.0000000
1.0000000 0.3824277 0.0000000
1.0000000 0.3824277 0.0000000
1.0000000 0.3824277 0.0000000
1.0000000 0.3824277 0.0000000
1.0000000 0.3824277 0.0000000
0.0000000 0.4890566 0.0000000
0.0000000 0.4890566 0.0000000
0.0000000 0.4890566 0.0000000
0.0000000 0.4890566 0.0000000
0.0000000 0.4872509 0.0000000
0.0335725 0.4840695 0.0000000
0.0923672 0.4810361 0.0000000
0.1493722 0.4780950 0.0000000
0.2050823 0.4752208 0.0000000
0.2597817 0.4723987 0.0000000
0.3136546 0.4696192 0.0000000
0.3668300 0.4668758 0.0000000
0.4194030 0.4641634 0.0000000
0.4714465 0.4614784 0.0000000
0.5230182 0.4588176 0.0000000
0.5741647 0.4561788 0.0000000
0.6249251 0.4535600 0.0000000
0.6753311 0.4509594 0.0000000
0.7254108 0.4483756 0.0000000
0.7751876 0.4458075 0.0000000
0.8246821 0.4432539 0.0000000
0.8739126 0.4407140 0.0000000
0.9228950 0.4381869 0.0000000
0.9716433 0.4356718 0.0000000
1.0000000 0.4331682 0.0000000
1.0000000 0.4306753 0.0000000
1.0000000 0.4281928 0.0000000
1.0000000 0.4270970 0.0000000
1.0000000 0.4270970 0.0000000
1.0000000 0.4270970 0.0000000
1.0000000 0.4270970 0.0000000
1.0000000 0.4270970 0.0000000
1.0000000 0.4270970 0.0000000
0.0000000 0.5335237 0.0000000
0.0000000 0.5335237 0.0000000
0.0000000 0.5335237 0.0000000
0.0000000 0.5335237 0.0000000
0.0000000 0.5317180 0.0000000
0.0247826 0.5285366 0.0000000
0.0835773 0.5255032 0.0000000
0.1405824 0.5225621 0.0000000
0.1962924 0.5196879 0.0000000
0.2509918 0.5168658 0.0000000
0.3048648 0.5140863 0.0000000
0.3580402 0.5113429 0.0000000
0.4106131 0.5086305 0.0000000
0.4626566 0.5059454 0.0000000
0.5142283 0.5032847 0.0000000
0.5653749 0.5006459 0.0000000
0.6161352 0.4980270 0.0000000
0.6665413 0.4954264 0.0000000
0.7166209 0.4928427 0.0000000
0.7663977 0.4902746 0.0000000
0.8158923 0.4877210 0.0000000
0.8651227 0.4851811 0.0000000
0.9141052 0.4826539 0.0000000
0.9628534 0.4801389 0.0000000
1.0000000 0.4776352 0.0000000
1.0000000 0.4751424 0.0000000
1.0000000 0.4726599 0.0000000
1.0000000 0.4715641 0.0000000
1.0000000 0.4715641 0.0000000
1.0000000 0.4715641 0.0000000
1.0000000 0.4715641 0.0000000
1.0000000 0.4715641 0.0000000
1.0000000 0.4715641 0.0000000
0.0000000 0.5778070 0.0000000
0.0000000 0.5778070 0.0000000
0.0000000 0.5778070 0.0000000
0.0000000 0.5778070 0.0000000
0.0000000 0.5760013 0.0000000
0.0160291 0.5728199 0.0000000
0.0748238 0.5697865 0.0000000
0.1318288 0.5668455 0.0000000
0.1875389 0.5639713 0.0000000
0.2422383 0.5611491 0.0000000
0.2961112 0.5583697 0.0000000
0.3492866 0.5556262 0.0000000
0.4018596 0.5529138 0.0000000
0.4539030 0.5502288 0.0000000
0.5054748 0.5475681 0.0000000
0.5566214 0.5449293 0.0000000
0.6073817 0.5423104 0.0000000
0.6577877 0.5397098 0.0000000
0.7078674 0.5371261 0.0000000
0.7576442 0.5345579 0.0000000
0.8071388 0.5320044 0.0000000
0.8563692 0.5294644 0.0000000
0.9053516 0.5269373 0.0000000
0.9540999 0.5244222 0.0000000
1.0000000 0.5219186 0.0000000
1.0000000 0.5194257 0.0000000
1.0000000 0.5169432 0.0000000
1.0000000 0.5158474 0.0000000
1.0000000 0.5158474 0.0000000
1.0000000 0.5158474 0.0000000
1.0000000 0.5158474 0.0000000
1.0000000 0.5158474 0.0000000
1.0000000 0.5158474 0.0000000
0.0000000 0.6219220 0.0000000
0.0000000 0.6219220 0.0000000
0.0000000 0.6219220 0.0000000
0.0000000 0.6219220 0.0000000
0.0000000 0.6201164 0.0000000
0.0073088 0.6169349 0.0000000
0.0661035 0.6139015 0.0000000
0.1231086 0.6109605 0.0000000
0.1788186 0.6080862 0.0000000
0.2335180 0.6052641 0.0000000
0.2873910 0.6024847 0.0000000
0.3405664 0.5997412 0.0000000
0.3931393 0.5970289 0.0000000
0.4451828 0.5943438 0.0000000
0.4967545 0.5916830 0.0000000
0.5479011 0.5890443 0.0000000
0.5986614 0.5864254 0.0000000
0.6490675 0.5838248 0.0000000
0.6991471 0.5812411 0.0000000
0.7489240 0.5786729 0.0000000
0.7984185 0.5761194 0.0000000
0.8476489 0.5735794 0.0000000
0.8966314 0.5710523 0.0000000
0.9453796 0.5685372 0.0000000
0.9939069 0.5660336 0.0000000
1.0000000 0.5635408 0.0000000
1.0000000 0.5610582 0.0000000
1.0000000 0.5599624 0.0000000
1.0000000 0.5599624 0.0000000
1.0000000 0.5599624 0.0000000
1.0000000 0.5599624 0.0000000
1.0000000 0.5599624 0.0000000
1.0000000 0.5599624 0.0000000
0.0000000 0.6658816 0.0000000
0.0000000 0.6658816 0.0000000
0.0000000 0.6658816 0.0000000
0.0000000 0.6658816 0.0000000
0.0000000 0.6640760 0.0000000
0.0000000 0.6608945 0.0000000
0.0574140 0.6578611 0.0000000
0.1144190 0.6549200 0.0000000
0.1701291 0.6520458 0.0000000
0.2248285 0.6492237 0.0000000
0.2787015 0.6464443 0.0000000
0.3318768 0.6437008 0.0000000
0.3844498 0.6409884 0.0000000
0.4364933 0.6383033 0.0000000
0.4880650 0.6356426 0.0000000
0.5392116 0.6330038 0.0000000
0.5899719 0.6303850 0.0000000
0.6403780 0.6277844 0.0000000
0.6904576 0.6252006 0.0000000
0.7402344 0.6226326 0.0000000
0.7897290 0.6200790 0.0000000
0.8389594 0.6175390 0.0000000
0.8879418 0.6150119 0.0000000
0.9366901 0.6124969 0.0000000
0.9852173 0.6099932 0.0000000
1.0000000 0.6075003 0.0000000
1.0000000 0.6050178 0.0000000
1.0000000 0.6039220 0.0000000
1.0000000 0.6039220 0.0000000
1.0000000 0.6039220 0.0000000
1.0000000 0.6039220 0.0000000
1.0000000 0.6039220 0.0000000
1.0000000 0.6039220 0.0000000
0.0000000 0.7096972 0.0000000
0.0000000 0.7096972 0.0000000
0.0000000 0.7096972 0.0000000
0.0000000 0.7096972 0.0000000
0.0000000 0.7078916 0.0000000
0.0000000 0.7047101 0.0000000
0.0487529 0.7016767 0.0000000
0.1057580 0.6987357 0.0000000
0.1614680 0.6958615 0.0000000
0.2161674 0.6930394 0.0000000
0.2700404 0.6902599 0.0000000
0.3232158 0.6875165 0.0000000
0.3757887 0.6848041 0.0000000
0.4278322 0.6821190 0.0000000
0.4794039 0.6794583 0.0000000
0.5305505 0.6768195 0.0000000
0.5813108 0.6742006 0.0000000
0.6317169 0.6716000 0.0000000
0.6817966 0.6690163 0.0000000
0.7315733 0.6664482 0.0000000
0.7810679 0.6638946 0.0000000
0.8302983 0.6613547 0.0000000
0.8792807 0.6588275 0.0000000
0.9280291 0.6563125 0.0000000
0.9765563 0.6538088 0.0000000
1.0000000 0.6513160 0.0000000
1.0000000 0.6488335 0.0000000
1.0000000 0.6477376 0.0000000
1.0000000 0.6477376 0.0000000
1.0000000 0.6477376 0.0000000
1.0000000 0.6477376 0.0000000
1.0000000 0.6477376 0.0000000
1.0000000 0.6477376 0.0000000
0.0000000 0.7533784 0.0000000
0.0000000 0.7533784 0.0000000
0.0000000 0.7533784 0.0000000
0.0000000 0.7533784 0.0000000
0.0000000 0.7515727 0.0000000
0.0000000 0.7483913 0.0000000
0.0401184 0.7453579 0.0000000
0.0971234 0.7424169 0.0000000
0.1528335 0.7395426 0.0000000
0.2075329 0.7367205 0.0000000
0.2614059 0.7339411 0.0000000
0.3145812 0.7311976 0.0000000
0.3671542 0.7284852 0.0000000
0.4191977 0.7258002 0.0000000
0.4707694 0.7231394 0.0000000
0.5219160 0.7205006 0.0000000
0.5726763 0.7178817 0.0000000
0.6230824 0.7152812 0.0000000
0.6731620 0.7126974 0.0000000
0.7229388 0.7101293 0.0000000
0.7724334 0.7075757 0.0000000
0.8216639 0.7050358 0.0000000
0.8706462 0.7025087 0.0000000
0.9193946 0.6999936 0.0000000
0.9679218 0.6974900 0.0000000
1.0000000 0.6949971 0.0000000
1.0000000 0.6925145 0.0000000
1.0000000 0.6914188 0.0000000
1.0000000 0.6914188 0.0000000
1.0000000 0.6914188 0.0000000
1.0000000 0.6914188 0.0000000
1.0000000 0.6914188 0.0000000
1.0000000 0.6914188 0.0000000
0.0000000 0.7969338 0.0000000
0.0000000 0.7969338 0.0000000
0.0000000 0.7969338 0.0000000
0.0000000 0.7969338 0.0000000
0.0000000 0.7951281 0.0000000
0.0000000 0.7919466 0.0000000
0.0315088 0.7889132 0.0000000
0.0885138 0.7859722 0.0000000
0.1442239 0.7830980 0.0000000
0.1989233 0.7802759 0.0000000
0.2527963 0.7774965 0.0000000
0.3059716 0.7747530 0.0000000
0.3585446 0.7720406 0.0000000
0.4105881 0.7693555 0.0000000
0.4621598 0.7666948 0.0000000
0.5133064 0.7640560 0.0000000
0.5640667 0.7614371 0.0000000
0.6144727 0.7588365 0.0000000
0.6645524 0.7562528 0.0000000
0.7143292 0.7536847 0.0000000
0.7638238 0.7511311 0.0000000
0.8130542 0.7485912 0.0000000
0.8620366 0.7460641 0.0000000
0.9107849 0.7435490 0.0000000
0.9593122 0.7410454 0.0000000
1.0000000 0.7385525 0.0000000
1.0000000 0.7360699 0.0000000
1.0000000 0.7349741 0.0000000
1.0000000 0.7349741 0.0000000
1.0000000 0.7349741 0.0000000
1.0000000 0.7349741 0.0000000
1.0000000 0.7349741 0.0000000
1.0000000 0.7349741 0.0000000
0.0000000 0.8403707 0.0000000
0.0000000 0.8403707 0.0000000
0.0000000 0.8403707 0.0000000
0.0000000 0.8403707 0.0000000
0.0000000 0.8385650 0.0000000
0.0000000 0.8353836 0.0000000
0.0229226 0.8323502 0.0000000
0.0799276 0.8294092 0.0000000
0.1356377 0.8265349 0.0000000
0.1903371 0.8237128 0.0000000
0.2442100 0.8209333 0.0000000
0.2973854 0.8181899 0.0000000
0.3499584 0.8154776 0.0000000
0.4020019 0.8127925 0.0000000
0.4535736 0.8101317 0.0000000
0.5047202 0.8074930 0.0000000
0.5554805 0.8048741 0.0000000
0.6058865 0.8022735 0.0000000
0.6559662 0.7996898 0.0000000
0.7057430 0.7971216 0.0000000
0.7552376 0.7945681 0.0000000
0.8044680 0.7920281 0.0000000
0.8534504 0.7895010 0.0000000
0.9021987 0.7869859 0.0000000
0.9507259 0.7844823 0.0000000
0.9990435 0.7819895 0.0000000
1.0000000 0.7795069 0.0000000
1.0000000 0.7784111 0.0000000
1.0000000 0.7784111 0.0000000
1.0000000 0.7784111 0.0000000
1.0000000 0.7784111 0.0000000
1.0000000 0.7784111 0.0000000
1.0000000 0.7784111 0.0000000
0.0000000 0.8836961 0.0000000
0.0000000 0.8836961 0.0000000
0.0000000 0.8836961 0.0000000
0.0000000 0.8836961 0.0000000
0.0000000 0.8818904 0.0000000
0.0000000 0.8787090 0.0000000
0.0143584 0.8756757 0.0000000
0.0713634 0.8727346 0.0000000
0.1270735 0.8698604 0.0000000
0.1817729 0.8670382 0.0000000
0.2356458 0.8642588 0.0000000
0.2888212 0.8615153 0.0000000
0.3413942 0.8588030 0.0000000
0.3934377 0.8561179 0.0000000
0.4450094 0.8534572 0.0000000
0.4961560 0.8508184 0.0000000
0.5469163 0.8481995 0.0000000
0.5973223 0.8455989 0.0000000
0.6474020 0.8430152 0.0000000
0.6971788 0.8404471 0.0000000
0.7466733 0.8378935 0.0000000
0.7959038 0.8353536 0.0000000
0.8448862 0.8328264 0.0000000
0.8936345 0.8303114 0.0000000
0.9421617 0.8278077 0.0000000
0.9904794 0.8253149 0.0000000
1.0000000 0.8228323 0.0000000
1.0000000 0.8217365 0.0000000
1.0000000 0.8217365 0.0000000
1.0000000 0.8217365 0.0000000
1.0000000 0.8217365 0.0000000
1.0000000 0.8217365 0.0000000
1.0000000 0.8217365 0.0000000
0.0000000 0.9269158 0.0000000
0.0000000 0.9269158 0.0000000
0.0000000 0.9269158 0.0000000
0.0000000 0.9269158 0.0000000
0.0000000 0.9251101 0.0000000
0.0000000 0.9219286 0.0000000
0.0058151 0.9188953 0.0000000
0.0628201 0.9159542 0.0000000
0.1185302 0.9130800 0.0000000
0.1732296 0.9102579 0.0000000
0.2271025 0.9074785 0.0000000
0.2802779 0.9047350 0.0000000
0.3328509 0.9020226 0.0000000
0.3848944 0.8993375 0.0000000
0.4364661 0.8966768 0.0000000
0.4876127 0.8940380 0.0000000
0.5383730 0.8914192 0.0000000
0.5887791 0.8888186 0.0000000
0.6388587 0.8862348 0.0000000
0.6886355 0.8836667 0.0000000
0.7381301 0.8811132 0.0000000
0.7873605 0.8785732 0.0000000
0.8363429 0.8760461 0.0000000
0.8850912 0.8735310 0.0000000
0.9336185 0.8710274 0.0000000
0.9819360 0.8685346 0.0000000
1.0000000 0.8660520 0.0000000
1.0000000 0.8649562 0.0000000
1.0000000 0.8649562 0.0000000
1.0000000 0.8649562 0.0000000
1.0000000 0.8649562 0.0000000
1.0000000 0.8649562 0.0000000
1.0000000 0.8649562 0.0000000
0.0000000 0.9700353 0.0000000
0.0000000 0.9700353 0.0000000
0.0000000 0.9700353 0.0000000
0.0000000 0.9700353 0.0000000
0.0000000 0.9682297 0.0000000
0.0000000 0.9650482 0.0000000
