luts/lume_20260420_183641.cube
TITLE "Lume Grade"
LUT_3D_SIZE 9
0.0000000 0.0101247 0.0307421
0.0879101 0.0075782 0.0281956
0.2523517 0.0028881 0.0235055
0.4145083 0.0000000 0.0188805
0.5753759 0.0000000 0.0142924
0.7353388 0.0000000 0.0097300
0.8946044 0.0000000 0.0051876
1.0000000 0.0000000 0.0006613
1.0000000 0.0000000 0.0000000
0.0000000 0.1031874 0.0211673
0.0783354 0.1006409 0.0186208
0.2427769 0.0959508 0.0139307
0.4049336 0.0913259 0.0093058
0.5658011 0.0867378 0.0047176
0.7257641 0.0821754 0.0001553
0.8850297 0.0776329 0.0000000
1.0000000 0.0731066 0.0000000
1.0000000 0.0712975 0.0000000
0.0000000 0.2494289 0.0061213
0.0632894 0.2468824 0.0035748
0.2277309 0.2421923 0.0000000
0.3898876 0.2375674 0.0000000
0.5507551 0.2329793 0.0000000
0.7107180 0.2284169 0.0000000
0.8699837 0.2238744 0.0000000
1.0000000 0.2193481 0.0000000
1.0000000 0.2175390 0.0000000
0.0000000 0.3956704 0.0000000
0.0482434 0.3931239 0.0000000
0.2126849 0.3884338 0.0000000
0.3748416 0.3838089 0.0000000
0.5357091 0.3792207 0.0000000
0.6956720 0.3746584 0.0000000
0.8549377 0.3701159 0.0000000
1.0000000 0.3655896 0.0000000
1.0000000 0.3637804 0.0000000
0.0000000 0.5419118 0.0000000
0.0331973 0.5393654 0.0000000
0.1976389 0.5346753 0.0000000
0.3597956 0.5300503 0.0000000
0.5206631 0.5254622 0.0000000
0.6806260 0.5208998 0.0000000
0.8398917 0.5163574 0.0000000
0.9985901 0.5118311 0.0000000
1.0000000 0.5100219 0.0000000
0.0000000 0.6881533 0.0000000
0.0181513 0.6856068 0.0000000
0.1825929 0.6809167 0.0000000
0.3447495 0.6762918 0.0000000
0.5056171 0.6717036 0.0000000
0.6655800 0.6671413 0.0000000
0.8248456 0.6625988 0.0000000
0.9835441 0.6580725 0.0000000
1.0000000 0.6562634 0.0000000
0.0000000 0.8343948 0.0000000
0.0031053 0.8318483 0.0000000
0.1675468 0.8271582 0.0000000
0.3297035 0.8225333 0.0000000
0.4905711 0.8179451 0.0000000
0.6505340 0.8133828 0.0000000
0.8097996 0.8088403 0.0000000
0.9684980 0.8043140 0.0000000
1.0000000 0.8025049 0.0000000
0.0000000 0.9806364 0.0000000
0.0000000 0.9780898 0.0000000
0.1525008 0.9733998 0.0000000
0.3146575 0.9687748 0.0000000
0.4755251 0.9641867 0.0000000
0.6354880 0.9596243 0.0000000
0.7947536 0.9550818 0.0000000
0.9534520 0.9505556 0.0000000
1.0000000 0.9487464 0.0000000
0.0000000 1.0000000 0.0000000
0.0000000 1.0000000 0.0000000
0.1461444 1.0000000 0.0000000
0.3083012 1.0000000 0.0000000
0.4691687 1.0000000 0.0000000
0.6291317 1.0000000 0.0000000
0.7883973 1.0000000 0.0000000
0.9470956 1.0000000 0.0000000
1.0000000 1.0000000 0.0000000
0.0000000 0.0092940 0.1181247
0.0870794 0.0067475 0.1155782
0.2515210 0.0020574 0.1108881
0.4136776 0.0000000 0.1062632
0.5745451 0.0000000 0.1016750
0.7345081 0.0000000 0.0971127
0.8937737 0.0000000 0.0925702
1.0000000 0.0000000 0.0880439
1.0000000 0.0000000 0.0862347
0.0000000 0.1023567 0.1085500
0.0775047 0.0998102 0.1060035
0.2419462 0.0951201 0.1013134
0.4041029 0.0904952 0.0966884
0.5649705 0.0859070 0.0921003
0.7249334 0.0813446 0.0875379
0.8841990 0.0768022 0.0829954
1.0000000 0.0722759 0.0784692
1.0000000 0.0704667 0.0766600
0.0000000 0.2485982 0.0935039
0.0624586 0.2460517 0.0909574
0.2269002 0.2413616 0.0862674
0.3890569 0.2367367 0.0816424
0.5499244 0.2321485 0.0770542
0.7098873 0.2275862 0.0724919
0.8691530 0.2230437 0.0679494
1.0000000 0.2185174 0.0634231
1.0000000 0.2167082 0.0616140
0.0000000 0.3948396 0.0784579
0.0474126 0.3922932 0.0759114
0.2118542 0.3876031 0.0712213
0.3740108 0.3829781 0.0665964
0.5348784 0.3783900 0.0620082
0.6948413 0.3738276 0.0574459
0.8541069 0.3692852 0.0529034
1.0000000 0.3647589 0.0483771
1.0000000 0.3629497 0.0465680
0.0000000 0.5410811 0.0634119
0.0323666 0.5385346 0.0608654
0.1968082 0.5338445 0.0561753
0.3589648 0.5292196 0.0515504
0.5198324 0.5246314 0.0469622
0.6797953 0.5200691 0.0423999
0.8390609 0.5155267 0.0378574
0.9977593 0.5110003 0.0333311
1.0000000 0.5091912 0.0315219
0.0000000 0.6873226 0.0483659
0.0173206 0.6847761 0.0458194
0.1817621 0.6800860 0.0411293
0.3439188 0.6754611 0.0365044
0.5047864 0.6708729 0.0319162
0.6647493 0.6663105 0.0273539
0.8240149 0.6617681 0.0228114
0.9827133 0.6572418 0.0182851
1.0000000 0.6554326 0.0164759
0.0000000 0.8335641 0.0333199
0.0022746 0.8310176 0.0307733
0.1667161 0.8263275 0.0260833
0.3288728 0.8217026 0.0214583
0.4897404 0.8171144 0.0168702
0.6497033 0.8125520 0.0123078
0.8089689 0.8080096 0.0077654
0.9676673 0.8034833 0.0032391
1.0000000 0.8016741 0.0014299
0.0000000 0.9798056 0.0182738
0.0000000 0.9772591 0.0157273
0.1516701 0.9725690 0.0110372
0.3138268 0.9679441 0.0064123
0.4746943 0.9633559 0.0018242
0.6346573 0.9587936 0.0000000
0.7939228 0.9542511 0.0000000
0.9526213 0.9497248 0.0000000
1.0000000 0.9479157 0.0000000
0.0000000 1.0000000 0.0119175
0.0000000 1.0000000 0.0093710
0.1453137 1.0000000 0.0046809
0.3074704 1.0000000 0.0000560
0.4683380 1.0000000 0.0000000
0.6283009 1.0000000 0.0000000
0.7875665 1.0000000 0.0000000
0.9462649 1.0000000 0.0000000
1.0000000 1.0000000 0.0000000
0.0000000 0.0079016 0.2645845
0.0856870 0.0053551 0.2620380
0.2501285 0.0006650 0.2573479
0.4122852 0.0000000 0.2527230
0.5731528 0.0000000 0.2481348
0.7331157 0.0000000 0.2435725
0.8923813 0.0000000 0.2390300
1.0000000 0.0000000 0.2345037
1.0000000 0.0000000 0.2326946
0.0000000 0.1009643 0.2550098
0.0761123 0.0984178 0.2524633
0.2405538 0.0937277 0.2477732
0.4027105 0.0891028 0.2431482
0.5635781 0.0845146 0.2385601
0.7235410 0.0799523 0.2339977
0.8828066 0.0754098 0.2294553
1.0000000 0.0708835 0.2249290
1.0000000 0.0690743 0.2231198
0.0000000 0.2472058 0.2399637
0.0610662 0.2446593 0.2374173
0.2255078 0.2399692 0.2327272
0.3876645 0.2353443 0.2281022
0.5485320 0.2307561 0.2235141
0.7084950 0.2261938 0.2189517
0.8677605 0.2216513 0.2144092
1.0000000 0.2171250 0.2098830
1.0000000 0.2153159 0.2080738
0.0000000 0.3934473 0.2249177
0.0460202 0.3909008 0.2223712
0.2104618 0.3862107 0.2176811
0.3726185 0.3815858 0.2130562
0.5334860 0.3769976 0.2084680
0.6934489 0.3724352 0.2039057
0.8527145 0.3678928 0.1993632
1.0000000 0.3633665 0.1948369
1.0000000 0.3615573 0.1930278
0.0000000 0.5396888 0.2098717
0.0309742 0.5371423 0.2073252
0.1954158 0.5324522 0.2026351
0.3575724 0.5278273 0.1980102
0.5184400 0.5232391 0.1934220
0.6784029 0.5186767 0.1888597
0.8376685 0.5141342 0.1843172
0.9963669 0.5096080 0.1797909
1.0000000 0.5077988 0.1779818
0.0000000 0.6859302 0.1948257
0.0159282 0.6833837 0.1922792
0.1803697 0.6786936 0.1875891
0.3425264 0.6740687 0.1829642
0.5033940 0.6694805 0.1783760
0.6633569 0.6649182 0.1738137
0.8226225 0.6603757 0.1692712
0.9813209 0.6558494 0.1647449
1.0000000 0.6540402 0.1629357
0.0000000 0.8321717 0.1797797
0.0008821 0.8296252 0.1772332
0.1653237 0.8249351 0.1725431
0.3274804 0.8203102 0.1679181
0.4883480 0.8157220 0.1633300
0.6483109 0.8111597 0.1587676
0.8075765 0.8066172 0.1542252
0.9662749 0.8020909 0.1496989
1.0000000 0.8002818 0.1478897
0.0000000 0.9784132 0.1647336
0.0000000 0.9758667 0.1621872
0.1502777 0.9711766 0.1574971
0.3124344 0.9665517 0.1528721
0.4733019 0.9619635 0.1482840
0.6332649 0.9574012 0.1437216
0.7925305 0.9528587 0.1391792
0.9512289 0.9483324 0.1346529
1.0000000 0.9465232 0.1328437
0.0000000 1.0000000 0.1583773
0.0000000 1.0000000 0.1558308
0.1439214 1.0000000 0.1511407
0.3060780 1.0000000 0.1465158
0.4669456 1.0000000 0.1419276
0.6269085 1.0000000 0.1373653
0.7861741 1.0000000 0.1328229
0.9448725 1.0000000 0.1282966
1.0000000 1.0000000 0.1264873
0.0000000 0.0064928 0.4127710
0.0842782 0.0039463 0.4102245
0.2487198 0.0000000 0.4055344
0.4108765 0.0000000 0.4009095
0.5717440 0.0000000 0.3963214
0.7317069 0.0000000 0.3917590
0.8909725 0.0000000 0.3872165
1.0000000 0.0000000 0.3826903
1.0000000 0.0000000 0.3808811
0.0000000 0.0995555 0.4031963
0.0747035 0.0970090 0.4006498
0.2391450 0.0923189 0.3959597
0.4013017 0.0876940 0.3913348
0.5621693 0.0831058 0.3867466
0.7221322 0.0785435 0.3821843
0.8813977 0.0740010 0.3776418
1.0000000 0.0694747 0.3731155
1.0000000 0.0676656 0.3713064
0.0000000 0.2457970 0.3881503
0.0596575 0.2432505 0.3856038
0.2240990 0.2385604 0.3809137
0.3862557 0.2339355 0.3762888
0.5471233 0.2293473 0.3717006
0.7070861 0.2247850 0.3671383
0.8663518 0.2202425 0.3625958
1.0000000 0.2157162 0.3580695
1.0000000 0.2139071 0.3562603
0.0000000 0.3920385 0.3731043
0.0446115 0.3894920 0.3705578
0.2090530 0.3848019 0.3658677
0.3712097 0.3801770 0.3612427
0.5320773 0.3755888 0.3566546
0.6920401 0.3710265 0.3520922
0.8513057 0.3664840 0.3475498
1.0000000 0.3619577 0.3430235
1.0000000 0.3601485 0.3412143
0.0000000 0.5382800 0.3580582
0.0295654 0.5357335 0.3555118
0.1940070 0.5310434 0.3508217
0.3561636 0.5264184 0.3461967
0.5170312 0.5218303 0.3416086
0.6769941 0.5172679 0.3370462
0.8362597 0.5127255 0.3325037
0.9949582 0.5081992 0.3279774
1.0000000 0.5063900 0.3261683
0.0000000 0.6845214 0.3430122
0.0145194 0.6819749 0.3404657
0.1789609 0.6772848 0.3357756
0.3411176 0.6726599 0.3311507
0.5019852 0.6680717 0.3265626
0.6619481 0.6635094 0.3220002
0.8212137 0.6589669 0.3174577
0.9799122 0.6544406 0.3129314
1.0000000 0.6526315 0.3111223
0.0000000 0.8307629 0.3279662
0.0000000 0.8282164 0.3254197
0.1639149 0.8235263 0.3207296
0.3260716 0.8189014 0.3161047
0.4869392 0.8143132 0.3115166
0.6469021 0.8097509 0.3069542
0.8061677 0.8052084 0.3024117
0.9648661 0.8006821 0.2978854
1.0000000 0.7988729 0.2960762
0.0000000 0.9770044 0.3129202
0.0000000 0.9744579 0.3103737
0.1488689 0.9697678 0.3056836
0.3110256 0.9651429 0.3010587
0.4718932 0.9605547 0.2964705
0.6318561 0.9559924 0.2919081
0.7911217 0.9514499 0.2873657
0.9498201 0.9469236 0.2828395
1.0000000 0.9451145 0.2810303
0.0000000 1.0000000 0.3065639
0.0000000 1.0000000 0.3040174
0.1425126 1.0000000 0.2993273
0.3046693 1.0000000 0.2947024
0.4655368 1.0000000 0.2901142
0.6254997 1.0000000 0.2855518
0.7847654 1.0000000 0.2810094
0.9434637 1.0000000 0.2764831
1.0000000 1.0000000 0.2746739
0.0000000 0.0050736 0.5620503
0.0828590 0.0025271 0.5595038
0.2473006 0.0000000 0.5548136
0.4094572 0.0000000 0.5501888
0.5703248 0.0000000 0.5456006
0.7302877 0.0000000 0.5410382
0.8895534 0.0000000 0.5364957
1.0000000 0.0000000 0.5319694
1.0000000 0.0000000 0.5301603
0.0000000 0.0981363 0.5524755
0.0732843 0.0955898 0.5499290
0.2377258 0.0908997 0.5452390
0.3998825 0.0862748 0.5406140
0.5607501 0.0816866 0.5360259
0.7207130 0.0771243 0.5314635
0.8799786 0.0725818 0.5269210
1.0000000 0.0680555 0.5223947
1.0000000 0.0662464 0.5205855
0.0000000 0.2443778 0.5374295
0.0582383 0.2418313 0.5348830
0.2226798 0.2371412 0.5301929
0.3848365 0.2325163 0.5255680
0.5457041 0.2279282 0.5209798
0.7056670 0.2233658 0.5164175
0.8649325 0.2188233 0.5118750
1.0000000 0.2142970 0.5073487
1.0000000 0.2124879 0.5055395
0.0000000 0.3906193 0.5223835
0.0431923 0.3880728 0.5198370
0.2076338 0.3833827 0.5151469
0.3697905 0.3787578 0.5105219
0.5306581 0.3741696 0.5059338
0.6906210 0.3696073 0.5013714
0.8498865 0.3650648 0.4968290
1.0000000 0.3605385 0.4923027
1.0000000 0.3587294 0.4904935
0.0000000 0.5368608 0.5073375
0.0281462 0.5343143 0.5047910
0.1925878 0.5296242 0.5001009
0.3547444 0.5249993 0.4954759
0.5156120 0.5204111 0.4908878
0.6755750 0.5158488 0.4863254
0.8348405 0.5113063 0.4817830
0.9935390 0.5067800 0.4772567
1.0000000 0.5049708 0.4754475
0.0000000 0.6831023 0.4922915
0.0131002 0.6805557 0.4897450
0.1775418 0.6758657 0.4850549
0.3396984 0.6712407 0.4804299
0.5005660 0.6666526 0.4758418
0.6605289 0.6620902 0.4712794
0.8197945 0.6575477 0.4667370
0.9784930 0.6530215 0.4622107
1.0000000 0.6512123 0.4604015
0.0000000 0.8293437 0.4772455
0.0000000 0.8267972 0.4746989
0.1624957 0.8221071 0.4700089
0.3246524 0.8174822 0.4653839
0.4855200 0.8128940 0.4607958
0.6454829 0.8083317 0.4562334
0.8047485 0.8037893 0.4516909
0.9634469 0.7992629 0.4471647
1.0000000 0.7974538 0.4453555
0.0000000 0.9755852 0.4621994
0.0000000 0.9730387 0.4596529
0.1474497 0.9683486 0.4549628
0.3096064 0.9637237 0.4503379
0.4704740 0.9591355 0.4457497
0.6304369 0.9545732 0.4411874
0.7897025 0.9500307 0.4366449
0.9484009 0.9455044 0.4321186
1.0000000 0.9436953 0.4303095
0.0000000 1.0000000 0.4558431
0.0000000 1.0000000 0.4532966
0.1410934 1.0000000 0.4486065
0.3032501 1.0000000 0.4439816
0.4641176 1.0000000 0.4393934
0.6240805 1.0000000 0.4348311
0.7833462 1.0000000 0.4302886
0.9420446 1.0000000 0.4257623
1.0000000 1.0000000 0.4239531
0.0000000 0.0036468 0.7121345
0.0814322 0.0011002 0.7095881
0.2458737 0.0000000 0.7048979
0.4080304 0.0000000 0.7002730
0.5688980 0.0000000 0.6956849
0.7288609 0.0000000 0.6911225
0.8881265 0.0000000 0.6865801
1.0000000 0.0000000 0.6820537
1.0000000 0.0000000 0.6802446
0.0000000 0.0967095 0.7025598
0.0718575 0.0941630 0.7000133
0.2362990 0.0894729 0.6953232
0.3984557 0.0848480 0.6906983
0.5593233 0.0802598 0.6861101
0.7192861 0.0756975 0.6815478
0.8785518 0.0711550 0.6770053
1.0000000 0.0666287 0.6724790
1.0000000 0.0648195 0.6706699
0.0000000 0.2429510 0.6875138
0.0568114 0.2404045 0.6849673
0.2212530 0.2357144 0.6802772
0.3834096 0.2310895 0.6756523
0.5442772 0.2265013 0.6710641
0.7042401 0.2219390 0.6665018
0.8635057 0.2173965 0.6619593
1.0000000 0.2128702 0.6574330
1.0000000 0.2110610 0.6556238
0.0000000 0.3891925 0.6724678
0.0417654 0.3866460 0.6699213
0.2062070 0.3819559 0.6652312
0.3683636 0.3773309 0.6606063
0.5292312 0.3727428 0.6560181
0.6891941 0.3681804 0.6514558
0.8484597 0.3636380 0.6469133
1.0000000 0.3591117 0.6423870
1.0000000 0.3573025 0.6405778
0.0000000 0.5354339 0.6574217
0.0267194 0.5328875 0.6548753
0.1911609 0.5281973 0.6501852
0.3533176 0.5235724 0.6455602
0.5141852 0.5189843 0.6409721
0.6741481 0.5144219 0.6364097
0.8334137 0.5098794 0.6318672
0.9921121 0.5053532 0.6273410
1.0000000 0.5035440 0.6255318
0.0000000 0.6816754 0.6423757
0.0116734 0.6791289 0.6398292
0.1761149 0.6744388 0.6351391
0.3382716 0.6698139 0.6305142
0.4991392 0.6652257 0.6259260
0.6591021 0.6606634 0.6213637
0.8183677 0.6561209 0.6168212
0.9770661 0.6515946 0.6122949
1.0000000 0.6497854 0.6104858
0.0000000 0.8279169 0.6273297
0.0000000 0.8253704 0.6247832
0.1610689 0.8206803 0.6200931
0.3232256 0.8160554 0.6154682
0.4840932 0.8114672 0.6108800
0.6440561 0.8069049 0.6063176
0.8033217 0.8023624 0.6017752
0.9620200 0.7978361 0.5972489
1.0000000 0.7960269 0.5954397
0.0000000 0.9741584 0.6122837
0.0000000 0.9716119 0.6097372
0.1460229 0.9669218 0.6050471
0.3081796 0.9622968 0.6004221
0.4690471 0.9577087 0.5958340
0.6290101 0.9531463 0.5912716
0.7882757 0.9486039 0.5867292
0.9469740 0.9440776 0.5822029
1.0000000 0.9422684 0.5803937
0.0000000 1.0000000 0.6059273
0.0000000 1.0000000 0.6033809
0.1396666 1.0000000 0.5986907
0.3018232 1.0000000 0.5940658
0.4626908 1.0000000 0.5894777
0.6226537 1.0000000 0.5849153
0.7819193 1.0000000 0.5803728
0.9406177 1.0000000 0.5758466
1.0000000 1.0000000 0.5740374
0.0000000 0.0022138 0.8628578
0.0799993 0.0000000 0.8603112
0.2444408 0.0000000 0.8556212
0.4065975 0.0000000 0.8509962
0.5674651 0.0000000 0.8464081
0.7274280 0.0000000 0.8418457
0.8866936 0.0000000 0.8373033
1.0000000 0.0000000 0.8327769
1.0000000 0.0000000 0.8309678
0.0000000 0.0952766 0.8532830
0.0704245 0.0927301 0.8507365
0.2348661 0.0880400 0.8460464
0.3970228 0.0834151 0.8414215
0.5578903 0.0788269 0.8368334
0.7178532 0.0742645 0.8322710
0.8771188 0.0697221 0.8277285
1.0000000 0.0651958 0.8232023
1.0000000 0.0633866 0.8213930
0.0000000 0.2415181 0.8382370
0.0553785 0.2389716 0.8356905
0.2198201 0.2342815 0.8310004
0.3819767 0.2296566 0.8263755
0.5428443 0.2250684 0.8217873
0.7028072 0.2205060 0.8172250
0.8620728 0.2159636 0.8126825
1.0000000 0.2114373 0.8081562
1.0000000 0.2096281 0.8063470
0.0000000 0.3877595 0.8231909
0.0403325 0.3852130 0.8206445
0.2047741 0.3805230 0.8159544
0.3669307 0.3758980 0.8113295
0.5277983 0.3713099 0.8067413
0.6877612 0.3667475 0.8021790
0.8470268 0.3622050 0.7976365
1.0000000 0.3576788 0.7931102
1.0000000 0.3558696 0.7913010
0.0000000 0.5340010 0.8081449
0.0252865 0.5314545 0.8055984
0.1897280 0.5267645 0.8009083
0.3518847 0.5221395 0.7962834
0.5127523 0.5175514 0.7916952
0.6727152 0.5129890 0.7871329
0.8319808 0.5084465 0.7825904
0.9906792 0.5039202 0.7780641
1.0000000 0.5021111 0.7762550
0.0000000 0.6802425 0.7930989
0.0102405 0.6776960 0.7905524
0.1746820 0.6730059 0.7858623
0.3368387 0.6683810 0.7812374
0.4977063 0.6637928 0.7766492
0.6576692 0.6592304 0.7720869
0.8169348 0.6546879 0.7675444
0.9756332 0.6501617 0.7630181
1.0000000 0.6483525 0.7612090
0.0000000 0.8264840 0.7780529
0.0000000 0.8239375 0.7755064
0.1596360 0.8192474 0.7708163
0.3217927 0.8146225 0.7661914
0.4826602 0.8100343 0.7616032
0.6426232 0.8054720 0.7570409
0.8018888 0.8009295 0.7524984
0.9605871 0.7964032 0.7479721
1.0000000 0.7945940 0.7461630
0.0000000 0.9727255 0.7630069
0.0000000 0.9701790 0.7604604
0.1445900 0.9654889 0.7557703
0.3067467 0.9608639 0.7511454
0.4676142 0.9562758 0.7465572
0.6275771 0.9517134 0.7419949
0.7868428 0.9471710 0.7374524
0.9455411 0.9426447 0.7329261
1.0000000 0.9408355 0.7311170
0.0000000 1.0000000 0.7566506
0.0000000 1.0000000 0.7541041
0.1382336 1.0000000 0.7494140
0.3003903 1.0000000 0.7447891
0.4612579 1.0000000 0.7402009
0.6212208 1.0000000 0.7356385
0.7804864 1.0000000 0.7310960
0.9391848 1.0000000 0.7265698
1.0000000 1.0000000 0.7247606
0.0000000 0.0007759 1.0000000
0.0785613 0.0000000 1.0000000
0.2430029 0.0000000 1.0000000
0.4051595 0.0000000 1.0000000
0.5660271 0.0000000 0.9976618
0.7259900 0.0000000 0.9930994
0.8852556 0.0000000 0.9885570
1.0000000 0.0000000 0.9840306
1.0000000 0.0000000 0.9822215
0.0000000 0.0938386 1.0000000
0.0689866 0.0912921 1.0000000
0.2334281 0.0866020 0.9973001
0.3955848 0.0819771 0.9926752
0.5564524 0.0773889 0.9880871
0.7164153 0.0728266 0.9835247
0.8756809 0.0682841 0.9789822
1.0000000 0.0637578 0.9744558
1.0000000 0.0619487 0.9726468
0.0000000 0.2400801 0.9894907
0.0539406 0.2375336 0.9869442
0.2183821 0.2328435 0.9822541
0.3805388 0.2282186 0.9776292
0.5414063 0.2236305 0.9730410
0.7013693 0.2190681 0.9684787
0.8606349 0.2145256 0.9639362
1.0000000 0.2099993 0.9594100
1.0000000 0.2081902 0.9576008
0.0000000 0.3863216 0.9744447
0.0388946 0.3837751 0.9718982
0.2033361 0.3790850 0.9672081
0.3654928 0.3744601 0.9625832
0.5263603 0.3698719 0.9579951
0.6863233 0.3653095 0.9534327
0.8455889 0.3607671 0.9488902
1.0000000 0.3562408 0.9443639
1.0000000 0.3544316 0.9425547
0.0000000 0.5325631 0.9593987
0.0238485 0.5300165 0.9568521
0.1882901 0.5253265 0.9521621
0.3504468 0.5207015 0.9475372
0.5113143 0.5161134 0.9429490
0.6712772 0.5115510 0.9383867
0.8305428 0.5070086 0.9338441
0.9892412 0.5024823 0.9293178
1.0000000 0.5006731 0.9275087
0.0000000 0.6788045 0.9443526
0.0088025 0.6762580 0.9418061
0.1732440 0.6715679 0.9371160
0.3354007 0.6669430 0.9324911
0.4962683 0.6623548 0.9279029
0.6562312 0.6577924 0.9233406
0.8154968 0.6532500 0.9187981
0.9741952 0.6487237 0.9142718
1.0000000 0.6469145 0.9124627
0.0000000 0.8250460 0.9293066
0.0000000 0.8224995 0.9267601
0.1581980 0.8178094 0.9220700
0.3203547 0.8131845 0.9174451
0.4812223 0.8085963 0.9128569
0.6411852 0.8040340 0.9082946
0.8004508 0.7994915 0.9037521
0.9591492 0.7949652 0.8992258
1.0000000 0.7931561 0.8974167
0.0000000 0.9712875 0.9142606
0.0000000 0.9687411 0.9117141
0.1431520 0.9640509 0.9070240
0.3053087 0.9594260 0.9023991
0.4661763 0.9548379 0.8978109
0.6261392 0.9502755 0.8932486
0.7854048 0.9457330 0.8887061
0.9441032 0.9412068 0.8841798
1.0000000 0.9393976 0.8823707
0.0000000 1.0000000 0.9079043
0.0000000 1.0000000 0.9053578
0.1367956 1.0000000 0.9006677
0.2989523 1.0000000 0.8960428
0.4598199 1.0000000 0.8914546
0.6197828 1.0000000 0.8868923
0.7790484 1.0000000 0.8823498
0.9377468 1.0000000 0.8778235
1.0000000 1.0000000 0.8760143
0.0000000 0.0000000 1.0000000
0.0776036 0.0000000 1.0000000
0.2420451 0.0000000 1.0000000
0.4042018 0.0000000 1.0000000
0.5650693 0.0000000 1.0000000
0.7250323 0.0000000 1.0000000
0.8842978 0.0000000 1.0000000
1.0000000 0.0000000 1.0000000
1.0000000 0.0000000 1.0000000
0.0000000 0.0928809 1.0000000
0.0680288 0.0903344 1.0000000
0.2324704 0.0856443 1.0000000
0.3946270 0.0810194 1.0000000
0.5554947 0.0764312 1.0000000
0.7154576 0.0718688 1.0000000
0.8747231 0.0673264 1.0000000
1.0000000 0.0628001 1.0000000
1.0000000 0.0609909 1.0000000
0.0000000 0.2391224 1.0000000
0.0529828 0.2365759 1.0000000
0.2174244 0.2318858 1.0000000
0.3795810 0.2272609 1.0000000
0.5404486 0.2226727 1.0000000
0.7004116 0.2181104 1.0000000
0.8596771 0.2135679 1.0000000
1.0000000 0.2090416 1.0000000
1.0000000 0.2072324 1.0000000
0.0000000 0.3853638 1.0000000
0.0379368 0.3828174 1.0000000
0.2023783 0.3781272 1.0000000
0.3645350 0.3735023 1.0000000
0.5254026 0.3689142 1.0000000
0.6853655 0.3643518 1.0000000
0.8446311 0.3598093 1.0000000
1.0000000 0.3552831 1.0000000
1.0000000 0.3534739 1.0000000
0.0000000 0.5316053 1.0000000
0.0228908 0.5290588 1.0000000
0.1873323 0.5243687 1.0000000
0.3494890 0.5197438 1.0000000
0.5103565 0.5151556 1.0000000
0.6703195 0.5105933 1.0000000
0.8295851 0.5060508 1.0000000
0.9882835 0.5015245 1.0000000
1.0000000 0.4997154 1.0000000
0.0000000 0.6778468 1.0000000
0.0078447 0.6753002 1.0000000
0.1722863 0.6706102 1.0000000
0.3344430 0.6659852 1.0000000
0.4953105 0.6613971 1.0000000
0.6552735 0.6568347 1.0000000
0.8145391 0.6522923 1.0000000
0.9732375 0.6477660 1.0000000
1.0000000 0.6459568 1.0000000
0.0000000 0.8240883 1.0000000
0.0000000 0.8215418 1.0000000
0.1572403 0.8168517 1.0000000
0.3193970 0.8122268 1.0000000
0.4802645 0.8076386 1.0000000
0.6402274 0.8030763 1.0000000
0.7994931 0.7985338 1.0000000
0.9581915 0.7940075 0.9999679
1.0000000 0.7921983 0.9981587
0.0000000 0.9703298 1.0000000
0.0000000 0.9677833 1.0000000
0.1421943 0.9630932 1.0000000
0.3043510 0.9584683 1.0000000
0.4652185 0.9538801 0.9985529
0.6251814 0.9493178 0.9939906
0.7844471 0.9447753 0.9894481
0.9431455 0.9402490 0.9849218
1.0000000 0.9384398 0.9831127
0.0000000 1.0000000 1.0000000
0.0000000 1.0000000 1.0000000
0.1358379 1.0000000 1.0000000
0.2979946 1.0000000 0.9967847
0.4588622 1.0000000 0.9921966
0.6188251 1.0000000 0.9876342
0.7780907 1.0000000 0.9830918
0.9367891 1.0000000 0.9785655
1.0000000 1.0000000 0.9767563
