luts/lume_20260420_183736.cube
TITLE "Lume Grade"
LUT_3D_SIZE 9
0.0000000 0.0169780 0.0443042
0.0000000 0.0169780 0.0443042
0.2276586 0.0034064 0.0307326
0.4595739 0.0000000 0.0172041
0.6855727 0.0000000 0.0040208
0.9078623 0.0000000 0.0000000
1.0000000 0.0000000 0.0000000
1.0000000 0.0000000 0.0000000
1.0000000 0.0000000 0.0000000
0.0000000 0.0295234 0.0414485
0.0000000 0.0295234 0.0414485
0.2248029 0.0159518 0.0278769
0.4567183 0.0024233 0.0143484
0.6827170 0.0000000 0.0011650
0.9050065 0.0000000 0.0000000
1.0000000 0.0000000 0.0000000
1.0000000 0.0000000 0.0000000
1.0000000 0.0000000 0.0000000
0.0000000 0.2051403 0.0014728
0.0000000 0.2051403 0.0014728
0.1848272 0.1915687 0.0000000
0.4167426 0.1780402 0.0000000
0.6427414 0.1648569 0.0000000
0.8650309 0.1518899 0.0000000
1.0000000 0.1390805 0.0000000
1.0000000 0.1307305 0.0000000
1.0000000 0.1307305 0.0000000
0.0000000 0.3900220 0.0000000
0.0000000 0.3900220 0.0000000
0.1427426 0.3764504 0.0000000
0.3746580 0.3629219 0.0000000
0.6006567 0.3497385 0.0000000
0.8229463 0.3367715 0.0000000
1.0000000 0.3239622 0.0000000
1.0000000 0.3156121 0.0000000
1.0000000 0.3156121 0.0000000
0.0000000 0.5795592 0.0000000
0.0000000 0.5795592 0.0000000
0.0995983 0.5659876 0.0000000
0.3315137 0.5524591 0.0000000
0.5575125 0.5392758 0.0000000
0.7798020 0.5263088 0.0000000
0.9993891 0.5134994 0.0000000
1.0000000 0.5051493 0.0000000
1.0000000 0.5051493 0.0000000
0.0000000 0.7722981 0.0000000
0.0000000 0.7722981 0.0000000
0.0557252 0.7587265 0.0000000
0.2876406 0.7451980 0.0000000
0.5136393 0.7320147 0.0000000
0.7359288 0.7190477 0.0000000
0.9555159 0.7062383 0.0000000
1.0000000 0.6978883 0.0000000
1.0000000 0.6978883 0.0000000
0.0000000 0.9674938 0.0000000
0.0000000 0.9674938 0.0000000
0.0112928 0.9539222 0.0000000
0.2432082 0.9403937 0.0000000
0.4692069 0.9272103 0.0000000
0.6914964 0.9142433 0.0000000
0.9110835 0.9014340 0.0000000
1.0000000 0.8930839 0.0000000
1.0000000 0.8930839 0.0000000
0.0000000 1.0000000 0.0000000
0.0000000 1.0000000 0.0000000
0.0000000 1.0000000 0.0000000
0.2133287 1.0000000 0.0000000
0.4393275 1.0000000 0.0000000
0.6616170 1.0000000 0.0000000
0.8812041 1.0000000 0.0000000
1.0000000 1.0000000 0.0000000
1.0000000 1.0000000 0.0000000
0.0000000 1.0000000 0.0000000
0.0000000 1.0000000 0.0000000
0.0000000 1.0000000 0.0000000
0.2133287 1.0000000 0.0000000
0.4393275 1.0000000 0.0000000
0.6616170 1.0000000 0.0000000
0.8812041 1.0000000 0.0000000
1.0000000 1.0000000 0.0000000
1.0000000 1.0000000 0.0000000
0.0000000 0.0169780 0.0443042
0.0000000 0.0169780 0.0443042
0.2276586 0.0034064 0.0307326
0.4595739 0.0000000 0.0172041
0.6855727 0.0000000 0.0040208
0.9078623 0.0000000 0.0000000
1.0000000 0.0000000 0.0000000
1.0000000 0.0000000 0.0000000
1.0000000 0.0000000 0.0000000
0.0000000 0.0295234 0.0414485
0.0000000 0.0295234 0.0414485
0.2248029 0.0159518 0.0278769
0.4567183 0.0024233 0.0143484
0.6827170 0.0000000 0.0011650
0.9050065 0.0000000 0.0000000
1.0000000 0.0000000 0.0000000
1.0000000 0.0000000 0.0000000
1.0000000 0.0000000 0.0000000
0.0000000 0.2051403 0.0014728
0.0000000 0.2051403 0.0014728
0.1848272 0.1915687 0.0000000
0.4167426 0.1780402 0.0000000
0.6427414 0.1648569 0.0000000
0.8650309 0.1518899 0.0000000
1.0000000 0.1390805 0.0000000
1.0000000 0.1307305 0.0000000
1.0000000 0.1307305 0.0000000
0.0000000 0.3900220 0.0000000
0.0000000 0.3900220 0.0000000
0.1427426 0.3764504 0.0000000
0.3746580 0.3629219 0.0000000
0.6006567 0.3497385 0.0000000
0.8229463 0.3367715 0.0000000
1.0000000 0.3239622 0.0000000
1.0000000 0.3156121 0.0000000
1.0000000 0.3156121 0.0000000
0.0000000 0.5795592 0.0000000
0.0000000 0.5795592 0.0000000
0.0995983 0.5659876 0.0000000
0.3315137 0.5524591 0.0000000
0.5575125 0.5392758 0.0000000
0.7798020 0.5263088 0.0000000
0.9993891 0.5134994 0.0000000
1.0000000 0.5051493 0.0000000
1.0000000 0.5051493 0.0000000
0.0000000 0.7722981 0.0000000
0.0000000 0.7722981 0.0000000
0.0557252 0.7587265 0.0000000
0.2876406 0.7451980 0.0000000
0.5136393 0.7320147 0.0000000
0.7359288 0.7190477 0.0000000
0.9555159 0.7062383 0.0000000
1.0000000 0.6978883 0.0000000
1.0000000 0.6978883 0.0000000
0.0000000 0.9674938 0.0000000
0.0000000 0.9674938 0.0000000
0.0112928 0.9539222 0.0000000
0.2432082 0.9403937 0.0000000
0.4692069 0.9272103 0.0000000
0.6914964 0.9142433 0.0000000
0.9110835 0.9014340 0.0000000
1.0000000 0.8930839 0.0000000
1.0000000 0.8930839 0.0000000
0.0000000 1.0000000 0.0000000
0.0000000 1.0000000 0.0000000
0.0000000 1.0000000 0.0000000
0.2133287 1.0000000 0.0000000
0.4393275 1.0000000 0.0000000
0.6616170 1.0000000 0.0000000
0.8812041 1.0000000 0.0000000
1.0000000 1.0000000 0.0000000
1.0000000 1.0000000 0.0000000
0.0000000 1.0000000 0.0000000
0.0000000 1.0000000 0.0000000
0.0000000 1.0000000 0.0000000
0.2133287 1.0000000 0.0000000
0.4393275 1.0000000 0.0000000
0.6616170 1.0000000 0.0000000
0.8812041 1.0000000 0.0000000
1.0000000 1.0000000 0.0000000
1.0000000 1.0000000 0.0000000
0.0000000 0.0137975 0.2110362
0.0000000 0.0137975 0.2110362
0.2244781 0.0002259 0.1974646
0.4563935 0.0000000 0.1839361
0.6823922 0.0000000 0.1707527
0.9046817 0.0000000 0.1577857
1.0000000 0.0000000 0.1449764
1.0000000 0.0000000 0.1366263
1.0000000 0.0000000 0.1366263
0.0000000 0.0263429 0.2081805
0.0000000 0.0263429 0.2081805
0.2216224 0.0127713 0.1946089
0.4535378 0.0000000 0.1810804
0.6795365 0.0000000 0.1678970
0.9018260 0.0000000 0.1549300
1.0000000 0.0000000 0.1421207
1.0000000 0.0000000 0.1337706
1.0000000 0.0000000 0.1337706
0.0000000 0.2019598 0.1682048
0.0000000 0.2019598 0.1682048
0.1816467 0.1883882 0.1546332
0.4135621 0.1748597 0.1411047
0.6395609 0.1616763 0.1279214
0.8618504 0.1487094 0.1149544
1.0000000 0.1359000 0.1021450
1.0000000 0.1275499 0.0937950
1.0000000 0.1275499 0.0937950
0.0000000 0.3868414 0.1261202
0.0000000 0.3868414 0.1261202
0.1395621 0.3732699 0.1125486
0.3714775 0.3597414 0.0990201
0.5974762 0.3465580 0.0858368
0.8197658 0.3335910 0.0728698
1.0000000 0.3207817 0.0600604
1.0000000 0.3124316 0.0517103
1.0000000 0.3124316 0.0517103
0.0000000 0.5763787 0.0829759
0.0000000 0.5763787 0.0829759
0.0964178 0.5628071 0.0694043
0.3283332 0.5492786 0.0558758
0.5543319 0.5360952 0.0426925
0.7766215 0.5231282 0.0297255
0.9962085 0.5103189 0.0169161
1.0000000 0.5019688 0.0085660
1.0000000 0.5019688 0.0085660
0.0000000 0.7691176 0.0391028
0.0000000 0.7691176 0.0391028
0.0525447 0.7555460 0.0255312
0.2844600 0.7420175 0.0120027
0.5104588 0.7288342 0.0000000
0.7327483 0.7158672 0.0000000
0.9523354 0.7030578 0.0000000
1.0000000 0.6947077 0.0000000
1.0000000 0.6947077 0.0000000
0.0000000 0.9643133 0.0000000
0.0000000 0.9643133 0.0000000
0.0081123 0.9507416 0.0000000
0.2400277 0.9372132 0.0000000
0.4660264 0.9240298 0.0000000
0.6883159 0.9110628 0.0000000
0.9079030 0.8982535 0.0000000
1.0000000 0.8899034 0.0000000
1.0000000 0.8899034 0.0000000
0.0000000 1.0000000 0.0000000
0.0000000 1.0000000 0.0000000
0.0000000 1.0000000 0.0000000
0.2101482 1.0000000 0.0000000
0.4361470 1.0000000 0.0000000
0.6584365 1.0000000 0.0000000
0.8780236 1.0000000 0.0000000
1.0000000 1.0000000 0.0000000
1.0000000 1.0000000 0.0000000
0.0000000 1.0000000 0.0000000
0.0000000 1.0000000 0.0000000
0.0000000 1.0000000 0.0000000
0.2101482 1.0000000 0.0000000
0.4361470 1.0000000 0.0000000
0.6584365 1.0000000 0.0000000
0.8780236 1.0000000 0.0000000
1.0000000 1.0000000 0.0000000
1.0000000 1.0000000 0.0000000
0.0000000 0.0101140 0.4041357
0.0000000 0.0101140 0.4041357
0.2207946 0.0000000 0.3905641
0.4527100 0.0000000 0.3770356
0.6787087 0.0000000 0.3638522
0.9009982 0.0000000 0.3508852
1.0000000 0.0000000 0.3380759
1.0000000 0.0000000 0.3297258
1.0000000 0.0000000 0.3297258
0.0000000 0.0226594 0.4012800
0.0000000 0.0226594 0.4012800
0.2179389 0.0090878 0.3877084
0.4498543 0.0000000 0.3741799
0.6758530 0.0000000 0.3609965
0.8981425 0.0000000 0.3480295
1.0000000 0.0000000 0.3352202
1.0000000 0.0000000 0.3268701
1.0000000 0.0000000 0.3268701
0.0000000 0.1982763 0.3613043
0.0000000 0.1982763 0.3613043
0.1779632 0.1847047 0.3477327
0.4098786 0.1711762 0.3342042
0.6358774 0.1579929 0.3210209
0.8581669 0.1450259 0.3080539
1.0000000 0.1322165 0.2952445
1.0000000 0.1238665 0.2868944
1.0000000 0.1238665 0.2868944
0.0000000 0.3831580 0.3192197
0.0000000 0.3831580 0.3192197
0.1358787 0.3695864 0.3056481
0.3677940 0.3560579 0.2921196
0.5937928 0.3428745 0.2789363
0.8160823 0.3299075 0.2659693
1.0000000 0.3170982 0.2531599
1.0000000 0.3087481 0.2448099
1.0000000 0.3087481 0.2448099
0.0000000 0.5726952 0.2760754
0.0000000 0.5726952 0.2760754
0.0927343 0.5591236 0.2625038
0.3246497 0.5455951 0.2489753
0.5506485 0.5324118 0.2357920
0.7729380 0.5194448 0.2228250
0.9925250 0.5066354 0.2100156
1.0000000 0.4982853 0.2016655
1.0000000 0.4982853 0.2016655
0.0000000 0.7654341 0.2322023
0.0000000 0.7654341 0.2322023
0.0488612 0.7518625 0.2186307
0.2807766 0.7383341 0.2051022
0.5067753 0.7251506 0.1919188
0.7290648 0.7121837 0.1789518
0.9486519 0.6993743 0.1661425
1.0000000 0.6910242 0.1577924
1.0000000 0.6910242 0.1577924
0.0000000 0.9606298 0.1877699
0.0000000 0.9606298 0.1877699
0.0044288 0.9470582 0.1741983
0.2363442 0.9335297 0.1606698
0.4623429 0.9203463 0.1474864
0.6846325 0.9073793 0.1345195
0.9042195 0.8945700 0.1217101
1.0000000 0.8862199 0.1133600
1.0000000 0.8862199 0.1133600
0.0000000 1.0000000 0.1578904
0.0000000 1.0000000 0.1578904
0.0000000 1.0000000 0.1443189
0.2064648 1.0000000 0.1307903
0.4324635 1.0000000 0.1176071
0.6547530 1.0000000 0.1046400
0.8743401 1.0000000 0.0918307
1.0000000 1.0000000 0.0834807
1.0000000 1.0000000 0.0834807
0.0000000 1.0000000 0.1578904
0.0000000 1.0000000 0.1578904
0.0000000 1.0000000 0.1443189
0.2064648 1.0000000 0.1307903
0.4324635 1.0000000 0.1176071
0.6547530 1.0000000 0.1046400
0.8743401 1.0000000 0.0918307
1.0000000 1.0000000 0.0834807
1.0000000 1.0000000 0.0834807
0.0000000 0.0061387 0.6125297
0.0000000 0.0061387 0.6125297
0.2168194 0.0000000 0.5989581
0.4487348 0.0000000 0.5854295
0.6747335 0.0000000 0.5722463
0.8970230 0.0000000 0.5592792
1.0000000 0.0000000 0.5464699
1.0000000 0.0000000 0.5381198
1.0000000 0.0000000 0.5381198
0.0000000 0.0186842 0.6096740
0.0000000 0.0186842 0.6096740
0.2139637 0.0051126 0.5961024
0.4458790 0.0000000 0.5825739
0.6718778 0.0000000 0.5693905
0.8941673 0.0000000 0.5564235
1.0000000 0.0000000 0.5436141
1.0000000 0.0000000 0.5352641
1.0000000 0.0000000 0.5352641
0.0000000 0.1943011 0.5696983
0.0000000 0.1943011 0.5696983
0.1739880 0.1807295 0.5561267
0.4059034 0.1672010 0.5425982
0.6319021 0.1540176 0.5294149
0.8541917 0.1410506 0.5164479
1.0000000 0.1282413 0.5036385
1.0000000 0.1198912 0.4952884
1.0000000 0.1198912 0.4952884
0.0000000 0.3791827 0.5276137
0.0000000 0.3791827 0.5276137
0.1319034 0.3656112 0.5140421
0.3638188 0.3520826 0.5005136
0.5898175 0.3388993 0.4873303
0.8121071 0.3259323 0.4743633
1.0000000 0.3131229 0.4615539
1.0000000 0.3047729 0.4532039
1.0000000 0.3047729 0.4532039
0.0000000 0.5687199 0.4844694
0.0000000 0.5687199 0.4844694
0.0887591 0.5551484 0.4708978
0.3206744 0.5416198 0.4573693
0.5466732 0.5284365 0.4441859
0.7689627 0.5154695 0.4312190
0.9885498 0.5026602 0.4184096
1.0000000 0.4943101 0.4100595
1.0000000 0.4943101 0.4100595
0.0000000 0.7614589 0.4405963
0.0000000 0.7614589 0.4405963
0.0448860 0.7478873 0.4270247
0.2768013 0.7343588 0.4134962
0.5028001 0.7211754 0.4003128
0.7250896 0.7082084 0.3873458
0.9446766 0.6953990 0.3745365
1.0000000 0.6870490 0.3661864
1.0000000 0.6870490 0.3661864
0.0000000 0.9566545 0.3961639
0.0000000 0.9566545 0.3961639
0.0004536 0.9430829 0.3825923
0.2323689 0.9295545 0.3690638
0.4583677 0.9163711 0.3558804
0.6806572 0.9034041 0.3429134
0.9002443 0.8905948 0.3301041
1.0000000 0.8822447 0.3217540
1.0000000 0.8822447 0.3217540
0.0000000 1.0000000 0.3662845
0.0000000 1.0000000 0.3662845
0.0000000 1.0000000 0.3527129
0.2024895 1.0000000 0.3391843
0.4284883 1.0000000 0.3260010
0.6507778 1.0000000 0.3130340
0.8703648 1.0000000 0.3002247
1.0000000 1.0000000 0.2918746
1.0000000 1.0000000 0.2918746
0.0000000 1.0000000 0.3662845
0.0000000 1.0000000 0.3662845
0.0000000 1.0000000 0.3527129
0.2024895 1.0000000 0.3391843
0.4284883 1.0000000 0.3260010
0.6507778 1.0000000 0.3130340
0.8703648 1.0000000 0.3002247
1.0000000 1.0000000 0.2918746
1.0000000 1.0000000 0.2918746
0.0000000 0.0019475 0.8322452
0.0000000 0.0019475 0.8322452
0.2126282 0.0000000 0.8186736
0.4445435 0.0000000 0.8051451
0.6705423 0.0000000 0.7919617
0.8928318 0.0000000 0.7789947
1.0000000 0.0000000 0.7661854
1.0000000 0.0000000 0.7578353
1.0000000 0.0000000 0.7578353
0.0000000 0.0144930 0.8293895
0.0000000 0.0144930 0.8293895
0.2097725 0.0009214 0.8158179
0.4416878 0.0000000 0.8022894
0.6676866 0.0000000 0.7891060
0.8899761 0.0000000 0.7761390
1.0000000 0.0000000 0.7633297
1.0000000 0.0000000 0.7549796
1.0000000 0.0000000 0.7549796
0.0000000 0.1901098 0.7894138
0.0000000 0.1901098 0.7894138
0.1697968 0.1765383 0.7758422
0.4017122 0.1630098 0.7623137
0.6277109 0.1498264 0.7491304
0.8500004 0.1368594 0.7361634
1.0000000 0.1240501 0.7233540
1.0000000 0.1157000 0.7150040
1.0000000 0.1157000 0.7150040
0.0000000 0.3749915 0.7473292
0.0000000 0.3749915 0.7473292
0.1277122 0.3614199 0.7337576
0.3596276 0.3478914 0.7202291
0.5856264 0.3347081 0.7070458
0.8079159 0.3217411 0.6940788
1.0000000 0.3089318 0.6812694
1.0000000 0.3005817 0.6729193
1.0000000 0.3005817 0.6729193
0.0000000 0.5645288 0.7041849
0.0000000 0.5645288 0.7041849
0.0845679 0.5509572 0.6906133
0.3164833 0.5374287 0.6770848
0.5424820 0.5242453 0.6639014
0.7647715 0.5112783 0.6509345
0.9843585 0.4984690 0.6381251
1.0000000 0.4901189 0.6297750
1.0000000 0.4901189 0.6297750
0.0000000 0.7572677 0.6603118
0.0000000 0.7572677 0.6603118
0.0406948 0.7436961 0.6467402
0.2726101 0.7301676 0.6332117
0.4986089 0.7169842 0.6200283
0.7208984 0.7040172 0.6070613
0.9404855 0.6912079 0.5942520
1.0000000 0.6828578 0.5859019
1.0000000 0.6828578 0.5859019
0.0000000 0.9524633 0.6158794
0.0000000 0.9524633 0.6158794
0.0000000 0.9388918 0.6023078
0.2281777 0.9253633 0.5887793
0.4541765 0.9121799 0.5755959
0.6764660 0.8992129 0.5626289
0.8960531 0.8864036 0.5498196
1.0000000 0.8780535 0.5414695
1.0000000 0.8780535 0.5414695
0.0000000 1.0000000 0.5860000
0.0000000 1.0000000 0.5860000
0.0000000 1.0000000 0.5724283
0.1982983 1.0000000 0.5588999
0.4242971 1.0000000 0.5457165
0.6465866 1.0000000 0.5327495
0.8661736 1.0000000 0.5199401
1.0000000 1.0000000 0.5115901
1.0000000 1.0000000 0.5115901
0.0000000 1.0000000 0.5860000
0.0000000 1.0000000 0.5860000
0.0000000 1.0000000 0.5724283
0.1982983 1.0000000 0.5588999
0.4242971 1.0000000 0.5457165
0.6465866 1.0000000 0.5327495
0.8661736 1.0000000 0.5199401
1.0000000 1.0000000 0.5115901
1.0000000 1.0000000 0.5115901
0.0000000 0.0000000 1.0000000
0.0000000 0.0000000 1.0000000
0.2082633 0.0000000 1.0000000
0.4401787 0.0000000 1.0000000
0.6661775 0.0000000 1.0000000
0.8884670 0.0000000 1.0000000
1.0000000 0.0000000 0.9950050
1.0000000 0.0000000 0.9866549
1.0000000 0.0000000 0.9866549
0.0000000 0.0101281 1.0000000
0.0000000 0.0101281 1.0000000
0.2054076 0.0000000 1.0000000
0.4373229 0.0000000 1.0000000
0.6633217 0.0000000 1.0000000
0.8856112 0.0000000 1.0000000
1.0000000 0.0000000 0.9921492
1.0000000 0.0000000 0.9837992
1.0000000 0.0000000 0.9837992
0.0000000 0.1857450 1.0000000
0.0000000 0.1857450 1.0000000
0.1654319 0.1721734 1.0000000
0.3973473 0.1586449 0.9911333
0.6233461 0.1454615 0.9779500
0.8456355 0.1324946 0.9649830
1.0000000 0.1196852 0.9521737
1.0000000 0.1113351 0.9438236
1.0000000 0.1113351 0.9438236
0.0000000 0.3706267 0.9761488
0.0000000 0.3706267 0.9761488
0.1233473 0.3570551 0.9625773
0.3552627 0.3435266 0.9490488
0.5812615 0.3303432 0.9358654
0.8035510 0.3173763 0.9228984
1.0000000 0.3045669 0.9100890
1.0000000 0.2962168 0.9017390
1.0000000 0.2962168 0.9017390
0.0000000 0.5601639 0.9330045
0.0000000 0.5601639 0.9330045
0.0802030 0.5465923 0.9194329
0.3121184 0.5330638 0.9059044
0.5381172 0.5198804 0.8927211
0.7604067 0.5069134 0.8797541
0.9799937 0.4941041 0.8669447
1.0000000 0.4857540 0.8585947
1.0000000 0.4857540 0.8585947
0.0000000 0.7529028 0.8891314
0.0000000 0.7529028 0.8891314
0.0363299 0.7393312 0.8755598
0.2682453 0.7258027 0.8620313
0.4942440 0.7126194 0.8488479
0.7165335 0.6996524 0.8358809
0.9361206 0.6868430 0.8230716
1.0000000 0.6784929 0.8147215
1.0000000 0.6784929 0.8147215
0.0000000 0.9480985 0.8446990
0.0000000 0.9480985 0.8446990
0.0000000 0.9345269 0.8311274
0.2238129 0.9209984 0.8175989
0.4498116 0.9078150 0.8044155
0.6721011 0.8948480 0.7914486
0.8916882 0.8820387 0.7786392
1.0000000 0.8736886 0.7702891
1.0000000 0.8736886 0.7702891
0.0000000 1.0000000 0.8148196
0.0000000 1.0000000 0.8148196
0.0000000 1.0000000 0.8012480
0.1939334 1.0000000 0.7877195
0.4199322 1.0000000 0.7745361
0.6422217 1.0000000 0.7615691
0.8618088 1.0000000 0.7487598
1.0000000 1.0000000 0.7404097
1.0000000 1.0000000 0.7404097
0.0000000 1.0000000 0.8148196
0.0000000 1.0000000 0.8148196
0.0000000 1.0000000 0.8012480
0.1939334 1.0000000 0.7877195
0.4199322 1.0000000 0.7745361
0.6422217 1.0000000 0.7615691
0.8618088 1.0000000 0.7487598
1.0000000 1.0000000 0.7404097
1.0000000 1.0000000 0.7404097
0.0000000 0.0000000 1.0000000
0.0000000 0.0000000 1.0000000
0.2037521 0.0000000 1.0000000
0.4356675 0.0000000 1.0000000
0.6616663 0.0000000 1.0000000
0.8839558 0.0000000 1.0000000
1.0000000 0.0000000 1.0000000
1.0000000 0.0000000 1.0000000
1.0000000 0.0000000 1.0000000
0.0000000 0.0056169 1.0000000
0.0000000 0.0056169 1.0000000
0.2008964 0.0000000 1.0000000
0.4328118 0.0000000 1.0000000
0.6588106 0.0000000 1.0000000
0.8811001 0.0000000 1.0000000
1.0000000 0.0000000 1.0000000
1.0000000 0.0000000 1.0000000
1.0000000 0.0000000 1.0000000
0.0000000 0.1812338 1.0000000
0.0000000 0.1812338 1.0000000
0.1609208 0.1676623 1.0000000
0.3928362 0.1541338 1.0000000
0.6188349 0.1409504 1.0000000
0.8411244 0.1279834 1.0000000
1.0000000 0.1151741 1.0000000
1.0000000 0.1068240 1.0000000
1.0000000 0.1068240 1.0000000
0.0000000 0.3661155 1.0000000
0.0000000 0.3661155 1.0000000
0.1188362 0.3525439 1.0000000
0.3507515 0.3390154 1.0000000
0.5767503 0.3258321 1.0000000
0.7990398 0.3128651 1.0000000
1.0000000 0.3000557 1.0000000
1.0000000 0.2917057 1.0000000
1.0000000 0.2917057 1.0000000
0.0000000 0.5556527 1.0000000
0.0000000 0.5556527 1.0000000
0.0756919 0.5420811 1.0000000
0.3076072 0.5285527 1.0000000
0.5336060 0.5153693 1.0000000
0.7558955 0.5024023 1.0000000
0.9754826 0.4895929 1.0000000
1.0000000 0.4812429 1.0000000
1.0000000 0.4812429 1.0000000
0.0000000 0.7483916 1.0000000
0.0000000 0.7483916 1.0000000
0.0318187 0.7348201 1.0000000
0.2637341 0.7212915 1.0000000
0.4897329 0.7081082 1.0000000
0.7120224 0.6951412 1.0000000
0.9316095 0.6823319 1.0000000
1.0000000 0.6739818 1.0000000
1.0000000 0.6739818 1.0000000
0.0000000 0.9435873 1.0000000
0.0000000 0.9435873 1.0000000
0.0000000 0.9300157 1.0000000
0.2193017 0.9164872 1.0000000
0.4453005 0.9033039 1.0000000
0.6675900 0.8903369 1.0000000
0.8871771 0.8775275 1.0000000
1.0000000 0.8691775 1.0000000
1.0000000 0.8691775 1.0000000
0.0000000 1.0000000 1.0000000
0.0000000 1.0000000 1.0000000
0.0000000 1.0000000 1.0000000
0.1894223 1.0000000 1.0000000
0.4154210 1.0000000 1.0000000
0.6377106 1.0000000 0.9980576
0.8572977 1.0000000 0.9852483
1.0000000 1.0000000 0.9768982
1.0000000 1.0000000 0.9768982
0.0000000 1.0000000 1.0000000
0.0000000 1.0000000 1.0000000
0.0000000 1.0000000 1.0000000
0.1894223 1.0000000 1.0000000
0.4154210 1.0000000 1.0000000
0.6377106 1.0000000 0.9980576
0.8572977 1.0000000 0.9852483
1.0000000 1.0000000 0.9768982
1.0000000 1.0000000 0.9768982
0.0000000 0.0000000 1.0000000
0.0000000 0.0000000 1.0000000
0.2033115 0.0000000 1.0000000
0.4352268 0.0000000 1.0000000
0.6612256 0.0000000 1.0000000
0.8835151 0.0000000 1.0000000
1.0000000 0.0000000 1.0000000
1.0000000 0.0000000 1.0000000
1.0000000 0.0000000 1.0000000
0.0000000 0.0051763 1.0000000
0.0000000 0.0051763 1.0000000
0.2004557 0.0000000 1.0000000
0.4323711 0.0000000 1.0000000
0.6583699 0.0000000 1.0000000
0.8806593 0.0000000 1.0000000
1.0000000 0.0000000 1.0000000
1.0000000 0.0000000 1.0000000
1.0000000 0.0000000 1.0000000
0.0000000 0.1807932 1.0000000
0.0000000 0.1807932 1.0000000
0.1604801 0.1672216 1.0000000
0.3923955 0.1536931 1.0000000
0.6183943 0.1405097 1.0000000
0.8406837 0.1275427 1.0000000
1.0000000 0.1147334 1.0000000
1.0000000 0.1063833 1.0000000
1.0000000 0.1063833 1.0000000
0.0000000 0.3656748 1.0000000
0.0000000 0.3656748 1.0000000
0.1183955 0.3521033 1.0000000
0.3503109 0.3385747 1.0000000
0.5763096 0.3253914 1.0000000
0.7985991 0.3124244 1.0000000
1.0000000 0.2996150 1.0000000
1.0000000 0.2912650 1.0000000
1.0000000 0.2912650 1.0000000
0.0000000 0.5552120 1.0000000
0.0000000 0.5552120 1.0000000
0.0752512 0.5416405 1.0000000
0.3071665 0.5281119 1.0000000
0.5331653 0.5149286 1.0000000
0.7554548 0.5019616 1.0000000
0.9750419 0.4891523 1.0000000
1.0000000 0.4808022 1.0000000
1.0000000 0.4808022 1.0000000
0.0000000 0.7479509 1.0000000
0.0000000 0.7479509 1.0000000
0.0313781 0.7343794 1.0000000
0.2632934 0.7208509 1.0000000
0.4892922 0.7076675 1.0000000
0.7115817 0.6947005 1.0000000
0.9311687 0.6818911 1.0000000
1.0000000 0.6735411 1.0000000
1.0000000 0.6735411 1.0000000
0.0000000 0.9431466 1.0000000
0.0000000 0.9431466 1.0000000
0.0000000 0.9295751 1.0000000
0.2188610 0.9160466 1.0000000
0.4448598 0.9028632 1.0000000
0.6671493 0.8898962 1.0000000
0.8867364 0.8770869 1.0000000
1.0000000 0.8687368 1.0000000
1.0000000 0.8687368 1.0000000
0.0000000 1.0000000 1.0000000
0.0000000 1.0000000 1.0000000
0.0000000 1.0000000 1.0000000
0.1889816 1.0000000 1.0000000
0.4149804 1.0000000 1.0000000
0.6372699 1.0000000 1.0000000
0.8568569 1.0000000 1.0000000
1.0000000 1.0000000 1.0000000
1.0000000 1.0000000 1.0000000
0.0000000 1.0000000 1.0000000
0.0000000 1.0000000 1.0000000
0.0000000 1.0000000 1.0000000
0.1889816 1.0000000 1.0000000
0.4149804 1.0000000 1.0000000
0.6372699 1.0000000 1.0000000
0.8568569 1.0000000 1.0000000
1.0000000 1.0000000 1.0000000
1.0000000 1.0000000 1.0000000
