luts/lume_20260420_183736.cube
TITLE "Lume Grade"
LUT_3D_SIZE 5
0.0000000 0.0169780 0.0443042
0.2276586 0.0034064 0.0307326
0.6855727 0.0000000 0.0040208
1.0000000 0.0000000 0.0000000
1.0000000 0.0000000 0.0000000
0.0000000 0.2051403 0.0014728
0.1848272 0.1915687 0.0000000
0.6427414 0.1648569 0.0000000
1.0000000 0.1390805 0.0000000
1.0000000 0.1307305 0.0000000
0.0000000 0.5795592 0.0000000
0.0995983 0.5659876 0.0000000
0.5575125 0.5392758 0.0000000
0.9993891 0.5134994 0.0000000
1.0000000 0.5051493 0.0000000
0.0000000 0.9674938 0.0000000
0.0112928 0.9539222 0.0000000
0.4692069 0.9272103 0.0000000
0.9110835 0.9014340 0.0000000
1.0000000 0.8930839 0.0000000
0.0000000 1.0000000 0.0000000
0.0000000 1.0000000 0.0000000
0.4393275 1.0000000 0.0000000
0.8812041 1.0000000 0.0000000
1.0000000 1.0000000 0.0000000
0.0000000 0.0137975 0.2110362
0.2244781 0.0002259 0.1974646
0.6823922 0.0000000 0.1707527
1.0000000 0.0000000 0.1449764
1.0000000 0.0000000 0.1366263
0.0000000 0.2019598 0.1682048
0.1816467 0.1883882 0.1546332
0.6395609 0.1616763 0.1279214
1.0000000 0.1359000 0.1021450
1.0000000 0.1275499 0.0937950
0.0000000 0.5763787 0.0829759
0.0964178 0.5628071 0.0694043
0.5543319 0.5360952 0.0426925
0.9962085 0.5103189 0.0169161
1.0000000 0.5019688 0.0085660
0.0000000 0.9643133 0.0000000
0.0081123 0.9507416 0.0000000
0.4660264 0.9240298 0.0000000
0.9079030 0.8982535 0.0000000
1.0000000 0.8899034 0.0000000
0.0000000 1.0000000 0.0000000
0.0000000 1.0000000 0.0000000
0.4361470 1.0000000 0.0000000
0.8780236 1.0000000 0.0000000
1.0000000 1.0000000 0.0000000
0.0000000 0.0061387 0.6125297
0.2168194 0.0000000 0.5989581
0.6747335 0.0000000 0.5722463
1.0000000 0.0000000 0.5464699
1.0000000 0.0000000 0.5381198
0.0000000 0.1943011 0.5696983
0.1739880 0.1807295 0.5561267
0.6319021 0.1540176 0.5294149
1.0000000 0.1282413 0.5036385
1.0000000 0.1198912 0.4952884
0.0000000 0.5687199 0.4844694
0.0887591 0.5551484 0.4708978
0.5466732 0.5284365 0.4441859
0.9885498 0.5026602 0.4184096
1.0000000 0.4943101 0.4100595
0.0000000 0.9566545 0.3961639
0.0004536 0.9430829 0.3825923
0.4583677 0.9163711 0.3558804
0.9002443 0.8905948 0.3301041
1.0000000 0.8822447 0.3217540
0.0000000 1.0000000 0.3662845
0.0000000 1.0000000 0.3527129
0.4284883 1.0000000 0.3260010
0.8703648 1.0000000 0.3002247
1.0000000 1.0000000 0.2918746
0.0000000 0.0000000 1.0000000
0.2082633 0.0000000 1.0000000
0.6661775 0.0000000 1.0000000
1.0000000 0.0000000 0.9950050
1.0000000 0.0000000 0.9866549
0.0000000 0.1857450 1.0000000
0.1654319 0.1721734 1.0000000
0.6233461 0.1454615 0.9779500
1.0000000 0.1196852 0.9521737
1.0000000 0.1113351 0.9438236
0.0000000 0.5601639 0.9330045
0.0802030 0.5465923 0.9194329
0.5381172 0.5198804 0.8927211
0.9799937 0.4941041 0.8669447
1.0000000 0.4857540 0.8585947
0.0000000 0.9480985 0.8446990
0.0000000 0.9345269 0.8311274
0.4498116 0.9078150 0.8044155
0.8916882 0.8820387 0.7786392
1.0000000 0.8736886 0.7702891
0.0000000 1.0000000 0.8148196
0.0000000 1.0000000 0.8012480
0.4199322 1.0000000 0.7745361
0.8618088 1.0000000 0.7487598
1.0000000 1.0000000 0.7404097
0.0000000 0.0000000 1.0000000
0.2033115 0.0000000 1.0000000
0.6612256 0.0000000 1.0000000
1.0000000 0.0000000 1.0000000
1.0000000 0.0000000 1.0000000
0.0000000 0.1807932 1.0000000
0.1604801 0.1672216 1.0000000
0.6183943 0.1405097 1.0000000
1.0000000 0.1147334 1.0000000
1.0000000 0.1063833 1.0000000
0.0000000 0.5552120 1.0000000
0.0752512 0.5416405 1.0000000
0.5331653 0.5149286 1.0000000
0.9750419 0.4891523 1.0000000
1.0000000 0.4808022 1.0000000
0.0000000 0.9431466 1.0000000
0.0000000 0.9295751 1.0000000
0.4448598 0.9028632 1.0000000
0.8867364 0.8770869 1.0000000
1.0000000 0.8687368 1.0000000
0.0000000 1.0000000 1.0000000
0.0000000 1.0000000 1.0000000
0.4149804 1.0000000 1.0000000
0.8568569 1.0000000 1.0000000
1.0000000 1.0000000 1.0000000
