luts/lume_20260420_183657.cube
TITLE "Lume Grade"
LUT_3D_SIZE 9
0.0217903 0.0596524 0.0519506
0.0567885 0.0578468 0.0501449
0.2899630 0.0458167 0.0381148
0.5042837 0.0347593 0.0270574
0.7098058 0.0241558 0.0164540
0.9095629 0.0138498 0.0061479
1.0000000 0.0037640 0.0000000
1.0000000 0.0000000 0.0000000
1.0000000 0.0000000 0.0000000
0.0188023 0.0747687 0.0489625
0.0538005 0.0729631 0.0471569
0.2869749 0.0609330 0.0351267
0.5012957 0.0498756 0.0240693
0.7068177 0.0392721 0.0134659
0.9065748 0.0289661 0.0031599
1.0000000 0.0188803 0.0000000
1.0000000 0.0128091 0.0000000
1.0000000 0.0128091 0.0000000
0.0000000 0.2631444 0.0117261
0.0165641 0.2613387 0.0099204
0.2497385 0.2493086 0.0000000
0.4640592 0.2382512 0.0000000
0.6695814 0.2276478 0.0000000
0.8693384 0.2173418 0.0000000
1.0000000 0.2072560 0.0000000
1.0000000 0.2011848 0.0000000
1.0000000 0.2011848 0.0000000
0.0000000 0.4443873 0.0000000
0.0000000 0.4425816 0.0000000
0.2139121 0.4305515 0.0000000
0.4282328 0.4194941 0.0000000
0.6337549 0.4088907 0.0000000
0.8335119 0.3985847 0.0000000
1.0000000 0.3884989 0.0000000
1.0000000 0.3824277 0.0000000
1.0000000 0.3824277 0.0000000
0.0000000 0.6219220 0.0000000
0.0000000 0.6201164 0.0000000
0.1788186 0.6080862 0.0000000
0.3931393 0.5970289 0.0000000
0.5986614 0.5864254 0.0000000
0.7984185 0.5761194 0.0000000
0.9939069 0.5660336 0.0000000
1.0000000 0.5599624 0.0000000
1.0000000 0.5599624 0.0000000
0.0000000 0.7969338 0.0000000
0.0000000 0.7951281 0.0000000
0.1442239 0.7830980 0.0000000
0.3585446 0.7720406 0.0000000
0.5640667 0.7614371 0.0000000
0.7638238 0.7511311 0.0000000
0.9593122 0.7410454 0.0000000
1.0000000 0.7349741 0.0000000
1.0000000 0.7349741 0.0000000
0.0000000 0.9700353 0.0000000
0.0000000 0.9682297 0.0000000
0.1100067 0.9561996 0.0000000
0.3243274 0.9451421 0.0000000
0.5298495 0.9345387 0.0000000
0.7296066 0.9242327 0.0000000
0.9250950 0.9141469 0.0000000
1.0000000 0.9080757 0.0000000
1.0000000 0.9080757 0.0000000
0.0000000 1.0000000 0.0000000
0.0000000 1.0000000 0.0000000
0.0877759 1.0000000 0.0000000
0.3020967 1.0000000 0.0000000
0.5076188 1.0000000 0.0000000
0.7073759 1.0000000 0.0000000
0.9028642 1.0000000 0.0000000
1.0000000 1.0000000 0.0000000
1.0000000 1.0000000 0.0000000
0.0000000 1.0000000 0.0000000
0.0000000 1.0000000 0.0000000
0.0877759 1.0000000 0.0000000
0.3020967 1.0000000 0.0000000
0.5076188 1.0000000 0.0000000
0.7073759 1.0000000 0.0000000
0.9028642 1.0000000 0.0000000
1.0000000 1.0000000 0.0000000
1.0000000 1.0000000 0.0000000
0.0217247 0.0595868 0.0558227
0.0567229 0.0577812 0.0540170
0.2898974 0.0457511 0.0419869
0.5042181 0.0346937 0.0309295
0.7097402 0.0240902 0.0203260
0.9094973 0.0137842 0.0100200
1.0000000 0.0036984 0.0000000
1.0000000 0.0000000 0.0000000
1.0000000 0.0000000 0.0000000
0.0187366 0.0747031 0.0528346
0.0537349 0.0728975 0.0510290
0.2869093 0.0608674 0.0389988
0.5012300 0.0498100 0.0279415
0.7067522 0.0392065 0.0173380
0.9065092 0.0289005 0.0070320
1.0000000 0.0188147 0.0000000
1.0000000 0.0127435 0.0000000
1.0000000 0.0127435 0.0000000
0.0000000 0.2630788 0.0155982
0.0164985 0.2612731 0.0137926
0.2496729 0.2492430 0.0017624
0.4639936 0.2381856 0.0000000
0.6695157 0.2275822 0.0000000
0.8692728 0.2172762 0.0000000
1.0000000 0.2071904 0.0000000
1.0000000 0.2011192 0.0000000
1.0000000 0.2011192 0.0000000
0.0000000 0.4443217 0.0000000
0.0000000 0.4425160 0.0000000
0.2138465 0.4304859 0.0000000
0.4281672 0.4194285 0.0000000
0.6336893 0.4088250 0.0000000
0.8334464 0.3985190 0.0000000
1.0000000 0.3884332 0.0000000
1.0000000 0.3823621 0.0000000
1.0000000 0.3823621 0.0000000
0.0000000 0.6218564 0.0000000
0.0000000 0.6200507 0.0000000
0.1787530 0.6080207 0.0000000
0.3930737 0.5969632 0.0000000
0.5985959 0.5863598 0.0000000
0.7983529 0.5760537 0.0000000
0.9938413 0.5659680 0.0000000
1.0000000 0.5598968 0.0000000
1.0000000 0.5598968 0.0000000
0.0000000 0.7968681 0.0000000
0.0000000 0.7950625 0.0000000
0.1441583 0.7830324 0.0000000
0.3584790 0.7719750 0.0000000
0.5640011 0.7613715 0.0000000
0.7637582 0.7510655 0.0000000
0.9592466 0.7409797 0.0000000
1.0000000 0.7349085 0.0000000
1.0000000 0.7349085 0.0000000
0.0000000 0.9699697 0.0000000
0.0000000 0.9681641 0.0000000
0.1099411 0.9561340 0.0000000
0.3242618 0.9450766 0.0000000
0.5297840 0.9344731 0.0000000
0.7295410 0.9241671 0.0000000
0.9250294 0.9140813 0.0000000
1.0000000 0.9080101 0.0000000
1.0000000 0.9080101 0.0000000
0.0000000 1.0000000 0.0000000
0.0000000 1.0000000 0.0000000
0.0877104 1.0000000 0.0000000
0.3020310 1.0000000 0.0000000
0.5075532 1.0000000 0.0000000
0.7073103 1.0000000 0.0000000
0.9027987 1.0000000 0.0000000
1.0000000 1.0000000 0.0000000
1.0000000 1.0000000 0.0000000
0.0000000 1.0000000 0.0000000
0.0000000 1.0000000 0.0000000
0.0877104 1.0000000 0.0000000
0.3020310 1.0000000 0.0000000
0.5075532 1.0000000 0.0000000
0.7073103 1.0000000 0.0000000
0.9027987 1.0000000 0.0000000
1.0000000 1.0000000 0.0000000
1.0000000 1.0000000 0.0000000
0.0184565 0.0563186 0.2487086
0.0534547 0.0545129 0.2469030
0.2866292 0.0424828 0.2348728
0.5009499 0.0314254 0.2238155
0.7064720 0.0208220 0.2132120
0.9062291 0.0105160 0.2029060
1.0000000 0.0004302 0.1928202
1.0000000 0.0000000 0.1867490
1.0000000 0.0000000 0.1867490
0.0154684 0.0714349 0.2457206
0.0504666 0.0696292 0.2439149
0.2836411 0.0575991 0.2318848
0.4979618 0.0465417 0.2208274
0.7034839 0.0359383 0.2102239
0.9032410 0.0256323 0.1999179
1.0000000 0.0155465 0.1898322
1.0000000 0.0094753 0.1837610
1.0000000 0.0094753 0.1837610
0.0000000 0.2598106 0.2084842
0.0132302 0.2580049 0.2066785
0.2464047 0.2459748 0.1946484
0.4607254 0.2349174 0.1835910
0.6662475 0.2243140 0.1729876
0.8660046 0.2140079 0.1626815
1.0000000 0.2039222 0.1525958
1.0000000 0.1978510 0.1465246
1.0000000 0.1978510 0.1465246
0.0000000 0.4410535 0.1726577
0.0000000 0.4392478 0.1708521
0.2105782 0.4272177 0.1588220
0.4248990 0.4161603 0.1477646
0.6304210 0.4055568 0.1371611
0.8301781 0.3952508 0.1268551
1.0000000 0.3851650 0.1167693
1.0000000 0.3790938 0.1106981
1.0000000 0.3790938 0.1106981
0.0000000 0.6185881 0.1375643
0.0000000 0.6167825 0.1357586
0.1754848 0.6047524 0.1237285
0.3898055 0.5936950 0.1126710
0.5953276 0.5830916 0.1020676
0.7950847 0.5727856 0.0917616
0.9905730 0.5626997 0.0816758
1.0000000 0.5566286 0.0756046
1.0000000 0.5566286 0.0756046
0.0000000 0.7935999 0.1029695
0.0000000 0.7917942 0.1011639
0.1408901 0.7797641 0.0891337
0.3552108 0.7687067 0.0780763
0.5607328 0.7581033 0.0674729
0.7604899 0.7477973 0.0571669
0.9559783 0.7377115 0.0470811
1.0000000 0.7316403 0.0410099
1.0000000 0.7316403 0.0410099
0.0000000 0.9667015 0.0687523
0.0000000 0.9648958 0.0669467
0.1066729 0.9528657 0.0549166
0.3209936 0.9418083 0.0438592
0.5265157 0.9312049 0.0332557
0.7262728 0.9208989 0.0229497
0.9217612 0.9108131 0.0128639
1.0000000 0.9047419 0.0067927
1.0000000 0.9047419 0.0067927
0.0000000 1.0000000 0.0465215
0.0000000 1.0000000 0.0447159
0.0844421 1.0000000 0.0326858
0.2987628 1.0000000 0.0216284
0.5042849 1.0000000 0.0110250
0.7040420 1.0000000 0.0007190
0.8995304 1.0000000 0.0000000
1.0000000 1.0000000 0.0000000
1.0000000 1.0000000 0.0000000
0.0000000 1.0000000 0.0465215
0.0000000 1.0000000 0.0447159
0.0844421 1.0000000 0.0326858
0.2987628 1.0000000 0.0216284
0.5042849 1.0000000 0.0110250
0.7040420 1.0000000 0.0007190
0.8995304 1.0000000 0.0000000
1.0000000 1.0000000 0.0000000
1.0000000 1.0000000 0.0000000
0.0150492 0.0529113 0.4498003
0.0500474 0.0511057 0.4479946
0.2832219 0.0390756 0.4359645
0.4975426 0.0280182 0.4249071
0.7030647 0.0174147 0.4143037
0.9028218 0.0071087 0.4039977
1.0000000 0.0000000 0.3939118
1.0000000 0.0000000 0.3878407
1.0000000 0.0000000 0.3878407
0.0120612 0.0680276 0.4468122
0.0470594 0.0662220 0.4450065
0.2802338 0.0541919 0.4329764
0.4945545 0.0431345 0.4219190
0.7000767 0.0325310 0.4113156
0.8998337 0.0222250 0.4010096
1.0000000 0.0121392 0.3909238
1.0000000 0.0060680 0.3848526
1.0000000 0.0060680 0.3848526
0.0000000 0.2564033 0.4095758
0.0098230 0.2545977 0.4077702
0.2429974 0.2425675 0.3957400
0.4573181 0.2315101 0.3846827
0.6628402 0.2209067 0.3740792
0.8625973 0.2106007 0.3637732
1.0000000 0.2005149 0.3536874
1.0000000 0.1944437 0.3476162
1.0000000 0.1944437 0.3476162
0.0000000 0.4376462 0.3737494
0.0000000 0.4358405 0.3719437
0.2071710 0.4238104 0.3599136
0.4214917 0.4127530 0.3488562
0.6270138 0.4021496 0.3382528
0.8267709 0.3918436 0.3279467
1.0000000 0.3817578 0.3178610
1.0000000 0.3756866 0.3117898
1.0000000 0.3756866 0.3117898
0.0000000 0.6151809 0.3386559
0.0000000 0.6133752 0.3368503
0.1720775 0.6013451 0.3248202
0.3863982 0.5902877 0.3137627
0.5919203 0.5796843 0.3031593
0.7916774 0.5693783 0.2928533
0.9871658 0.5592925 0.2827675
1.0000000 0.5532213 0.2766963
1.0000000 0.5532213 0.2766963
0.0000000 0.7901926 0.3040612
0.0000000 0.7883870 0.3022555
0.1374828 0.7763569 0.2902254
0.3518035 0.7652994 0.2791680
0.5573256 0.7546960 0.2685646
0.7570827 0.7443900 0.2582586
0.9525710 0.7343042 0.2481728
1.0000000 0.7282330 0.2421016
1.0000000 0.7282330 0.2421016
0.0000000 0.9632943 0.2698440
0.0000000 0.9614886 0.2680383
0.1032656 0.9494585 0.2560082
0.3175863 0.9384011 0.2449508
0.5231084 0.9277976 0.2343474
0.7228655 0.9174916 0.2240414
0.9183539 0.9074059 0.2139556
1.0000000 0.9013346 0.2078844
1.0000000 0.9013346 0.2078844
0.0000000 1.0000000 0.2476132
0.0000000 1.0000000 0.2458076
0.0810348 1.0000000 0.2337775
0.2953556 1.0000000 0.2227201
0.5008776 1.0000000 0.2121166
0.7006347 1.0000000 0.2018105
0.8961231 1.0000000 0.1917248
1.0000000 1.0000000 0.1856537
1.0000000 1.0000000 0.1856537
0.0000000 1.0000000 0.2476132
0.0000000 1.0000000 0.2458076
0.0810348 1.0000000 0.2337775
0.2953556 1.0000000 0.2227201
0.5008776 1.0000000 0.2121166
0.7006347 1.0000000 0.2018105
0.8961231 1.0000000 0.1917248
1.0000000 1.0000000 0.1856537
1.0000000 1.0000000 0.1856537
0.0115640 0.0494261 0.6554918
0.0465622 0.0476205 0.6536862
0.2797367 0.0355903 0.6416560
0.4940574 0.0245329 0.6305987
0.6995795 0.0139295 0.6199952
0.8993366 0.0036235 0.6096892
1.0000000 0.0000000 0.5996034
1.0000000 0.0000000 0.5935322
1.0000000 0.0000000 0.5935322
0.0085759 0.0645424 0.6525037
0.0435742 0.0627368 0.6506981
0.2767486 0.0507067 0.6386680
0.4910693 0.0396493 0.6276106
0.6965914 0.0290458 0.6170072
0.8963485 0.0187398 0.6067012
1.0000000 0.0086540 0.5966154
1.0000000 0.0025828 0.5905442
1.0000000 0.0025828 0.5905442
0.0000000 0.2529181 0.6152674
0.0063377 0.2511124 0.6134617
0.2395122 0.2390823 0.6014316
0.4538329 0.2280249 0.5903742
0.6593550 0.2174215 0.5797707
0.8591121 0.2071155 0.5694647
1.0000000 0.1970297 0.5593790
1.0000000 0.1909585 0.5533078
1.0000000 0.1909585 0.5533078
0.0000000 0.4341609 0.5794410
0.0000000 0.4323553 0.5776353
0.2036858 0.4203252 0.5656052
0.4180065 0.4092678 0.5545478
0.6235286 0.3986644 0.5439443
0.8232857 0.3883583 0.5336383
1.0000000 0.3782725 0.5235525
1.0000000 0.3722014 0.5174813
1.0000000 0.3722014 0.5174813
0.0000000 0.6116957 0.5443475
0.0000000 0.6098900 0.5425418
0.1685923 0.5978599 0.5305117
0.3829130 0.5868025 0.5194543
0.5884351 0.5761991 0.5088508
0.7881922 0.5658931 0.4985448
0.9836806 0.5558073 0.4884591
1.0000000 0.5497361 0.4823879
1.0000000 0.5497361 0.4823879
0.0000000 0.7867074 0.5097528
0.0000000 0.7849018 0.5079471
0.1339976 0.7728717 0.4959170
0.3483183 0.7618142 0.4848596
0.5538404 0.7512108 0.4742561
0.7535975 0.7409048 0.4639501
0.9490858 0.7308190 0.4538643
1.0000000 0.7247478 0.4477931
1.0000000 0.7247478 0.4477931
0.0000000 0.9598091 0.4755356
0.0000000 0.9580034 0.4737299
0.0997804 0.9459733 0.4616998
0.3141011 0.9349158 0.4506424
0.5196232 0.9243124 0.4400389
0.7193803 0.9140064 0.4297329
0.9148687 0.9039206 0.4196472
1.0000000 0.8978494 0.4135760
1.0000000 0.8978494 0.4135760
0.0000000 1.0000000 0.4533048
0.0000000 1.0000000 0.4514991
0.0775496 1.0000000 0.4394690
0.2918704 1.0000000 0.4284116
0.4973924 1.0000000 0.4178082
0.6971495 1.0000000 0.4075022
0.8926379 1.0000000 0.3974164
1.0000000 1.0000000 0.3913452
1.0000000 1.0000000 0.3913452
0.0000000 1.0000000 0.4533048
0.0000000 1.0000000 0.4514991
0.0775496 1.0000000 0.4394690
0.2918704 1.0000000 0.4284116
0.4973924 1.0000000 0.4178082
0.6971495 1.0000000 0.4075022
0.8926379 1.0000000 0.3974164
1.0000000 1.0000000 0.3913452
1.0000000 1.0000000 0.3913452
0.0080236 0.0458857 0.8644415
0.0430218 0.0440800 0.8626359
0.2761962 0.0320499 0.8506058
0.4905170 0.0209925 0.8395483
0.6960391 0.0103891 0.8289449
0.8957962 0.0000831 0.8186389
1.0000000 0.0000000 0.8085531
1.0000000 0.0000000 0.8024819
1.0000000 0.0000000 0.8024819
0.0050355 0.0610020 0.8614534
0.0400337 0.0591964 0.8596478
0.2732082 0.0471663 0.8476177
0.4875289 0.0361089 0.8365604
0.6930510 0.0255054 0.8259568
0.8928081 0.0151994 0.8156508
1.0000000 0.0051136 0.8055651
1.0000000 0.0000000 0.7994939
1.0000000 0.0000000 0.7994939
0.0000000 0.2493777 0.8242171
0.0027973 0.2475720 0.8224114
0.2359718 0.2355419 0.8103813
0.4502925 0.2244845 0.7993239
0.6558146 0.2138811 0.7887205
0.8555717 0.2035751 0.7784145
1.0000000 0.1934893 0.7683287
1.0000000 0.1874181 0.7622575
1.0000000 0.1874181 0.7622575
0.0000000 0.4306206 0.7883906
0.0000000 0.4288149 0.7865850
0.2001454 0.4167848 0.7745548
0.4144661 0.4057274 0.7634975
0.6199882 0.3951239 0.7528940
0.8197453 0.3848179 0.7425880
1.0000000 0.3747321 0.7325022
1.0000000 0.3686610 0.7264310
1.0000000 0.3686610 0.7264310
0.0000000 0.6081553 0.7532972
0.0000000 0.6063496 0.7514915
0.1650519 0.5943195 0.7394614
0.3793726 0.5832621 0.7284040
0.5848947 0.5726587 0.7178006
0.7846518 0.5623527 0.7074946
0.9801402 0.5522668 0.6974087
1.0000000 0.5461957 0.6913376
1.0000000 0.5461957 0.6913376
0.0000000 0.7831670 0.7187024
0.0000000 0.7813613 0.7168968
0.1304572 0.7693312 0.7048666
0.3447779 0.7582738 0.6938093
0.5503000 0.7476704 0.6832058
0.7500570 0.7373644 0.6728998
0.9455454 0.7272786 0.6628140
1.0000000 0.7212074 0.6567428
1.0000000 0.7212074 0.6567428
0.0000000 0.9562686 0.6844853
0.0000000 0.9544629 0.6826796
0.0962400 0.9424329 0.6706495
0.3105607 0.9313754 0.6595921
0.5160828 0.9207720 0.6489887
0.7158399 0.9104660 0.6386826
0.9113283 0.9003802 0.6285968
1.0000000 0.8943090 0.6225257
1.0000000 0.8943090 0.6225257
0.0000000 1.0000000 0.6622545
0.0000000 1.0000000 0.6604488
0.0740092 1.0000000 0.6484187
0.2883300 1.0000000 0.6373613
0.4938520 1.0000000 0.6267579
0.6936091 1.0000000 0.6164519
0.8890975 1.0000000 0.6063660
1.0000000 1.0000000 0.6002949
1.0000000 1.0000000 0.6002949
0.0000000 1.0000000 0.6622545
0.0000000 1.0000000 0.6604488
0.0740092 1.0000000 0.6484187
0.2883300 1.0000000 0.6373613
0.4938520 1.0000000 0.6267579
0.6936091 1.0000000 0.6164519
0.8890975 1.0000000 0.6063660
1.0000000 1.0000000 0.6002949
1.0000000 1.0000000 0.6002949
0.0044402 0.0423023 1.0000000
0.0394384 0.0404966 1.0000000
0.2726129 0.0284665 1.0000000
0.4869336 0.0174091 1.0000000
0.6924556 0.0068057 1.0000000
0.8922127 0.0000000 1.0000000
1.0000000 0.0000000 1.0000000
1.0000000 0.0000000 1.0000000
1.0000000 0.0000000 1.0000000
0.0014521 0.0574186 1.0000000
0.0364503 0.0556130 1.0000000
0.2696248 0.0435828 1.0000000
0.4839455 0.0325254 1.0000000
0.6894677 0.0219220 1.0000000
0.8892247 0.0116160 1.0000000
1.0000000 0.0015302 1.0000000
1.0000000 0.0000000 1.0000000
1.0000000 0.0000000 1.0000000
0.0000000 0.2457943 1.0000000
0.0000000 0.2439886 1.0000000
0.2323884 0.2319585 1.0000000
0.4467091 0.2209011 1.0000000
0.6522312 0.2102977 1.0000000
0.8519883 0.1999916 0.9899016
1.0000000 0.1899059 0.9798158
1.0000000 0.1838347 0.9737446
1.0000000 0.1838347 0.9737446
0.0000000 0.4270371 0.9998778
0.0000000 0.4252315 0.9980721
0.1965620 0.4132014 0.9860420
0.4108827 0.4021440 0.9749846
0.6164048 0.3915405 0.9643812
0.8161619 0.3812345 0.9540751
1.0000000 0.3711487 0.9439894
1.0000000 0.3650776 0.9379182
1.0000000 0.3650776 0.9379182
0.0000000 0.6045719 0.9647843
0.0000000 0.6027662 0.9629787
0.1614685 0.5907361 0.9509485
0.3757892 0.5796787 0.9398911
0.5813113 0.5690752 0.9292877
0.7810684 0.5587692 0.9189817
0.9765568 0.5486835 0.9088959
1.0000000 0.5426123 0.9028247
1.0000000 0.5426123 0.9028247
0.0000000 0.7795836 0.9301896
0.0000000 0.7777780 0.9283839
0.1268738 0.7657478 0.9163538
0.3411945 0.7546904 0.9052964
0.5467166 0.7440870 0.8946930
0.7464737 0.7337810 0.8843870
0.9419620 0.7236952 0.8743011
1.0000000 0.7176240 0.8682300
1.0000000 0.7176240 0.8682300
0.0000000 0.9526852 0.8959724
0.0000000 0.9508796 0.8941667
0.0926566 0.9388494 0.8821366
0.3069773 0.9277921 0.8710792
0.5124994 0.9171886 0.8604758
0.7122565 0.9068826 0.8501698
0.9077449 0.8967968 0.8400840
1.0000000 0.8907256 0.8340128
1.0000000 0.8907256 0.8340128
0.0000000 1.0000000 0.8737416
0.0000000 1.0000000 0.8719360
0.0704258 1.0000000 0.8599058
0.2847465 1.0000000 0.8488485
0.4902686 1.0000000 0.8382450
0.6900257 1.0000000 0.8279390
0.8855141 1.0000000 0.8178532
1.0000000 1.0000000 0.8117820
1.0000000 1.0000000 0.8117820
0.0000000 1.0000000 0.8737416
0.0000000 1.0000000 0.8719360
0.0704258 1.0000000 0.8599058
0.2847465 1.0000000 0.8488485
0.4902686 1.0000000 0.8382450
0.6900257 1.0000000 0.8279390
0.8855141 1.0000000 0.8178532
1.0000000 1.0000000 0.8117820
1.0000000 1.0000000 0.8117820
0.0012510 0.0391132 1.0000000
0.0362493 0.0373075 1.0000000
0.2694237 0.0252774 1.0000000
0.4837444 0.0142200 1.0000000
0.6892666 0.0036165 1.0000000
0.8890237 0.0000000 1.0000000
1.0000000 0.0000000 1.0000000
1.0000000 0.0000000 1.0000000
1.0000000 0.0000000 1.0000000
0.0000000 0.0542295 1.0000000
0.0332612 0.0524238 1.0000000
0.2664357 0.0403937 1.0000000
0.4807564 0.0293363 1.0000000
0.6862785 0.0187328 1.0000000
0.8860356 0.0084268 1.0000000
1.0000000 0.0000000 1.0000000
1.0000000 0.0000000 1.0000000
1.0000000 0.0000000 1.0000000
0.0000000 0.2426051 1.0000000
0.0000000 0.2407995 1.0000000
0.2291993 0.2287694 1.0000000
0.4435200 0.2177120 1.0000000
0.6490421 0.2071085 1.0000000
0.8487992 0.1968025 1.0000000
1.0000000 0.1867167 1.0000000
1.0000000 0.1806456 1.0000000
1.0000000 0.1806456 1.0000000
0.0000000 0.4238480 1.0000000
0.0000000 0.4220424 1.0000000
0.1933728 0.4100122 1.0000000
0.4076935 0.3989548 1.0000000
0.6132156 0.3883514 1.0000000
0.8129727 0.3780454 1.0000000
1.0000000 0.3679596 1.0000000
1.0000000 0.3618884 1.0000000
1.0000000 0.3618884 1.0000000
0.0000000 0.6013827 1.0000000
0.0000000 0.5995771 1.0000000
0.1582794 0.5875470 1.0000000
0.3726001 0.5764896 1.0000000
0.5781222 0.5658861 1.0000000
0.7778792 0.5555801 1.0000000
0.9733676 0.5454943 1.0000000
1.0000000 0.5394232 1.0000000
1.0000000 0.5394232 1.0000000
0.0000000 0.7763945 1.0000000
0.0000000 0.7745888 1.0000000
0.1236846 0.7625587 1.0000000
0.3380053 0.7515013 1.0000000
0.5435274 0.7408978 1.0000000
0.7432845 0.7305918 1.0000000
0.9387729 0.7205061 1.0000000
1.0000000 0.7144349 1.0000000
1.0000000 0.7144349 1.0000000
0.0000000 0.9494961 1.0000000
0.0000000 0.9476904 1.0000000
0.0894675 0.9356603 1.0000000
0.3037882 0.9246029 1.0000000
0.5093102 0.9139994 1.0000000
0.7090673 0.9036934 1.0000000
0.9045557 0.8936077 1.0000000
1.0000000 0.8875365 1.0000000
1.0000000 0.8875365 1.0000000
0.0000000 1.0000000 1.0000000
0.0000000 1.0000000 1.0000000
0.0672367 1.0000000 1.0000000
0.2815574 1.0000000 1.0000000
0.4870795 1.0000000 1.0000000
0.6868366 1.0000000 1.0000000
0.8823250 1.0000000 1.0000000
1.0000000 1.0000000 1.0000000
1.0000000 1.0000000 1.0000000
0.0000000 1.0000000 1.0000000
0.0000000 1.0000000 1.0000000
0.0672367 1.0000000 1.0000000
0.2815574 1.0000000 1.0000000
0.4870795 1.0000000 1.0000000
0.6868366 1.0000000 1.0000000
0.8823250 1.0000000 1.0000000
1.0000000 1.0000000 1.0000000
1.0000000 1.0000000 1.0000000
0.0012510 0.0391132 1.0000000
0.0362493 0.0373075 1.0000000
0.2694237 0.0252774 1.0000000
0.4837444 0.0142200 1.0000000
0.6892666 0.0036165 1.0000000
0.8890237 0.0000000 1.0000000
1.0000000 0.0000000 1.0000000
1.0000000 0.0000000 1.0000000
1.0000000 0.0000000 1.0000000
0.0000000 0.0542295 1.0000000
0.0332612 0.0524238 1.0000000
0.2664357 0.0403937 1.0000000
0.4807564 0.0293363 1.0000000
0.6862785 0.0187328 1.0000000
0.8860356 0.0084268 1.0000000
1.0000000 0.0000000 1.0000000
1.0000000 0.0000000 1.0000000
1.0000000 0.0000000 1.0000000
0.0000000 0.2426051 1.0000000
0.0000000 0.2407995 1.0000000
0.2291993 0.2287694 1.0000000
0.4435200 0.2177120 1.0000000
0.6490421 0.2071085 1.0000000
0.8487992 0.1968025 1.0000000
1.0000000 0.1867167 1.0000000
1.0000000 0.1806456 1.0000000
1.0000000 0.1806456 1.0000000
0.0000000 0.4238480 1.0000000
0.0000000 0.4220424 1.0000000
0.1933728 0.4100122 1.0000000
0.4076935 0.3989548 1.0000000
0.6132156 0.3883514 1.0000000
0.8129727 0.3780454 1.0000000
1.0000000 0.3679596 1.0000000
1.0000000 0.3618884 1.0000000
1.0000000 0.3618884 1.0000000
0.0000000 0.6013827 1.0000000
0.0000000 0.5995771 1.0000000
0.1582794 0.5875470 1.0000000
0.3726001 0.5764896 1.0000000
0.5781222 0.5658861 1.0000000
0.7778792 0.5555801 1.0000000
0.9733676 0.5454943 1.0000000
1.0000000 0.5394232 1.0000000
1.0000000 0.5394232 1.0000000
0.0000000 0.7763945 1.0000000
0.0000000 0.7745888 1.0000000
0.1236846 0.7625587 1.0000000
0.3380053 0.7515013 1.0000000
0.5435274 0.7408978 1.0000000
0.7432845 0.7305918 1.0000000
0.9387729 0.7205061 1.0000000
1.0000000 0.7144349 1.0000000
1.0000000 0.7144349 1.0000000
0.0000000 0.9494961 1.0000000
0.0000000 0.9476904 1.0000000
0.0894675 0.9356603 1.0000000
0.3037882 0.9246029 1.0000000
0.5093102 0.9139994 1.0000000
0.7090673 0.9036934 1.0000000
0.9045557 0.8936077 1.0000000
1.0000000 0.8875365 1.0000000
1.0000000 0.8875365 1.0000000
0.0000000 1.0000000 1.0000000
0.0000000 1.0000000 1.0000000
0.0672367 1.0000000 1.0000000
0.2815574 1.0000000 1.0000000
0.4870795 1.0000000 1.0000000
0.6868366 1.0000000 1.0000000
0.8823250 1.0000000 1.0000000
1.0000000 1.0000000 1.0000000
1.0000000 1.0000000 1.0000000
0.0000000 1.0000000 1.0000000
0.0000000 1.0000000 1.0000000
0.0672367 1.0000000 1.0000000
0.2815574 1.0000000 1.0000000
0.4870795 1.0000000 1.0000000
0.6868366 1.0000000 1.0000000
0.8823250 1.0000000 1.0000000
1.0000000 1.0000000 1.0000000
1.0000000 1.0000000 1.0000000
