luts/lume_20260420_183736.cube
TITLE "Lume Grade"
LUT_3D_SIZE 33
0.0000000 0.0169780 0.0443042
0.0000000 0.0169780 0.0443042
0.0000000 0.0169780 0.0443042
0.0000000 0.0169780 0.0443042
0.0000000 0.0169780 0.0443042
0.0451679 0.0140518 0.0413780
0.1075419 0.0104133 0.0377395
0.1681329 0.0068788 0.0342050
0.2276586 0.0034064 0.0307326
0.2864236 0.0000000 0.0273046
0.3445976 0.0000000 0.0239111
0.4022894 0.0000000 0.0205458
0.4595739 0.0000000 0.0172041
0.5165066 0.0000000 0.0138830
0.5731294 0.0000000 0.0105800
0.6294758 0.0000000 0.0072931
0.6855727 0.0000000 0.0040208
0.7414426 0.0000000 0.0007617
0.7971039 0.0000000 0.0000000
0.8525724 0.0000000 0.0000000
0.9078623 0.0000000 0.0000000
0.9629849 0.0000000 0.0000000
1.0000000 0.0000000 0.0000000
1.0000000 0.0000000 0.0000000
1.0000000 0.0000000 0.0000000
1.0000000 0.0000000 0.0000000
1.0000000 0.0000000 0.0000000
1.0000000 0.0000000 0.0000000
1.0000000 0.0000000 0.0000000
1.0000000 0.0000000 0.0000000
1.0000000 0.0000000 0.0000000
1.0000000 0.0000000 0.0000000
1.0000000 0.0000000 0.0000000
0.0000000 0.0169780 0.0443042
0.0000000 0.0169780 0.0443042
0.0000000 0.0169780 0.0443042
0.0000000 0.0169780 0.0443042
0.0000000 0.0169780 0.0443042
0.0451679 0.0140518 0.0413780
0.1075419 0.0104133 0.0377395
0.1681329 0.0068788 0.0342050
0.2276586 0.0034064 0.0307326
0.2864236 0.0000000 0.0273046
0.3445976 0.0000000 0.0239111
0.4022894 0.0000000 0.0205458
0.4595739 0.0000000 0.0172041
0.5165066 0.0000000 0.0138830
0.5731294 0.0000000 0.0105800
0.6294758 0.0000000 0.0072931
0.6855727 0.0000000 0.0040208
0.7414426 0.0000000 0.0007617
0.7971039 0.0000000 0.0000000
0.8525724 0.0000000 0.0000000
0.9078623 0.0000000 0.0000000
0.9629849 0.0000000 0.0000000
1.0000000 0.0000000 0.0000000
1.0000000 0.0000000 0.0000000
1.0000000 0.0000000 0.0000000
1.0000000 0.0000000 0.0000000
1.0000000 0.0000000 0.0000000
1.0000000 0.0000000 0.0000000
1.0000000 0.0000000 0.0000000
1.0000000 0.0000000 0.0000000
1.0000000 0.0000000 0.0000000
1.0000000 0.0000000 0.0000000
1.0000000 0.0000000 0.0000000
0.0000000 0.0169780 0.0443042
0.0000000 0.0169780 0.0443042
0.0000000 0.0169780 0.0443042
0.0000000 0.0169780 0.0443042
0.0000000 0.0169780 0.0443042
0.0451679 0.0140518 0.0413780
0.1075419 0.0104133 0.0377395
0.1681329 0.0068788 0.0342050
0.2276586 0.0034064 0.0307326
0.2864236 0.0000000 0.0273046
0.3445976 0.0000000 0.0239111
0.4022894 0.0000000 0.0205458
0.4595739 0.0000000 0.0172041
0.5165066 0.0000000 0.0138830
0.5731294 0.0000000 0.0105800
0.6294758 0.0000000 0.0072931
0.6855727 0.0000000 0.0040208
0.7414426 0.0000000 0.0007617
0.7971039 0.0000000 0.0000000
0.8525724 0.0000000 0.0000000
0.9078623 0.0000000 0.0000000
0.9629849 0.0000000 0.0000000
1.0000000 0.0000000 0.0000000
1.0000000 0.0000000 0.0000000
1.0000000 0.0000000 0.0000000
1.0000000 0.0000000 0.0000000
1.0000000 0.0000000 0.0000000
1.0000000 0.0000000 0.0000000
1.0000000 0.0000000 0.0000000
1.0000000 0.0000000 0.0000000
1.0000000 0.0000000 0.0000000
1.0000000 0.0000000 0.0000000
1.0000000 0.0000000 0.0000000
0.0000000 0.0169780 0.0443042
0.0000000 0.0169780 0.0443042
0.0000000 0.0169780 0.0443042
0.0000000 0.0169780 0.0443042
0.0000000 0.0169780 0.0443042
0.0451679 0.0140518 0.0413780
0.1075419 0.0104133 0.0377395
0.1681329 0.0068788 0.0342050
0.2276586 0.0034064 0.0307326
0.2864236 0.0000000 0.0273046
0.3445976 0.0000000 0.0239111
0.4022894 0.0000000 0.0205458
0.4595739 0.0000000 0.0172041
0.5165066 0.0000000 0.0138830
0.5731294 0.0000000 0.0105800
0.6294758 0.0000000 0.0072931
0.6855727 0.0000000 0.0040208
0.7414426 0.0000000 0.0007617
0.7971039 0.0000000 0.0000000
0.8525724 0.0000000 0.0000000
0.9078623 0.0000000 0.0000000
0.9629849 0.0000000 0.0000000
1.0000000 0.0000000 0.0000000
1.0000000 0.0000000 0.0000000
1.0000000 0.0000000 0.0000000
1.0000000 0.0000000 0.0000000
1.0000000 0.0000000 0.0000000
1.0000000 0.0000000 0.0000000
1.0000000 0.0000000 0.0000000
1.0000000 0.0000000 0.0000000
1.0000000 0.0000000 0.0000000
1.0000000 0.0000000 0.0000000
1.0000000 0.0000000 0.0000000
0.0000000 0.0295234 0.0414485
0.0000000 0.0295234 0.0414485
0.0000000 0.0295234 0.0414485
0.0000000 0.0295234 0.0414485
0.0000000 0.0295234 0.0414485
0.0423121 0.0265972 0.0385223
0.1046861 0.0229587 0.0348838
0.1652772 0.0194242 0.0313493
0.2248029 0.0159518 0.0278769
0.2835678 0.0125238 0.0244489
0.3417419 0.0091303 0.0210554
0.3994337 0.0057649 0.0176900
0.4567183 0.0024233 0.0143484
0.5136508 0.0000000 0.0110273
0.5702737 0.0000000 0.0077243
0.6266201 0.0000000 0.0044374
0.6827170 0.0000000 0.0011650
0.7385869 0.0000000 0.0000000
0.7942482 0.0000000 0.0000000
0.8497167 0.0000000 0.0000000
0.9050065 0.0000000 0.0000000
0.9601291 0.0000000 0.0000000
1.0000000 0.0000000 0.0000000
1.0000000 0.0000000 0.0000000
1.0000000 0.0000000 0.0000000
1.0000000 0.0000000 0.0000000
1.0000000 0.0000000 0.0000000
1.0000000 0.0000000 0.0000000
1.0000000 0.0000000 0.0000000
1.0000000 0.0000000 0.0000000
1.0000000 0.0000000 0.0000000
1.0000000 0.0000000 0.0000000
1.0000000 0.0000000 0.0000000
0.0000000 0.0718311 0.0318180
0.0000000 0.0718311 0.0318180
0.0000000 0.0718311 0.0318180
0.0000000 0.0718311 0.0318180
0.0000000 0.0718311 0.0318180
0.0326816 0.0689049 0.0288918
0.0950556 0.0652664 0.0252533
0.1556467 0.0617319 0.0217188
0.2151724 0.0582596 0.0182464
0.2739373 0.0548316 0.0148184
0.3321114 0.0514381 0.0114249
0.3898032 0.0480727 0.0080595
0.4470878 0.0447311 0.0047179
0.5040203 0.0414100 0.0013968
0.5606432 0.0381069 0.0000000
0.6169896 0.0348200 0.0000000
0.6730865 0.0315477 0.0000000
0.7289564 0.0282886 0.0000000
0.7846177 0.0250417 0.0000000
0.8400862 0.0218060 0.0000000
0.8953760 0.0185807 0.0000000
0.9504986 0.0153652 0.0000000
1.0000000 0.0121588 0.0000000
1.0000000 0.0089610 0.0000000
1.0000000 0.0057714 0.0000000
1.0000000 0.0025894 0.0000000
1.0000000 0.0000000 0.0000000
1.0000000 0.0000000 0.0000000
1.0000000 0.0000000 0.0000000
1.0000000 0.0000000 0.0000000
1.0000000 0.0000000 0.0000000
1.0000000 0.0000000 0.0000000
1.0000000 0.0000000 0.0000000
0.0000000 0.1154874 0.0218805
0.0000000 0.1154874 0.0218805
0.0000000 0.1154874 0.0218805
0.0000000 0.1154874 0.0218805
0.0000000 0.1154874 0.0218805
0.0227442 0.1125612 0.0189543
0.0851182 0.1089227 0.0153158
0.1457092 0.1053882 0.0117813
0.2052349 0.1019158 0.0083089
0.2639998 0.0984878 0.0048810
0.3221740 0.0950943 0.0014874
0.3798657 0.0917289 0.0000000
0.4371503 0.0883873 0.0000000
0.4940829 0.0850662 0.0000000
0.5507057 0.0817632 0.0000000
0.6070521 0.0784763 0.0000000
0.6631491 0.0752040 0.0000000
0.7190189 0.0719449 0.0000000
0.7746801 0.0686979 0.0000000
0.8301488 0.0654622 0.0000000
0.8854386 0.0622370 0.0000000
0.9405612 0.0590215 0.0000000
0.9955274 0.0558151 0.0000000
1.0000000 0.0526173 0.0000000
1.0000000 0.0494276 0.0000000
1.0000000 0.0462457 0.0000000
1.0000000 0.0430710 0.0000000
1.0000000 0.0410776 0.0000000
1.0000000 0.0410776 0.0000000
1.0000000 0.0410776 0.0000000
1.0000000 0.0410776 0.0000000
1.0000000 0.0410776 0.0000000
1.0000000 0.0410776 0.0000000
0.0000000 0.1599978 0.0117486
0.0000000 0.1599978 0.0117486
0.0000000 0.1599978 0.0117486
0.0000000 0.1599978 0.0117486
0.0000000 0.1599978 0.0117486
0.0126123 0.1570716 0.0088224
0.0749863 0.1534331 0.0051839
0.1355773 0.1498986 0.0016494
0.1951030 0.1464262 0.0000000
0.2538680 0.1429983 0.0000000
0.3120421 0.1396047 0.0000000
0.3697338 0.1362394 0.0000000
0.4270184 0.1328977 0.0000000
0.4839509 0.1295767 0.0000000
0.5405738 0.1262736 0.0000000
0.5969203 0.1229867 0.0000000
0.6530172 0.1197144 0.0000000
0.7088870 0.1164553 0.0000000
0.7645483 0.1132083 0.0000000
0.8200169 0.1099727 0.0000000
0.8753067 0.1067474 0.0000000
0.9304292 0.1035319 0.0000000
0.9853955 0.1003255 0.0000000
1.0000000 0.0971277 0.0000000
1.0000000 0.0939380 0.0000000
1.0000000 0.0907561 0.0000000
1.0000000 0.0875814 0.0000000
1.0000000 0.0855880 0.0000000
1.0000000 0.0855880 0.0000000
1.0000000 0.0855880 0.0000000
1.0000000 0.0855880 0.0000000
1.0000000 0.0855880 0.0000000
1.0000000 0.0855880 0.0000000
0.0000000 0.2051403 0.0014728
0.0000000 0.2051403 0.0014728
0.0000000 0.2051403 0.0014728
0.0000000 0.2051403 0.0014728
0.0000000 0.2051403 0.0014728
0.0023365 0.2022141 0.0000000
0.0647105 0.1985756 0.0000000
0.1253015 0.1950411 0.0000000
0.1848272 0.1915687 0.0000000
0.2435922 0.1881407 0.0000000
0.3017663 0.1847472 0.0000000
0.3594580 0.1813818 0.0000000
0.4167426 0.1780402 0.0000000
0.4736752 0.1747191 0.0000000
0.5302981 0.1714161 0.0000000
0.5866445 0.1681292 0.0000000
0.6427414 0.1648569 0.0000000
0.6986113 0.1615978 0.0000000
0.7542725 0.1583508 0.0000000
0.8097411 0.1551151 0.0000000
0.8650309 0.1518899 0.0000000
0.9201535 0.1486743 0.0000000
0.9751197 0.1454680 0.0000000
1.0000000 0.1422702 0.0000000
1.0000000 0.1390805 0.0000000
1.0000000 0.1358985 0.0000000
1.0000000 0.1327239 0.0000000
1.0000000 0.1307305 0.0000000
1.0000000 0.1307305 0.0000000
1.0000000 0.1307305 0.0000000
1.0000000 0.1307305 0.0000000
1.0000000 0.1307305 0.0000000
1.0000000 0.1307305 0.0000000
0.0000000 0.2507865 0.0000000
0.0000000 0.2507865 0.0000000
0.0000000 0.2507865 0.0000000
0.0000000 0.2507865 0.0000000
0.0000000 0.2507865 0.0000000
0.0000000 0.2478604 0.0000000
0.0543200 0.2442218 0.0000000
0.1149111 0.2406873 0.0000000
0.1744368 0.2372150 0.0000000
0.2332017 0.2337870 0.0000000
0.2913758 0.2303935 0.0000000
0.3490676 0.2270281 0.0000000
0.4063522 0.2236865 0.0000000
0.4632847 0.2203654 0.0000000
0.5199076 0.2170624 0.0000000
0.5762540 0.2137755 0.0000000
0.6323509 0.2105031 0.0000000
0.6882207 0.2072440 0.0000000
0.7438821 0.2039971 0.0000000
0.7993506 0.2007614 0.0000000
0.8546404 0.1975361 0.0000000
0.9097630 0.1943206 0.0000000
0.9647292 0.1911142 0.0000000
1.0000000 0.1879164 0.0000000
1.0000000 0.1847268 0.0000000
1.0000000 0.1815448 0.0000000
1.0000000 0.1783701 0.0000000
1.0000000 0.1763767 0.0000000
1.0000000 0.1763767 0.0000000
1.0000000 0.1763767 0.0000000
1.0000000 0.1763767 0.0000000
1.0000000 0.1763767 0.0000000
1.0000000 0.1763767 0.0000000
0.0000000 0.2968527 0.0000000
0.0000000 0.2968527 0.0000000
0.0000000 0.2968527 0.0000000
0.0000000 0.2968527 0.0000000
0.0000000 0.2968527 0.0000000
0.0000000 0.2939265 0.0000000
0.0438340 0.2902880 0.0000000
0.1044250 0.2867535 0.0000000
0.1639507 0.2832811 0.0000000
0.2227157 0.2798531 0.0000000
0.2808898 0.2764596 0.0000000
0.3385816 0.2730943 0.0000000
0.3958661 0.2697526 0.0000000
0.4527987 0.2664315 0.0000000
0.5094216 0.2631285 0.0000000
0.5657680 0.2598416 0.0000000
0.6218649 0.2565693 0.0000000
0.6777347 0.2533101 0.0000000
0.7333961 0.2500632 0.0000000
0.7888646 0.2468275 0.0000000
0.8441544 0.2436023 0.0000000
0.8992770 0.2403868 0.0000000
0.9542433 0.2371804 0.0000000
1.0000000 0.2339826 0.0000000
1.0000000 0.2307929 0.0000000
1.0000000 0.2276109 0.0000000
1.0000000 0.2244363 0.0000000
1.0000000 0.2224429 0.0000000
1.0000000 0.2224429 0.0000000
1.0000000 0.2224429 0.0000000
1.0000000 0.2224429 0.0000000
1.0000000 0.2224429 0.0000000
1.0000000 0.2224429 0.0000000
0.0000000 0.3432792 0.0000000
0.0000000 0.3432792 0.0000000
0.0000000 0.3432792 0.0000000
0.0000000 0.3432792 0.0000000
0.0000000 0.3432792 0.0000000
0.0000000 0.3403530 0.0000000
0.0332659 0.3367145 0.0000000
0.0938570 0.3331800 0.0000000
0.1533827 0.3297077 0.0000000
0.2121476 0.3262797 0.0000000
0.2703218 0.3228862 0.0000000
0.3280135 0.3195208 0.0000000
0.3852981 0.3161792 0.0000000
0.4422306 0.3128580 0.0000000
0.4988535 0.3095550 0.0000000
0.5551999 0.3062681 0.0000000
0.6112968 0.3029958 0.0000000
0.6671667 0.2997367 0.0000000
0.7228280 0.2964897 0.0000000
0.7782965 0.2932540 0.0000000
0.8335863 0.2900288 0.0000000
0.8887089 0.2868133 0.0000000
0.9436752 0.2836069 0.0000000
0.9984939 0.2804091 0.0000000
1.0000000 0.2772194 0.0000000
1.0000000 0.2740375 0.0000000
1.0000000 0.2708628 0.0000000
1.0000000 0.2688694 0.0000000
1.0000000 0.2688694 0.0000000
1.0000000 0.2688694 0.0000000
1.0000000 0.2688694 0.0000000
1.0000000 0.2688694 0.0000000
1.0000000 0.2688694 0.0000000
0.0000000 0.3900220 0.0000000
0.0000000 0.3900220 0.0000000
0.0000000 0.3900220 0.0000000
0.0000000 0.3900220 0.0000000
0.0000000 0.3900220 0.0000000
0.0000000 0.3870958 0.0000000
0.0226259 0.3834573 0.0000000
0.0832169 0.3799227 0.0000000
0.1427426 0.3764504 0.0000000
0.2015076 0.3730224 0.0000000
0.2596817 0.3696289 0.0000000
0.3173735 0.3662635 0.0000000
0.3746580 0.3629219 0.0000000
0.4315906 0.3596008 0.0000000
0.4882134 0.3562978 0.0000000
0.5445598 0.3530109 0.0000000
0.6006567 0.3497385 0.0000000
0.6565266 0.3464794 0.0000000
0.7121879 0.3432325 0.0000000
0.7676564 0.3399968 0.0000000
0.8229463 0.3367715 0.0000000
0.8780689 0.3335560 0.0000000
0.9330351 0.3303496 0.0000000
0.9878538 0.3271519 0.0000000
1.0000000 0.3239622 0.0000000
1.0000000 0.3207802 0.0000000
1.0000000 0.3176055 0.0000000
1.0000000 0.3156121 0.0000000
1.0000000 0.3156121 0.0000000
1.0000000 0.3156121 0.0000000
1.0000000 0.3156121 0.0000000
1.0000000 0.3156121 0.0000000
1.0000000 0.3156121 0.0000000
0.0000000 0.4370464 0.0000000
0.0000000 0.4370464 0.0000000
0.0000000 0.4370464 0.0000000
0.0000000 0.4370464 0.0000000
0.0000000 0.4370464 0.0000000
0.0000000 0.4341202 0.0000000
0.0119217 0.4304817 0.0000000
0.0725128 0.4269472 0.0000000
0.1320385 0.4234748 0.0000000
0.1908034 0.4200469 0.0000000
0.2489775 0.4166534 0.0000000
0.3066693 0.4132880 0.0000000
0.3639538 0.4099464 0.0000000
0.4208864 0.4066253 0.0000000
0.4775093 0.4033222 0.0000000
0.5338557 0.4000353 0.0000000
0.5899526 0.3967630 0.0000000
0.6458225 0.3935039 0.0000000
0.7014837 0.3902569 0.0000000
0.7569523 0.3870213 0.0000000
0.8122422 0.3837960 0.0000000
0.8673648 0.3805805 0.0000000
0.9223310 0.3773741 0.0000000
0.9771496 0.3741763 0.0000000
1.0000000 0.3709866 0.0000000
1.0000000 0.3678047 0.0000000
1.0000000 0.3646300 0.0000000
1.0000000 0.3626366 0.0000000
1.0000000 0.3626366 0.0000000
1.0000000 0.3626366 0.0000000
1.0000000 0.3626366 0.0000000
1.0000000 0.3626366 0.0000000
1.0000000 0.3626366 0.0000000
0.0000000 0.4843251 0.0000000
0.0000000 0.4843251 0.0000000
0.0000000 0.4843251 0.0000000
0.0000000 0.4843251 0.0000000
0.0000000 0.4843251 0.0000000
0.0000000 0.4813989 0.0000000
0.0011597 0.4777604 0.0000000
0.0617507 0.4742259 0.0000000
0.1212764 0.4707536 0.0000000
0.1800414 0.4673256 0.0000000
0.2382155 0.4639320 0.0000000
0.2959073 0.4605667 0.0000000
0.3531918 0.4572251 0.0000000
0.4101244 0.4539039 0.0000000
0.4667473 0.4506009 0.0000000
0.5230936 0.4473140 0.0000000
0.5791906 0.4440417 0.0000000
0.6350604 0.4407826 0.0000000
0.6907218 0.4375356 0.0000000
0.7461903 0.4342999 0.0000000
0.8014801 0.4310747 0.0000000
0.8566027 0.4278592 0.0000000
0.9115689 0.4246528 0.0000000
0.9663876 0.4214550 0.0000000
1.0000000 0.4182653 0.0000000
1.0000000 0.4150834 0.0000000
1.0000000 0.4119087 0.0000000
1.0000000 0.4099153 0.0000000
1.0000000 0.4099153 0.0000000
1.0000000 0.4099153 0.0000000
1.0000000 0.4099153 0.0000000
1.0000000 0.4099153 0.0000000
1.0000000 0.4099153 0.0000000
0.0000000 0.5318357 0.0000000
0.0000000 0.5318357 0.0000000
0.0000000 0.5318357 0.0000000
0.0000000 0.5318357 0.0000000
0.0000000 0.5318357 0.0000000
0.0000000 0.5289094 0.0000000
0.0000000 0.5252709 0.0000000
0.0509359 0.5217364 0.0000000
0.1104616 0.5182641 0.0000000
0.1692266 0.5148361 0.0000000
0.2274007 0.5114425 0.0000000
0.2850924 0.5080772 0.0000000
0.3423770 0.5047356 0.0000000
0.3993096 0.5014145 0.0000000
0.4559324 0.4981115 0.0000000
0.5122789 0.4948245 0.0000000
0.5683758 0.4915522 0.0000000
0.6242456 0.4882931 0.0000000
0.6799069 0.4850461 0.0000000
0.7353755 0.4818105 0.0000000
0.7906653 0.4785852 0.0000000
0.8457879 0.4753697 0.0000000
0.9007541 0.4721633 0.0000000
0.9555727 0.4689655 0.0000000
1.0000000 0.4657759 0.0000000
1.0000000 0.4625939 0.0000000
1.0000000 0.4594192 0.0000000
1.0000000 0.4574258 0.0000000
1.0000000 0.4574258 0.0000000
1.0000000 0.4574258 0.0000000
1.0000000 0.4574258 0.0000000
1.0000000 0.4574258 0.0000000
1.0000000 0.4574258 0.0000000
0.0000000 0.5795592 0.0000000
0.0000000 0.5795592 0.0000000
0.0000000 0.5795592 0.0000000
0.0000000 0.5795592 0.0000000
0.0000000 0.5795592 0.0000000
0.0000000 0.5766330 0.0000000
0.0000000 0.5729945 0.0000000
0.0400726 0.5694600 0.0000000
0.0995983 0.5659876 0.0000000
0.1583633 0.5625596 0.0000000
0.2165374 0.5591661 0.0000000
0.2742291 0.5558007 0.0000000
0.3315137 0.5524591 0.0000000
0.3884463 0.5491380 0.0000000
0.4450691 0.5458350 0.0000000
0.5014156 0.5425481 0.0000000
0.5575125 0.5392758 0.0000000
0.6133823 0.5360166 0.0000000
0.6690436 0.5327697 0.0000000
0.7245122 0.5295340 0.0000000
0.7798020 0.5263088 0.0000000
0.8349246 0.5230932 0.0000000
0.8898908 0.5198869 0.0000000
0.9447094 0.5166891 0.0000000
0.9993891 0.5134994 0.0000000
1.0000000 0.5103174 0.0000000
1.0000000 0.5071427 0.0000000
1.0000000 0.5051493 0.0000000
1.0000000 0.5051493 0.0000000
1.0000000 0.5051493 0.0000000
1.0000000 0.5051493 0.0000000
1.0000000 0.5051493 0.0000000
1.0000000 0.5051493 0.0000000
0.0000000 0.6274800 0.0000000
0.0000000 0.6274800 0.0000000
0.0000000 0.6274800 0.0000000
0.0000000 0.6274800 0.0000000
0.0000000 0.6274800 0.0000000
0.0000000 0.6245537 0.0000000
0.0000000 0.6209152 0.0000000
0.0291644 0.6173807 0.0000000
0.0886901 0.6139084 0.0000000
0.1474551 0.6104804 0.0000000
0.2056292 0.6070869 0.0000000
0.2633209 0.6037215 0.0000000
0.3206055 0.6003799 0.0000000
0.3775381 0.5970588 0.0000000
0.4341609 0.5937558 0.0000000
0.4905073 0.5904689 0.0000000
0.5466043 0.5871965 0.0000000
0.6024741 0.5839374 0.0000000
0.6581354 0.5806904 0.0000000
0.7136040 0.5774548 0.0000000
0.7688938 0.5742295 0.0000000
0.8240164 0.5710140 0.0000000
0.8789826 0.5678076 0.0000000
0.9338013 0.5646098 0.0000000
0.9884808 0.5614201 0.0000000
1.0000000 0.5582382 0.0000000
1.0000000 0.5550635 0.0000000
1.0000000 0.5530701 0.0000000
1.0000000 0.5530701 0.0000000
1.0000000 0.5530701 0.0000000
1.0000000 0.5530701 0.0000000
1.0000000 0.5530701 0.0000000
1.0000000 0.5530701 0.0000000
0.0000000 0.6755843 0.0000000
0.0000000 0.6755843 0.0000000
0.0000000 0.6755843 0.0000000
0.0000000 0.6755843 0.0000000
0.0000000 0.6755843 0.0000000
0.0000000 0.6726581 0.0000000
0.0000000 0.6690196 0.0000000
0.0182144 0.6654851 0.0000000
0.0777402 0.6620128 0.0000000
0.1365051 0.6585848 0.0000000
0.1946792 0.6551912 0.0000000
0.2523710 0.6518259 0.0000000
0.3096555 0.6484842 0.0000000
0.3665881 0.6451632 0.0000000
0.4232109 0.6418601 0.0000000
0.4795574 0.6385732 0.0000000
0.5356542 0.6353009 0.0000000
0.5915241 0.6320418 0.0000000
0.6471854 0.6287948 0.0000000
0.7026540 0.6255592 0.0000000
0.7579437 0.6223339 0.0000000
0.8130664 0.6191184 0.0000000
0.8680326 0.6159120 0.0000000
0.9228513 0.6127142 0.0000000
0.9775308 0.6095245 0.0000000
1.0000000 0.6063426 0.0000000
1.0000000 0.6031679 0.0000000
1.0000000 0.6011745 0.0000000
1.0000000 0.6011745 0.0000000
1.0000000 0.6011745 0.0000000
1.0000000 0.6011745 0.0000000
1.0000000 0.6011745 0.0000000
1.0000000 0.6011745 0.0000000
0.0000000 0.7238605 0.0000000
0.0000000 0.7238605 0.0000000
0.0000000 0.7238605 0.0000000
0.0000000 0.7238605 0.0000000
0.0000000 0.7238605 0.0000000
0.0000000 0.7209343 0.0000000
0.0000000 0.7172958 0.0000000
0.0072253 0.7137613 0.0000000
0.0667510 0.7102889 0.0000000
0.1255160 0.7068609 0.0000000
0.1836901 0.7034674 0.0000000
0.2413818 0.7001020 0.0000000
0.2986664 0.6967604 0.0000000
0.3555990 0.6934393 0.0000000
0.4122218 0.6901363 0.0000000
0.4685682 0.6868494 0.0000000
0.5246652 0.6835771 0.0000000
0.5805350 0.6803179 0.0000000
0.6361963 0.6770710 0.0000000
0.6916649 0.6738353 0.0000000
0.7469547 0.6706101 0.0000000
0.8020773 0.6673945 0.0000000
0.8570435 0.6641881 0.0000000
0.9118621 0.6609904 0.0000000
0.9665418 0.6578007 0.0000000
1.0000000 0.6546187 0.0000000
1.0000000 0.6514440 0.0000000
1.0000000 0.6494506 0.0000000
1.0000000 0.6494506 0.0000000
1.0000000 0.6494506 0.0000000
1.0000000 0.6494506 0.0000000
1.0000000 0.6494506 0.0000000
1.0000000 0.6494506 0.0000000
0.0000000 0.7722981 0.0000000
0.0000000 0.7722981 0.0000000
0.0000000 0.7722981 0.0000000
0.0000000 0.7722981 0.0000000
0.0000000 0.7722981 0.0000000
0.0000000 0.7693719 0.0000000
0.0000000 0.7657334 0.0000000
0.0000000 0.7621989 0.0000000
0.0557252 0.7587265 0.0000000
0.1144901 0.7552986 0.0000000
0.1726643 0.7519050 0.0000000
0.2303560 0.7485396 0.0000000
0.2876406 0.7451980 0.0000000
0.3445731 0.7418769 0.0000000
0.4011960 0.7385739 0.0000000
0.4575424 0.7352870 0.0000000
0.5136393 0.7320147 0.0000000
0.5695092 0.7287555 0.0000000
0.6251705 0.7255086 0.0000000
0.6806390 0.7222729 0.0000000
0.7359288 0.7190477 0.0000000
0.7910514 0.7158322 0.0000000
0.8460177 0.7126257 0.0000000
0.9008363 0.7094280 0.0000000
0.9555159 0.7062383 0.0000000
1.0000000 0.7030563 0.0000000
1.0000000 0.6998817 0.0000000
1.0000000 0.6978883 0.0000000
1.0000000 0.6978883 0.0000000
1.0000000 0.6978883 0.0000000
1.0000000 0.6978883 0.0000000
1.0000000 0.6978883 0.0000000
1.0000000 0.6978883 0.0000000
0.0000000 0.8208878 0.0000000
0.0000000 0.8208878 0.0000000
0.0000000 0.8208878 0.0000000
0.0000000 0.8208878 0.0000000
0.0000000 0.8208878 0.0000000
0.0000000 0.8179616 0.0000000
0.0000000 0.8143231 0.0000000
0.0000000 0.8107886 0.0000000
0.0446647 0.8073162 0.0000000
0.1034296 0.8038883 0.0000000
0.1616038 0.8004947 0.0000000
0.2192955 0.7971294 0.0000000
0.2765801 0.7937877 0.0000000
0.3335127 0.7904667 0.0000000
0.3901355 0.7871636 0.0000000
0.4464819 0.7838767 0.0000000
0.5025789 0.7806044 0.0000000
0.5584487 0.7773453 0.0000000
0.6141100 0.7740983 0.0000000
0.6695786 0.7708626 0.0000000
0.7248684 0.7676374 0.0000000
0.7799910 0.7644219 0.0000000
0.8349572 0.7612155 0.0000000
0.8897759 0.7580177 0.0000000
0.9444554 0.7548280 0.0000000
0.9990032 0.7516460 0.0000000
1.0000000 0.7484714 0.0000000
1.0000000 0.7464780 0.0000000
1.0000000 0.7464780 0.0000000
1.0000000 0.7464780 0.0000000
1.0000000 0.7464780 0.0000000
1.0000000 0.7464780 0.0000000
1.0000000 0.7464780 0.0000000
0.0000000 0.8696218 0.0000000
0.0000000 0.8696218 0.0000000
0.0000000 0.8696218 0.0000000
0.0000000 0.8696218 0.0000000
0.0000000 0.8696218 0.0000000
0.0000000 0.8666956 0.0000000
0.0000000 0.8630571 0.0000000
0.0000000 0.8595226 0.0000000
0.0335714 0.8560503 0.0000000
0.0923364 0.8526223 0.0000000
0.1505105 0.8492287 0.0000000
0.2082022 0.8458633 0.0000000
0.2654868 0.8425218 0.0000000
0.3224193 0.8392006 0.0000000
0.3790422 0.8358976 0.0000000
0.4353886 0.8326107 0.0000000
0.4914855 0.8293384 0.0000000
0.5473554 0.8260793 0.0000000
0.6030167 0.8228323 0.0000000
0.6584852 0.8195966 0.0000000
0.7137750 0.8163714 0.0000000
0.7688977 0.8131559 0.0000000
0.8238639 0.8099495 0.0000000
0.8786825 0.8067517 0.0000000
0.9333621 0.8035620 0.0000000
0.9879099 0.8003801 0.0000000
1.0000000 0.7972054 0.0000000
1.0000000 0.7952120 0.0000000
1.0000000 0.7952120 0.0000000
1.0000000 0.7952120 0.0000000
1.0000000 0.7952120 0.0000000
1.0000000 0.7952120 0.0000000
1.0000000 0.7952120 0.0000000
0.0000000 0.9184927 0.0000000
0.0000000 0.9184927 0.0000000
0.0000000 0.9184927 0.0000000
0.0000000 0.9184927 0.0000000
0.0000000 0.9184927 0.0000000
0.0000000 0.9155665 0.0000000
0.0000000 0.9119279 0.0000000
0.0000000 0.9083935 0.0000000
0.0224469 0.9049211 0.0000000
0.0812119 0.9014931 0.0000000
0.1393860 0.8980996 0.0000000
0.1970778 0.8947343 0.0000000
0.2543623 0.8913926 0.0000000
0.3112949 0.8880715 0.0000000
0.3679177 0.8847685 0.0000000
0.4242642 0.8814816 0.0000000
0.4803610 0.8782092 0.0000000
0.5362309 0.8749502 0.0000000
0.5918922 0.8717032 0.0000000
0.6473608 0.8684675 0.0000000
0.7026506 0.8652422 0.0000000
0.7577732 0.8620268 0.0000000
0.8127394 0.8588204 0.0000000
0.8675581 0.8556226 0.0000000
0.9222376 0.8524329 0.0000000
0.9767855 0.8492509 0.0000000
1.0000000 0.8460763 0.0000000
1.0000000 0.8440828 0.0000000
1.0000000 0.8440828 0.0000000
1.0000000 0.8440828 0.0000000
1.0000000 0.8440828 0.0000000
1.0000000 0.8440828 0.0000000
1.0000000 0.8440828 0.0000000
0.0000000 0.9674938 0.0000000
0.0000000 0.9674938 0.0000000
0.0000000 0.9674938 0.0000000
0.0000000 0.9674938 0.0000000
0.0000000 0.9674938 0.0000000
0.0000000 0.9645675 0.0000000
